; HEADER_BLOCK_START
; generated by OrcaSlicer 2.3.1-dev on 2025-08-04 at 13:13:54
; total layer number: 40
; filament_density: 1.02
; filament_diameter: 1.75
; max_z_height: 8.00
; HEADER_BLOCK_END

; THUMBNAIL_BLOCK_START

;
; THUMBNAIL_BLOCK_END

; THUMBNAIL_BLOCK_START

;
; THUMBNAIL_BLOCK_END

; external perimeters extrusion width = 0.40mm
; perimeters extrusion width = 0.40mm
; infill extrusion width = 0.45mm
; solid infill extrusion width = 0.40mm
; top infill extrusion width = 0.40mm
; first layer extrusion width = 0.50mm

; external perimeters extrusion width = 0.40mm
; perimeters extrusion width = 0.40mm
; infill extrusion width = 0.45mm
; solid infill extrusion width = 0.40mm
; top infill extrusion width = 0.40mm
; first layer extrusion width = 0.50mm

; external perimeters extrusion width = 0.40mm
; perimeters extrusion width = 0.40mm
; infill extrusion width = 0.45mm
; solid infill extrusion width = 0.40mm
; top infill extrusion width = 0.40mm
; first layer extrusion width = 0.50mm

; external perimeters extrusion width = 0.40mm
; perimeters extrusion width = 0.40mm
; infill extrusion width = 0.45mm
; solid infill extrusion width = 0.40mm
; top infill extrusion width = 0.40mm
; first layer extrusion width = 0.50mm

; EXECUTABLE_BLOCK_START
EXCLUDE_OBJECT_DEFINE NAME=rail_installation_guide_x2_rev1.stl_id_0_copy_0 CENTER=189,186.5 POLYGON=[[176,176],[178.5,176],[178.578,176.006],[201.578,179.006],[201.655,179.024],[201.727,179.054],[201.794,179.095],[201.854,179.146],[201.905,179.206],[201.946,179.273],[201.976,179.345],[201.994,179.422],[202,179.5],[202,196.5],[201.994,196.578],[201.976,196.655],[201.946,196.727],[201.905,196.794],[201.854,196.854],[201.794,196.905],[201.727,196.946],[201.655,196.976],[201.578,196.994],[201.5,197],[176.5,197],[176.422,196.994],[176.345,196.976],[176.273,196.946],[176.206,196.905],[176.146,196.854],[176.095,196.794],[176.054,196.727],[176.024,196.655],[176.006,196.578],[176,196.5],[176,176]]
EXCLUDE_OBJECT_DEFINE NAME=rail_installation_guide_x2_rev1.stl_id_1_copy_0 CENTER=189,163.5 POLYGON=[[176,153],[178.5,153],[178.578,153.006],[201.578,156.006],[201.655,156.024],[201.727,156.054],[201.794,156.095],[201.854,156.146],[201.905,156.206],[201.946,156.273],[201.976,156.345],[201.994,156.422],[202,156.5],[202,173.5],[201.994,173.578],[201.976,173.655],[201.946,173.727],[201.905,173.794],[201.854,173.854],[201.794,173.905],[201.727,173.946],[201.655,173.976],[201.578,173.994],[201.5,174],[176.5,174],[176.422,173.994],[176.345,173.976],[176.273,173.946],[176.206,173.905],[176.146,173.854],[176.095,173.794],[176.054,173.727],[176.024,173.655],[176.006,173.578],[176,173.5],[176,153]]
EXCLUDE_OBJECT_DEFINE NAME=rail_installation_guide_x2_rev1.stl_id_2_copy_0 CENTER=161,186.5 POLYGON=[[148,176],[150.5,176],[150.578,176.006],[173.578,179.006],[173.655,179.024],[173.727,179.054],[173.794,179.095],[173.854,179.146],[173.905,179.206],[173.946,179.273],[173.976,179.345],[173.994,179.422],[174,179.5],[174,196.5],[173.994,196.578],[173.976,196.655],[173.946,196.727],[173.905,196.794],[173.854,196.854],[173.794,196.905],[173.727,196.946],[173.655,196.976],[173.578,196.994],[173.5,197],[148.5,197],[148.422,196.994],[148.345,196.976],[148.273,196.946],[148.206,196.905],[148.146,196.854],[148.095,196.794],[148.054,196.727],[148.024,196.655],[148.006,196.578],[148,196.5],[148,176]]
EXCLUDE_OBJECT_DEFINE NAME=rail_installation_guide_x2_rev1.stl_id_3_copy_0 CENTER=161,163.5 POLYGON=[[148,153],[150.5,153],[150.578,153.006],[173.578,156.006],[173.655,156.024],[173.727,156.054],[173.794,156.095],[173.854,156.146],[173.905,156.206],[173.946,156.273],[173.976,156.345],[173.994,156.422],[174,156.5],[174,173.5],[173.994,173.578],[173.976,173.655],[173.946,173.727],[173.905,173.794],[173.854,173.854],[173.794,173.905],[173.727,173.946],[173.655,173.976],[173.578,173.994],[173.5,174],[148.5,174],[148.422,173.994],[148.345,173.976],[148.273,173.946],[148.206,173.905],[148.146,173.854],[148.095,173.794],[148.054,173.727],[148.024,173.655],[148.006,173.578],[148,173.5],[148,153]]
M73 P0 R39
;TYPE:Custom
M190 S100
M109 S250
PRINT_START EXTRUDER=250 BED=100
; You can use following code instead if your PRINT_START macro support Chamber and print area bedmesh
; PRINT_START EXTRUDER=250 BED=100 Chamber=0 PRINT_MIN=142.286,147.288 PRINT_MAX=207.67,202.67
G90
G21
M83 ; use relative distances for extrusion
; Filament gcode
SET_PRESSURE_ADVANCE ADVANCE=0.045; Override pressure advance value
M106 S0
;LAYER_CHANGE
;Z:0.2
;HEIGHT:0.2
;BEFORE_LAYER_CHANGE
;0.2
G92 E0

G1 E-.3 F1800
;AFTER_LAYER_CHANGE
;0.2
;_SET_FAN_SPEED_CHANGING_LAYER
SET_VELOCITY_LIMIT ACCEL=500 ACCEL_TO_DECEL=250
SET_VELOCITY_LIMIT SQUARE_CORNER_VELOCITY=9
; printing object rail_installation_guide_x2_rev1.stl id:0 copy 0
EXCLUDE_OBJECT_START NAME=rail_installation_guide_x2_rev1.stl_id_0_copy_0
G1 Z.6 F21000
G1 X173.929 Y193.807
G1 Z.6
G1 Z.2
G1 E.3 F1800
;TYPE:Brim
;WIDTH:0.5
G1 F3000
G1 X174.485 Y193.38 E.02481
G1 X175.398 Y193.002 E.03491
G1 X176.071 Y192.913 E.02401
G1 X176.071 Y196.5 E.12679
G1 X176.097 Y196.636 E.00488
G1 X176.198 Y196.797 E.00673
G1 X176.3 Y196.871 E.00446
G1 X176.5 Y196.929 E.00735
G1 X180.124 Y196.929 E.12811
G1 X180.031 Y197.635 E.02519
G1 X179.653 Y198.548 E.03491
G1 X179.052 Y199.331 E.03491
G1 X178.269 Y199.932 E.03491
G1 X177.356 Y200.31 E.03491
G1 X176.377 Y200.439 E.03491
G1 X175.398 Y200.31 E.03491
G1 X174.485 Y199.932 E.03491
G1 X173.702 Y199.331 E.03491
G1 X173.101 Y198.548 E.03491
G1 X172.723 Y197.635 E.03491
G1 X172.63 Y196.928 E.0252
G1 X173.516 Y196.927 E.03132
G1 X173.6 Y196.911 E.00304
G1 X173.708 Y196.868 E.00408
G1 X173.802 Y196.797 E.00418
G1 X173.903 Y196.636 E.00673
G1 X173.929 Y196.5 E.00488
G1 X173.929 Y193.847 E.09377
G1 X174.397 Y194.078 F21000
G1 F3000
G1 X174.439 Y193.991 E.00341
G1 X174.733 Y193.772 E.01294
G1 X175.425 Y193.485 E.02648
G1 X175.539 Y193.49 E.00404
G1 X175.614 Y193.612 E.00508
G1 X175.614 Y196.49 E.10173
G1 X175.647 Y196.711 E.0079
G1 X175.715 Y196.887 E.00668
G1 X175.802 Y197.027 E.00581
G1 X175.942 Y197.176 E.00723
G1 X176.185 Y197.314 E.00989
G1 X176.51 Y197.386 E.01174
G1 X179.435 Y197.386 E.10339
G1 X179.539 Y197.433 E.00404
G1 X179.561 Y197.575 E.00508
G1 X179.261 Y198.3 E.02774
G1 X178.737 Y198.991 E.03063
G1 X178.021 Y199.54 E.03189
G1 X177.219 Y199.867 E.03063
G1 X176.359 Y199.976 E.03063
G1 X175.535 Y199.867 E.02938
G1 X174.733 Y199.54 E.03063
G1 X174.017 Y198.991 E.03189
G1 X173.511 Y198.331 E.02938
G1 X173.192 Y197.574 E.02904
G1 X173.197 Y197.46 E.00404
G1 X173.314 Y197.385 E.00493
G1 X173.606 Y197.374 E.01031
G1 X173.87 Y197.294 E.00976
G1 X174.069 Y197.168 E.00834
G1 X174.198 Y197.027 E.00672
G1 X174.285 Y196.887 E.00583
G1 X174.353 Y196.711 E.00668
G1 X174.386 Y196.49 E.0079
G1 X174.386 Y194.115 E.08394
G1 X174.843 Y194.329 F21000
G1 F3000
G1 X174.898 Y194.219 E.00434
G1 X174.938 Y194.189 E.00178
G1 X175.05 Y194.165 E.00404
G1 X175.141 Y194.234 E.00404
G1 X175.157 Y194.299 E.00236
G1 X175.157 Y196.479 E.07704
G1 X175.226 Y196.89 E.01475
G1 X175.286 Y197.044 E.00582
G1 X175.409 Y197.26 E.00881
G1 X175.602 Y197.482 E.01039
G1 X175.726 Y197.58 E.00558
G1 X175.952 Y197.707 E.00916
G1 X176.094 Y197.761 E.00539
G1 X176.522 Y197.843 E.0154
G1 X178.751 Y197.843 E.07876
G1 X178.855 Y197.89 E.00404
G1 X178.886 Y198 E.00404
G1 X178.861 Y198.062 E.00235
G1 X178.422 Y198.65 E.02593
G1 X177.775 Y199.147 E.02884
G1 X177.084 Y199.424 E.0263
G1 X176.378 Y199.513 E.02516
G1 X175.637 Y199.415 E.02642
G1 X174.948 Y199.129 E.02638
G1 X174.357 Y198.676 E.0263
G1 X173.903 Y198.084 E.02639
G1 X173.842 Y197.939 E.00555
G1 X173.845 Y197.824 E.00404
G1 X173.916 Y197.759 E.00343
G1 X174.123 Y197.675 E.00787
G1 X174.414 Y197.467 E.01263
G1 X174.59 Y197.261 E.00958
G1 X174.714 Y197.044 E.00886
G1 X174.774 Y196.89 E.00582
G1 X174.843 Y196.479 E.01475
G1 X174.843 Y194.369 E.07457
G1 E-.21 F1800
;WIPE_START
G1 F3000
G1 X174.898 Y194.219 E-.01437
G1 X174.938 Y194.189 E-.00453
G1 X175.05 Y194.165 E-.0103
G1 X175.141 Y194.234 E-.0103
G1 X175.157 Y194.299 E-.006
G1 X175.157 Y194.793 E-.0445
;WIPE_END
G1 Z.6 F21000
G1 X175 Y197.558 Z.6
G1 Z.2
G1 E.3 F1800
G1 F3000
G1 X175.104 Y197.606 E.00403
G1 X175.249 Y197.773 E.00783
G1 X175.511 Y197.983 E.01184
G1 X175.795 Y198.136 E.0114
G1 X176.017 Y198.212 E.00832
G1 X176.534 Y198.3 E.01852
G1 X177.724 Y198.3 E.04205
G1 X177.828 Y198.347 E.00404
G1 X177.859 Y198.457 E.00404
G1 X177.807 Y198.546 E.00362
G1 X177.561 Y198.735 E.01096
G1 X176.951 Y198.98 E.02324
G1 X176.362 Y199.05 E.02098
G1 X175.74 Y198.963 E.0222
G1 X175.164 Y198.719 E.0221
G1 X174.697 Y198.361 E.02078
G1 X174.515 Y198.131 E.01038
G1 X174.49 Y198.019 E.00404
G1 X174.538 Y197.94 E.00327
G1 X174.769 Y197.755 E.01048
G1 X174.896 Y197.606 E.0069
G1 X174.964 Y197.575 E.00263
G1 E-.21 F1800
;WIPE_START
G1 F3000
G1 X175.104 Y197.606 E-.0129
G1 X175.249 Y197.773 E-.01994
G1 X175.511 Y197.983 E-.03016
G1 X175.775 Y198.125 E-.02699
;WIPE_END
G1 Z.6 F21000
G1 X176.071 Y180.153 Z.6
G1 Z.2
G1 E.3 F1800
G1 F3000
G1 X175.321 Y180.054 E.02676
G1 X174.408 Y179.676 E.03491
G1 X173.62 Y179.068 E.0352
G1 X173.024 Y178.292 E.03461
G1 X172.646 Y177.379 E.03491
G1 X172.517 Y176.4 E.03491
G1 X172.646 Y175.421 E.03491
G1 X173.024 Y174.508 E.03491
G1 X173.471 Y173.925 E.02599
G1 X173.648 Y173.899 E.00632
G1 X173.725 Y173.861 E.00301
G1 X173.815 Y173.78 E.00427
G1 X173.886 Y173.671 E.00461
G1 X173.924 Y173.495 E.00636
G1 X174.408 Y173.124 E.02156
G1 X175.321 Y172.746 E.03491
G1 X176.071 Y172.647 E.02676
G1 X176.071 Y173.5 E.03015
G1 X176.097 Y173.636 E.00488
G1 X176.198 Y173.797 E.00673
G1 X176.3 Y173.871 E.00446
G1 X176.5 Y173.929 E.00735
G1 X181.423 Y173.929 E.174
G1 X181.792 Y174.41 E.02143
G1 X182.17 Y175.322 E.03491
G1 X182.299 Y176.301 E.03491
G1 X182.17 Y177.28 E.03491
G1 X181.792 Y178.193 E.03491
G1 X181.191 Y178.976 E.03491
G1 X180.407 Y179.578 E.03491
G1 X179.495 Y179.956 E.03491
G1 X178.929 Y180.03 E.02019
G1 X178.929 Y176.5 E.12477
G1 X178.89 Y176.333 E.00608
G1 X178.827 Y176.23 E.00425
G1 X178.665 Y176.109 E.00715
G1 X178.516 Y176.073 E.00544
G1 X176.4 Y176.071 E.07478
G1 X176.284 Y176.096 E.0042
G1 X176.147 Y176.205 E.00618
G1 X176.1 Y176.289 E.00342
G1 X176.071 Y176.4 E.00404
G1 X176.071 Y180.113 E.13124
G1 X175.567 Y179.58 F21000
G1 F3000
G1 X175.425 Y179.602 E.00508
G1 X174.656 Y179.284 E.0294
G1 X173.935 Y178.729 E.03218
G1 X173.416 Y178.044 E.03036
G1 X173.089 Y177.242 E.03063
G1 X172.98 Y176.382 E.03063
G1 X173.098 Y175.523 E.03063
G1 X173.434 Y174.725 E.03063
G1 X173.698 Y174.381 E.01533
G1 X173.757 Y174.336 E.0026
G1 X173.921 Y174.272 E.00622
G1 X174.112 Y174.126 E.00852
G1 X174.265 Y173.925 E.00892
G1 X174.364 Y173.734 E.00762
G1 X174.656 Y173.516 E.01286
G1 X175.425 Y173.198 E.02942
G1 X175.539 Y173.202 E.00404
G1 X175.614 Y173.324 E.00508
G1 X175.614 Y173.49 E.00585
G1 X175.647 Y173.711 E.0079
G1 X175.715 Y173.887 E.00668
G1 X175.802 Y174.027 E.00581
G1 X175.942 Y174.176 E.00723
G1 X176.024 Y174.235 E.00357
G1 X176.185 Y174.314 E.00635
G1 X176.365 Y174.365 E.0066
G1 X176.51 Y174.386 E.00517
G1 X181.13 Y174.386 E.16331
G1 X181.239 Y174.439 E.00429
G1 X181.4 Y174.657 E.00957
G1 X181.718 Y175.425 E.02938
G1 X181.836 Y176.319 E.03189
G1 X181.727 Y177.143 E.02938
G1 X181.4 Y177.946 E.03063
G1 X180.851 Y178.661 E.03189
G1 X180.16 Y179.185 E.03063
G1 X179.575 Y179.427 E.02238
G1 X179.461 Y179.423 E.00404
G1 X179.386 Y179.301 E.00508
G1 X179.386 Y176.508 E.09872
G1 X179.338 Y176.244 E.00948
G1 X179.22 Y175.999 E.00963
G1 X179.091 Y175.856 E.00679
G1 X178.951 Y175.751 E.00619
G1 X178.762 Y175.663 E.00737
G1 X178.504 Y175.616 E.00928
G1 X176.411 Y175.614 E.07397
G1 X176.203 Y175.646 E.00742
G1 X175.986 Y175.748 E.00847
G1 X175.873 Y175.839 E.00514
G1 X175.706 Y176.057 E.00971
G1 X175.63 Y176.282 E.00839
G1 X175.614 Y176.409 E.0045
G1 X175.614 Y179.476 E.1084
G1 X175.583 Y179.543 E.00263
G1 X175.11 Y178.896 F21000
G1 F3000
G1 X174.968 Y178.918 E.00508
G1 X174.873 Y178.874 E.00371
G1 X174.251 Y178.389 E.02786
G1 X173.81 Y177.799 E.02604
G1 X173.532 Y177.107 E.02636
G1 X173.444 Y176.367 E.02636
G1 X173.55 Y175.629 E.02636
G1 X173.843 Y174.942 E.02639
G1 X173.983 Y174.76 E.00811
G1 X174.207 Y174.628 E.0092
G1 X174.482 Y174.395 E.01274
G1 X174.746 Y174.019 E.01625
G1 X174.899 Y173.91 E.00663
G1 X175.058 Y173.844 E.00607
G1 X175.172 Y173.849 E.00404
G1 X175.238 Y173.921 E.00347
G1 X175.285 Y174.041 E.00455
G1 X175.476 Y174.346 E.01273
G1 X175.679 Y174.549 E.01013
G1 X175.98 Y174.721 E.01228
G1 X176.309 Y174.819 E.01213
G1 X176.517 Y174.843 E.0074
G1 X180.89 Y174.843 E.15456
G1 X181.017 Y174.927 E.00539
G1 X181.266 Y175.527 E.02296
G1 X181.372 Y176.301 E.02761
G1 X181.275 Y177.041 E.02639
G1 X180.988 Y177.731 E.02638
G1 X180.511 Y178.346 E.02752
G1 X180.063 Y178.685 E.01987
G1 X179.951 Y178.71 E.00404
G1 X179.859 Y178.642 E.00404
G1 X179.843 Y178.576 E.00239
G1 X179.843 Y176.518 E.07274
G1 X179.789 Y176.171 E.01243
G1 X179.636 Y175.809 E.01389
G1 X179.553 Y175.686 E.00524
G1 X179.358 Y175.486 E.00986
G1 X179.138 Y175.335 E.00944
G1 X178.832 Y175.211 E.01169
G1 X178.494 Y175.159 E.01209
G1 X176.42 Y175.157 E.07328
G1 X176.142 Y175.194 E.00991
G1 X176 Y175.237 E.00523
G1 X175.803 Y175.329 E.0077
G1 X175.596 Y175.475 E.00896
G1 X175.348 Y175.774 E.01372
G1 X175.269 Y175.922 E.00594
G1 X175.201 Y176.125 E.00757
G1 X175.157 Y176.419 E.0105
G1 X175.157 Y178.792 E.08387
G1 X175.126 Y178.859 E.00263
G1 E-.21 F1800
;WIPE_START
G1 F3000
G1 X174.968 Y178.918 E-.01522
G1 X174.873 Y178.874 E-.00945
G1 X174.3 Y178.427 E-.06533
;WIPE_END
G1 Z.6 F21000
G1 X174.653 Y177.918 Z.6
G1 Z.2
G1 E.3 F1800
G1 F3000
G1 X174.543 Y177.95 E.00404
G1 X174.453 Y177.896 E.00367
G1 X174.222 Y177.588 E.01362
G1 X173.977 Y176.975 E.02334
G1 X173.907 Y176.354 E.02208
G1 X173.991 Y175.771 E.02083
G1 X174.258 Y175.158 E.02363
G1 X174.31 Y175.098 E.0028
G1 X174.511 Y174.97 E.00842
G1 X174.77 Y174.75 E.01202
G1 X174.894 Y174.605 E.00673
G1 X174.997 Y174.557 E.00404
G1 X175.105 Y174.609 E.00422
G1 X175.367 Y174.881 E.01333
G1 X175.407 Y174.987 E.00404
G1 X175.362 Y175.08 E.00365
G1 X175.24 Y175.19 E.00579
G1 X174.94 Y175.569 E.0171
G1 X174.833 Y175.785 E.00852
G1 X174.772 Y175.968 E.00683
G1 X174.7 Y176.429 E.01649
G1 X174.7 Y177.814 E.04895
G1 X174.669 Y177.882 E.00263
G1 E-.21 F1800
;WIPE_START
G1 F3000
G1 X174.543 Y177.95 E-.01293
G1 X174.453 Y177.896 E-.00936
G1 X174.222 Y177.588 E-.03467
G1 X174.086 Y177.247 E-.03304
;WIPE_END
G1 Z.6 F21000
G1 X180.3 Y177.472 Z.6
G1 Z.2
G1 E.3 F1800
G1 F3000
G1 X180.3 Y176.528 E.03338
G1 X180.242 Y176.109 E.01495
G1 X180.06 Y175.639 E.01782
G1 X179.983 Y175.506 E.00543
G1 X179.972 Y175.392 E.00404
G1 X180.102 Y175.3 E.00562
G1 X180.585 Y175.3 E.01708
G1 X180.712 Y175.384 E.00539
G1 X180.823 Y175.665 E.01069
G1 X180.909 Y176.321 E.02337
G1 X180.823 Y176.939 E.02204
G1 X180.597 Y177.482 E.02078
G1 X180.545 Y177.556 E.00321
G1 X180.444 Y177.609 E.00404
G1 X180.337 Y177.567 E.00404
G1 X180.315 Y177.509 E.00218
G1 E-.21 F1800
;WIPE_START
G1 F3000
G1 X180.3 Y176.528 E-.08835
G1 X180.297 Y176.51 E-.00165
;WIPE_END
G1 Z.6 F21000
G1 X182.925 Y183.811 Z.6
G1 Z.2
G1 E.3 F1800
G1 F3000
G1 X183.167 Y183.711 E.00925
G1 X184.146 Y183.582 E.03491
G1 X185.125 Y183.711 E.03491
G1 X186.037 Y184.089 E.03491
G1 X186.821 Y184.69 E.03491
G1 X187.422 Y185.474 E.03491
G1 X187.8 Y186.386 E.03491
G1 X187.929 Y187.365 E.03491
G1 X187.8 Y188.344 E.03491
G1 X187.422 Y189.257 E.03491
G1 X186.821 Y190.04 E.03491
G1 X186.037 Y190.642 E.03491
G1 X185.125 Y191.019 E.03491
G1 X184.429 Y191.111 E.02483
G1 X184.429 Y187.5 E.12764
G1 X184.375 Y187.298 E.00737
G1 X184.273 Y187.175 E.00567
G1 X184.113 Y187.09 E.0064
G1 X184 Y187.071 E.00406
G1 X180.401 Y187.071 E.1272
G1 X180.492 Y186.386 E.02444
G1 X180.87 Y185.474 E.03491
G1 X181.471 Y184.69 E.03491
G1 X182.254 Y184.089 E.03491
G1 X182.888 Y183.826 E.02424
G1 X183.062 Y184.253 F21000
G1 F3000
G1 X183.304 Y184.154 E.00924
G1 X184.128 Y184.045 E.02938
G1 X184.988 Y184.154 E.03063
G1 X185.79 Y184.481 E.03063
G1 X186.506 Y185.03 E.03189
G1 X187.03 Y185.721 E.03063
