; generated by PrusaSlicer 2.7.4+win64 on 2024-04-29 at 15:36:56 UTC


;
;
; 

; external perimeters extrusion width = 0.60mm
; perimeters extrusion width = 0.50mm
; infill extrusion width = 0.50mm
; solid infill extrusion width = 0.50mm
; top infill extrusion width = 0.45mm
; support material extrusion width = 0.38mm
; first layer extrusion width = 0.42mm

M73 P0 R48
M73 Q0 S49
M201 X1000 Y1000 Z200 E5000 ; sets maximum accelerations, mm/sec^2
M203 X200 Y200 Z12 E120 ; sets maximum feedrates, mm / sec
M204 S1250 T1250 ; sets acceleration (S) and retract acceleration (R), mm/sec^2
M205 X8.00 Y8.00 Z0.40 E4.50 ; sets the jerk limits, mm/sec
M205 S0 T0 ; sets the minimum extruding and travel feed rate, mm/sec

; printing object Din_Rail_Raspberry_Pi_4_180_Mount.stl id:0 copy 0
; stop printing object Din_Rail_Raspberry_Pi_4_180_Mount.stl id:0 copy 0

;TYPE:Custom
M862.3 P "MK3" ; printer model check
M862.1 P0.4 ; nozzle diameter check
M115 U3.12.2 ; tell printer latest fw version
G90 ; use absolute coordinates
M83 ; extruder relative mode
M104 S230 ; set extruder temp
M140 S85 ; set bed temp
M190 S85 ; wait for bed temp
M109 S230 ; wait for extruder temp
G28 W ; home all without mesh bed level
G80 ; mesh bed leveling

G1 Z0.2 F720
G1 Y-3 F1000 ; go outside print area
G92 E0
G1 X60 E9 F1000 ; intro line
G1 X100 E12.5 F1000 ; intro line

G92 E0
M221 S95

; Don't change E values below. Excessive value can damage the printer.

M907 E538 ; set extruder motor current
G21 ; set units to millimeters
G90 ; use absolute coordinates
M83 ; use relative distances for extrusion

M900 K0.08 ; Filament gcode LA 1.5
M900 K45 ; Filament gcode LA 1.0




M107
;LAYER_CHANGE
;Z:0.2
;HEIGHT:0.2
G1 E-1 F2100
G1 Z.4 F720
G1 X91.72 Y68.646 F10800
G1 Z.2 F720
G1 E1 F2100
M204 S800
;TYPE:Skirt/Brim
;WIDTH:0.42
G1 F1200
G1 X92.718 Y67.603 E.04979
G1 X93.591 Y66.868 E.03936
G1 X94.591 Y66.186 E.04175
G1 X95.373 Y65.761 E.0307
G1 X96.789 Y65.162 E.05303
G1 X98.104 Y64.803 E.04701
M73 Q0 S48
G1 X99.185 Y64.621 E.03781
G1 X100.528 Y64.543 E.0464
G1 X149.429 Y64.543 E1.68658
G1 X151.342 Y64.694 E.06618
G1 X153.326 Y65.205 E.07066
G1 X155.063 Y65.988 E.06571
G1 X156.278 Y66.768 E.0498
G1 X157.009 Y67.351 E.03225
G1 X158.388 Y68.772 E.06829
G1 X159.605 Y70.602 E.0758
G1 X160.38 Y72.422 E.06823
G1 X160.848 Y74.468 E.07239
G1 X160.955 Y75.842 E.04753
G1 X160.95 Y134.308 E2.01648
G1 X160.767 Y136.067 E.06099
G1 X160.266 Y137.915 E.06604
G1 X159.605 Y139.398 E.056
G1 X158.621 Y140.925 E.06265
G1 X157.838 Y141.852 E.04185
G1 X156.73 Y142.887 E.05229
G1 X155.605 Y143.687 E.04761
G1 X154.703 Y144.202 E.03582
G1 X153.326 Y144.795 E.05171
G1 X152.092 Y145.149 E.04428
G1 X151.016 Y145.353 E.03777
G1 X149.853 Y145.446 E.04024
G1 X100.431 Y145.455 E1.70455
G1 X98.63 Y145.305 E.06233
G1 X96.788 Y144.838 E.06554
G1 X95.09 Y144.096 E.06391
G1 X93.669 Y143.189 E.05814
G1 X92.794 Y142.469 E.03908
G1 X91.72 Y141.353 E.05342
G1 X90.95 Y140.314 E.0446
G1 X90.416 Y139.428 E.03568
G1 X89.755 Y137.973 E.05512
G1 X89.393 Y136.784 E.04287
G1 X89.162 Y135.631 E.04056
G1 X89.046 Y134.303 E.04598
G1 X89.041 Y75.85 E2.01603
G1 X89.209 Y74.055 E.06218
G1 X89.623 Y72.409 E.05854
G1 X90.359 Y70.682 E.06475
G1 X90.994 Y69.622 E.04262
G1 X91.685 Y68.695 E.03988
M204 S1000
;WIPE_START
G1 F8640
G1 X91.72 Y68.646 E-.0139
G1 X92.718 Y67.603 E-.33332
G1 X93.591 Y66.868 E-.26351
G1 X94.591 Y66.186 E-.27949
G1 X95.009 Y65.959 E-.10978
;WIPE_END
G1 Z.4 F720
G1 X93.665 Y70.503 F10800
G1 Z.2 F720
G1 E1 F2100
M204 S800
G1 F1200
G1 X94.549 Y69.535 E.04521
G1 X95.67 Y68.66 E.04905
G1 X96.524 Y68.163 E.03408
G1 X97.45 Y67.754 E.03491
G1 X98.819 Y67.37 E.04904
G1 X100.041 Y67.229 E.04243
G1 X101.032 Y67.229 E.03418
G1 X102.25 Y67.386 E.04236
G1 X103.67 Y67.803 E.05104
G1 X105.5 Y68.575 E.0685
G1 X124.577 Y75.8 E.70357
G1 X125 Y75.894 E.01495
G1 X125.423 Y75.8 E.01495
G1 X144.512 Y68.571 E.704
G1 X146.557 Y67.715 E.07646
G1 X148.123 Y67.315 E.05575
G1 X149.366 Y67.21 E.04302
G1 X150.639 Y67.284 E.04398
G1 X152.169 Y67.627 E.05408
G1 X153.612 Y68.233 E.05398
G1 X154.915 Y69.076 E.05353
G1 X156.065 Y70.151 E.05429
G1 X157.022 Y71.444 E.05548
G1 X157.671 Y72.759 E.05058
G1 X158.111 Y74.246 E.05348
G1 X158.284 Y75.683 E.04992
G1 X158.197 Y77.259 E.05444
G1 X157.735 Y79.5 E.07892
G1 X154.279 Y99.302 E.69329
G1 X154.031 Y100.965 E.05799
G1 X153.792 Y104.191 E.11157
G1 X153.871 Y107.425 E.11157
G1 X154.279 Y110.698 E.11376
G1 X158.232 Y133.03 E.7822
G1 X158.289 Y134.144 E.03847
G1 X158.202 Y135.242 E.03799
G1 X157.881 Y136.648 E.04974
G1 X157.282 Y138.092 E.05392
G1 X156.409 Y139.433 E.05519
G1 X155.793 Y140.131 E.03211
G1 X154.726 Y141.07 E.04902
G1 X153.655 Y141.744 E.04364
G1 X152.508 Y142.257 E.04334
G1 X151.179 Y142.626 E.04757
G1 X149.99 Y142.772 E.04132
G1 X148.982 Y142.773 E.03477
G1 X147.762 Y142.619 E.04241
G1 X146.26 Y142.176 E.05401
G1 X144.524 Y141.434 E.06511
M73 P1 R48
G1 X125.423 Y134.2 E.70445
M73 Q1 S48
G1 X125 Y134.107 E.01494
G1 X124.577 Y134.2 E.01494
G1 X105.5 Y141.425 E.70357
G1 X103.667 Y142.198 E.06861
G1 X102.4 Y142.581 E.04565
G1 X100.8 Y142.785 E.05563
G1 X98.859 Y142.638 E.06714
G1 X97.722 Y142.341 E.04053
G1 X96.615 Y141.881 E.04135
G1 X95.846 Y141.456 E.0303
G1 X94.94 Y140.808 E.03842
G1 X93.596 Y139.44 E.06614
G1 X92.973 Y138.538 E.03781
G1 X92.467 Y137.561 E.03795
G1 X92.123 Y136.66 E.03326
G1 X91.867 Y135.67 E.03527
G1 X91.708 Y133.981 E.05851
G1 X91.859 Y132.368 E.05588
G1 X92.264 Y130.503 E.06582
G1 X95.721 Y110.703 E.69323
G1 X95.969 Y109.04 E.05799
G1 X96.208 Y105.814 E.11157
G1 X96.129 Y102.58 E.11157
G1 X95.721 Y99.307 E.11376
G1 X92.267 Y79.513 E.69301
G1 X91.788 Y77.163 E.08272
G1 X91.709 Y75.752 E.04874
G1 X91.792 Y74.798 E.03303
G1 X91.972 Y73.881 E.03223
G1 X92.29 Y72.858 E.03695
G1 X92.738 Y71.875 E.03726
G1 X93.519 Y70.662 E.04976
G1 X93.625 Y70.547 E.00539
M204 S1000
G1 X93.625 Y70.547 F10800
G1 X93.901 Y70.8
M204 S800
G1 F1200
G1 X94.816 Y69.802 E.0467
G1 X95.891 Y68.966 E.04697
M73 P1 R47
G1 X96.704 Y68.495 E.03241
G1 X97.59 Y68.104 E.0334
G1 X98.906 Y67.737 E.04712
G1 X100.073 Y67.605 E.04051
G1 X100.995 Y67.604 E.0318
G1 X102.186 Y67.759 E.04142
G1 X103.533 Y68.155 E.04842
G1 X105.36 Y68.926 E.06839
G1 X124.454 Y76.157 E.70419
G1 X125 Y76.273 E.01925
G1 X125.546 Y76.157 E.01925
G1 X144.651 Y68.921 E.7046
G1 X146.69 Y68.069 E.07622
G1 X148.17 Y67.69 E.05269
G1 X149.384 Y67.587 E.04202
G1 X150.601 Y67.659 E.04205
G1 X152.069 Y67.991 E.05191
G1 X153.45 Y68.574 E.0517
G1 X154.696 Y69.383 E.05124
G1 X155.781 Y70.399 E.05127
G1 X156.703 Y71.647 E.05352
G1 X157.326 Y72.91 E.04857
G1 X157.745 Y74.337 E.05129
G1 X157.908 Y75.711 E.04772
G1 X157.824 Y77.202 E.05151
G1 X157.364 Y79.431 E.0785
G1 X153.907 Y99.241 E.69357
G1 X153.657 Y100.918 E.05848
G1 X153.415 Y104.182 E.11288
G1 X153.495 Y107.453 E.11285
G1 X153.907 Y110.759 E.11491
G1 X157.856 Y133.061 E.78116
G1 X157.912 Y134.127 E.03682
G1 X157.827 Y135.198 E.03705
G1 X157.517 Y136.547 E.04774
G1 X156.94 Y137.93 E.05168
G1 X156.101 Y139.215 E.05293
G1 X155.534 Y139.856 E.02952
G1 X154.511 Y140.759 E.04706
G1 X153.489 Y141.406 E.04172
G1 X152.367 Y141.907 E.04238
G1 X151.093 Y142.259 E.04559
G1 X149.956 Y142.396 E.0395
G1 X149.017 Y142.397 E.03239
G1 X147.825 Y142.247 E.04144
G1 X146.402 Y141.827 E.05117
G1 X144.662 Y141.083 E.06527
G1 X125.546 Y133.844 E.705
G1 X125 Y133.727 E.01926
G1 X124.454 Y133.843 E.01925
G1 X105.36 Y141.075 E.7042
G1 X103.53 Y141.847 E.0685
G1 X102.306 Y142.216 E.04409
G1 X100.793 Y142.408 E.0526
G1 X98.941 Y142.27 E.06405
G1 X97.83 Y141.979 E.03961
G1 X96.77 Y141.537 E.03961
G1 X96.056 Y141.143 E.02813
G1 X95.173 Y140.511 E.03745
G1 X93.897 Y139.213 E.06278
G1 X93.291 Y138.333 E.03685
G1 X92.807 Y137.397 E.03634
G1 X92.486 Y136.555 E.03108
G1 X92.236 Y135.591 E.03435
G1 X92.085 Y133.964 E.05636
G1 X92.23 Y132.441 E.05277
G1 X92.635 Y130.572 E.06596
G1 X96.093 Y110.763 E.69354
G1 X96.343 Y109.087 E.05844
G1 X96.585 Y105.823 E.11288
G1 X96.505 Y102.552 E.11285
G1 X96.093 Y99.247 E.11487
G1 X92.638 Y79.443 E.69335
G1 X92.164 Y77.127 E.08153
G1 X92.086 Y75.771 E.04685
G1 X92.335 Y73.983 E.06226
G1 X92.646 Y72.981 E.03619
G1 X93.075 Y72.044 E.03554
G1 X93.827 Y70.881 E.04777
G1 X93.86 Y70.845 E.00168
M204 S1000
G1 X93.86 Y70.845 F10800
G1 X94.136 Y71.098
M204 S800
G1 F1200
G1 X95.083 Y70.069 E.04823
G1 X96.112 Y69.272 E.04489
G1 X97.729 Y68.455 E.06248
G1 X98.992 Y68.105 E.0452
G1 X100.104 Y67.98 E.03859
G1 X100.959 Y67.98 E.02949
G1 X102.123 Y68.131 E.04048
G1 X103.396 Y68.506 E.04577
G1 X105.22 Y69.276 E.06829
G1 X124.331 Y76.514 E.70482
G1 X125 Y76.653 E.02357
G1 X125.669 Y76.514 E.02357
G1 X144.791 Y69.272 E.70523
G1 X146.823 Y68.422 E.07597
G1 X148.218 Y68.064 E.04967
G1 X149.376 Y67.965 E.04008
G1 X150.563 Y68.035 E.04101
G1 X151.939 Y68.346 E.04865
G1 X153.26 Y68.9 E.04941
G1 X154.451 Y69.67 E.04891
G1 X155.497 Y70.648 E.04939
G1 X156.385 Y71.85 E.05154
G1 X156.98 Y73.062 E.04657
G1 X157.378 Y74.427 E.04904
G1 X157.531 Y75.738 E.04552
G1 X157.451 Y77.145 E.04861
G1 X156.994 Y79.361 E.07804
G1 X153.534 Y99.181 E.69392
G1 X153.282 Y100.872 E.05897
G1 X153.037 Y104.172 E.11413
G1 X153.119 Y107.481 E.11416
G1 X153.534 Y110.819 E.11601
G1 X156.994 Y130.639 E.69392
G1 X157.48 Y133.092 E.08625
G1 X157.535 Y134.134 E.03599
G1 X157.452 Y135.154 E.0353
G1 X157.154 Y136.447 E.04576
G1 X156.6 Y137.768 E.04941
G1 X155.794 Y138.996 E.05066
G1 X155.276 Y139.582 E.02698
G1 X154.297 Y140.449 E.0451
G1 X153.299 Y141.079 E.04071
G1 X152.227 Y141.557 E.04048
G1 X151.007 Y141.891 E.04363
G1 X149.923 Y142.02 E.03765
G1 X149.052 Y142.022 E.03004
G1 X147.887 Y141.875 E.0405
G1 X146.545 Y141.478 E.04827
G1 X144.799 Y140.731 E.0655
G1 X125.669 Y133.487 E.70551
G1 X125 Y133.347 E.02357
G1 X124.331 Y133.487 E.02357
G1 X105.22 Y140.724 E.70481
G1 X103.392 Y141.495 E.06843
M73 P2 R47
M73 Q2 S48
G1 X102.213 Y141.85 E.04247
G1 X100.786 Y142.031 E.04961
G1 X99.023 Y141.902 E.06097
G1 X97.938 Y141.618 E.03868
G1 X96.925 Y141.193 E.03789
G1 X96.267 Y140.83 E.02592
G1 X95.406 Y140.214 E.03651
G1 X94.198 Y138.985 E.05944
G1 X93.62 Y138.149 E.03505
G1 X93.147 Y137.233 E.03556
G1 X92.605 Y135.511 E.06226
G1 X92.462 Y133.947 E.05417
G1 X92.6 Y132.514 E.04965
G1 X93.006 Y130.641 E.0661
G1 X96.465 Y110.824 E.69382
G1 X96.718 Y109.133 E.05897
G1 X96.962 Y105.833 E.11413
G1 X96.881 Y102.524 E.11416
G1 X96.466 Y99.187 E.11598
G1 X93.008 Y79.373 E.69371
G1 X92.54 Y77.091 E.08034
G1 X92.463 Y75.79 E.04495
G1 X92.698 Y74.085 E.05936
G1 X92.994 Y73.127 E.03458
G1 X93.412 Y72.214 E.03463
G1 X94.103 Y71.148 E.04381
M204 S1000
G1 X94.103 Y71.148 F10800
G1 X94.419 Y71.354
M204 S800
G1 F1200
G1 X94.442 Y71.319 E.00144
G1 X95.349 Y70.337 E.04611
G1 X96.332 Y69.578 E.04283
G1 X97.868 Y68.806 E.05929
G1 X99.077 Y68.472 E.04326
G1 X100.135 Y68.356 E.03671
G1 X100.923 Y68.355 E.02718
G1 X102.06 Y68.503 E.03955
G1 X103.259 Y68.858 E.04313
G1 X105.08 Y69.626 E.06816
G1 X124.208 Y76.87 E.70544
G1 X125 Y77.03 E.02787
G1 X125.791 Y76.87 E.02783
G1 X144.931 Y69.622 E.70588
G1 X146.93 Y68.783 E.07477
G1 X148.266 Y68.438 E.04759
G1 X149.394 Y68.341 E.03905
G1 X150.525 Y68.41 E.03908
G1 X151.838 Y68.71 E.04645
G1 X153.097 Y69.24 E.04711
G1 X154.231 Y69.977 E.04665
G1 X155.214 Y70.897 E.04644
G1 X156.067 Y72.052 E.04952
G1 X156.634 Y73.212 E.04453
G1 X157.012 Y74.516 E.04683
G1 X157.155 Y75.765 E.04336
G1 X157.078 Y77.088 E.04571
G1 X156.623 Y79.292 E.07762
G1 X153.162 Y99.121 E.69424
G1 X152.908 Y100.825 E.05942
M73 Q2 S47
G1 X152.66 Y104.163 E.11544
G1 X152.743 Y107.509 E.11544
G1 X153.162 Y110.879 E.11713
G1 X156.623 Y130.708 E.69424
G1 X157.104 Y133.123 E.08493
G1 X157.158 Y134.117 E.03433
G1 X157.078 Y135.109 E.03432
G1 X156.79 Y136.345 E.04377
G1 X156.259 Y137.605 E.04716
G1 X155.486 Y138.777 E.04842
G1 X155.017 Y139.308 E.02443
G1 X154.082 Y140.139 E.04314
G1 X153.133 Y140.741 E.03876
G1 X152.087 Y141.207 E.03949
G1 X150.922 Y141.524 E.04164
G1 X149.89 Y141.644 E.03583
G1 X149.087 Y141.646 E.0277
G1 X147.95 Y141.502 E.03953
G1 X146.687 Y141.128 E.04543
G1 X144.937 Y140.38 E.06564
G1 X125.791 Y133.13 E.7061
G1 X125 Y132.971 E.02783
G1 X124.209 Y133.13 E.02783
G1 X105.08 Y140.374 E.70548
G1 X103.255 Y141.144 E.06832
G1 X102.12 Y141.485 E.04087
G1 X100.779 Y141.653 E.04661
G1 X99.104 Y141.533 E.05792
G1 X98.072 Y141.265 E.03677
G1 X97.08 Y140.849 E.0371
G1 X95.638 Y139.917 E.05922
G1 X94.499 Y138.757 E.05607
G1 X93.937 Y137.945 E.03406
G1 X93.487 Y137.07 E.03394
G1 X92.974 Y135.432 E.0592
G1 X92.839 Y133.932 E.05194
G1 X92.97 Y132.588 E.04657
G1 X93.377 Y130.71 E.06628
G1 X96.838 Y110.884 E.69413
G1 X97.092 Y109.18 E.05942
G1 X97.34 Y105.842 E.11544
G1 X97.257 Y102.496 E.11544
G1 X96.838 Y99.126 E.11713
G1 X93.379 Y79.302 E.69405
G1 X92.915 Y77.055 E.07913
G1 X92.84 Y75.809 E.04305
G1 X93.061 Y74.186 E.05649
G1 X93.351 Y73.25 E.0338
G1 X93.749 Y72.384 E.03287
G1 X94.386 Y71.404 E.04031
M204 S1000
G1 X94.386 Y71.404 F10800
G1 X94.702 Y71.61
M204 S800
G1 F1200
G1 X94.749 Y71.538 E.00297
G1 X95.614 Y70.605 E.04388
G1 X96.551 Y69.885 E.04076
G1 X98.007 Y69.157 E.05614
G1 X99.162 Y68.84 E.04131
G1 X100.165 Y68.732 E.03479
G1 X100.887 Y68.731 E.0249
G1 X101.996 Y68.875 E.03857
G1 X103.122 Y69.209 E.04051
G1 X104.94 Y69.976 E.06805
G1 X124.086 Y77.227 E.70611
G1 X125 Y77.408 E.03214
G1 X125.914 Y77.227 E.03214
G1 X145.071 Y69.972 E.70651
G1 X147.064 Y69.136 E.07454
G1 X148.314 Y68.813 E.04453
G1 X149.412 Y68.718 E.03801
G1 X150.485 Y68.786 E.03708
G1 X151.737 Y69.073 E.0443
G1 X152.935 Y69.581 E.04488
G1 X153.986 Y70.263 E.04321
G1 X154.93 Y71.146 E.04458
G1 X155.748 Y72.254 E.0475
G1 X156.287 Y73.362 E.0425
G1 X156.645 Y74.605 E.04461
G1 X156.778 Y75.791 E.04116
G1 X156.705 Y77.031 E.04284
G1 X156.252 Y79.223 E.0772
G1 X152.79 Y99.061 E.69455
G1 X152.534 Y100.779 E.05991
G1 X152.283 Y104.154 E.11672
G1 X152.367 Y107.537 E.11671
G1 X152.79 Y110.939 E.11824
G1 X156.252 Y130.777 E.69455
G1 X156.728 Y133.155 E.08364
G1 X156.78 Y134.124 E.03347
G1 X156.703 Y135.064 E.03253
G1 X156.427 Y136.243 E.04176
G1 X155.919 Y137.442 E.04491
G1 X155.18 Y138.558 E.04616
G1 X153.866 Y139.829 E.06305
G1 X152.943 Y140.415 E.03771
G1 X151.948 Y140.856 E.03754
G1 X150.838 Y141.156 E.03966
G1 X149.858 Y141.269 E.03402
G1 X149.123 Y141.27 E.02535
G1 X148.012 Y141.13 E.03862
G1 X146.829 Y140.779 E.04256
G1 X145.074 Y140.029 E.06583
G1 X125.914 Y132.773 E.70662
G1 X125 Y132.593 E.03213
G1 X124.086 Y132.773 E.03213
G1 X104.94 Y140.024 E.70611
G1 X103.118 Y140.792 E.06819
G1 X102.027 Y141.119 E.03928
G1 X100.771 Y141.276 E.04366
G1 X99.185 Y141.165 E.05483
G1 X98.18 Y140.903 E.03582
G1 X97.236 Y140.505 E.03533
G1 X95.871 Y139.62 E.05611
G1 X94.8 Y138.529 E.05273
G1 X94.267 Y137.761 E.03224
G1 X93.827 Y136.907 E.03313
G1 X93.343 Y135.352 E.05617
G1 X93.216 Y133.916 E.04972
G1 X93.34 Y132.661 E.0435
G1 X93.747 Y130.779 E.06641
G1 X97.21 Y110.944 E.69445
G1 X97.466 Y109.226 E.05991
M73 P3 R47
G1 X97.717 Y105.851 E.11672
G1 X97.633 Y102.468 E.11671
G1 X97.21 Y99.066 E.11824
M73 Q3 S47
G1 X93.749 Y79.231 E.69444
G1 X93.291 Y77.018 E.07794
G1 X93.217 Y75.827 E.04116
G1 X93.424 Y74.288 E.05356
G1 X93.699 Y73.396 E.03219
G1 X94.086 Y72.554 E.03196
G1 X94.669 Y71.661 E.03678
M204 S1000
G1 X94.669 Y71.661 F10800
G1 X94.984 Y71.867
M204 S800
G1 F1200
G1 X95.055 Y71.759 E.00446
G1 X95.879 Y70.874 E.04171
G1 X96.77 Y70.192 E.0387
G1 X98.145 Y69.508 E.05297
G1 X99.246 Y69.208 E.03936
G1 X100.195 Y69.108 E.03291
G1 X100.851 Y69.106 E.02263
G1 X101.932 Y69.247 E.0376
G1 X102.985 Y69.561 E.0379
G1 X104.8 Y70.326 E.06793
G1 X123.963 Y77.584 E.70674
G1 X125 Y77.786 E.03644
G1 X126.037 Y77.584 E.03644
G1 X145.21 Y70.323 E.7071
G1 X147.197 Y69.489 E.07432
G1 X148.363 Y69.187 E.04154
G1 X149.403 Y69.096 E.03601
G1 X150.446 Y69.161 E.03604
G1 X151.636 Y69.437 E.04213
G1 X152.744 Y69.907 E.04151
G1 X153.741 Y70.551 E.04094
G1 X154.647 Y71.396 E.04273
G1 X155.429 Y72.456 E.04543
G1 X155.941 Y73.512 E.04048
G1 X156.278 Y74.693 E.04236
G1 X156.402 Y75.816 E.03897
G1 X156.332 Y76.974 E.04001
G1 X155.882 Y79.154 E.07677
G1 X152.418 Y99 E.69483
G1 X152.159 Y100.733 E.06043
