; generated by PrusaSlicer 2.7.4+win64 on 2024-04-29 at 14:38:32 UTC


;
;
; 

; external perimeters extrusion width = 0.60mm
; perimeters extrusion width = 0.50mm
; infill extrusion width = 0.50mm
; solid infill extrusion width = 0.50mm
; top infill extrusion width = 0.45mm
; support material extrusion width = 0.38mm
; first layer extrusion width = 0.42mm

M73 P0 R7
M73 Q0 S7
M201 X1000 Y1000 Z200 E5000 ; sets maximum accelerations, mm/sec^2
M203 X200 Y200 Z12 E120 ; sets maximum feedrates, mm / sec
M204 S1250 T1250 ; sets acceleration (S) and retract acceleration (R), mm/sec^2
M205 X8.00 Y8.00 Z0.40 E4.50 ; sets the jerk limits, mm/sec
M205 S0 T0 ; sets the minimum extruding and travel feed rate, mm/sec

; printing object M4_1mm_spacer.stl id:0 copy 6
; stop printing object M4_1mm_spacer.stl id:0 copy 6
; printing object M4_1mm_spacer.stl id:0 copy 7
; stop printing object M4_1mm_spacer.stl id:0 copy 7
; printing object M4_1mm_spacer.stl id:0 copy 0
; stop printing object M4_1mm_spacer.stl id:0 copy 0
; printing object M4_1mm_spacer.stl id:0 copy 1
; stop printing object M4_1mm_spacer.stl id:0 copy 1
; printing object M4_1mm_spacer.stl id:0 copy 2
; stop printing object M4_1mm_spacer.stl id:0 copy 2
; printing object M4_1mm_spacer.stl id:0 copy 3
; stop printing object M4_1mm_spacer.stl id:0 copy 3
; printing object M4_1mm_spacer.stl id:0 copy 4
; stop printing object M4_1mm_spacer.stl id:0 copy 4
; printing object M4_1mm_spacer.stl id:0 copy 5
; stop printing object M4_1mm_spacer.stl id:0 copy 5

;TYPE:Custom
M862.3 P "MK3" ; printer model check
M862.1 P0.4 ; nozzle diameter check
M115 U3.12.2 ; tell printer latest fw version
G90 ; use absolute coordinates
M83 ; extruder relative mode
M104 S230 ; set extruder temp
M140 S85 ; set bed temp
M190 S85 ; wait for bed temp
M109 S230 ; wait for extruder temp
G28 W ; home all without mesh bed level
G80 ; mesh bed leveling

G1 Z0.2 F720
G1 Y-3 F1000 ; go outside print area
G92 E0
G1 X60 E9 F1000 ; intro line
G1 X100 E12.5 F1000 ; intro line

G92 E0
M221 S95

; Don't change E values below. Excessive value can damage the printer.

M907 E538 ; set extruder motor current
G21 ; set units to millimeters
G90 ; use absolute coordinates
M83 ; use relative distances for extrusion

M900 K0.08 ; Filament gcode LA 1.5
M900 K45 ; Filament gcode LA 1.0




M107
;LAYER_CHANGE
;Z:0.2
;HEIGHT:0.2
G1 E-1 F2100
M73 P1 R7
M73 Q1 S7
G1 Z.4 F720
G1 X82.084 Y87.075 F10800
G1 Z.2 F720
G1 E1 F2100
M204 S800
;TYPE:Skirt/Brim
;WIDTH:0.42
G1 F1200
G1 X83.849 Y85.847 E.07416
G1 X84.858 Y85.324 E.0392
G1 X85.997 Y84.866 E.04234
G1 X88.081 Y84.336 E.07416
G1 X90.212 Y84.17 E.07372
G1 X130.404 Y84.674 E1.38632
G1 X132.329 Y84.917 E.06692
M73 P2 R6
M73 Q2 S7
G1 X133.957 Y85.369 E.05827
G1 X135.545 Y86.052 E.05962
G1 X136.959 Y86.901 E.05688
G1 X137.992 Y87.701 E.04506
G1 X139 Y88.67 E.04822
G1 X139.965 Y89.842 E.05236
G1 X140.678 Y90.938 E.0451
G1 X141.293 Y92.149 E.04684
G1 X141.759 Y93.37 E.04507
G1 X142.087 Y94.594 E.0437
G1 X142.316 Y96.095 E.05237
G1 X142.365 Y97.5 E.04849
G1 X142.012 Y112.494 E.51728
G1 X141.771 Y113.911 E.04957
G1 X141.33 Y115.406 E.05376
G1 X140.665 Y116.915 E.05687
G1 X139.929 Y118.15 E.04959
G1 X139.004 Y119.354 E.05237
G1 X138.096 Y120.295 E.0451
G1 X137.023 Y121.19 E.04819
G1 X135.752 Y122.022 E.05239
M73 Q2 S6
G1 X134.502 Y122.647 E.0482
G1 X133.277 Y123.103 E.04508
G1 X131.803 Y123.469 E.05238
G1 X130.417 Y123.647 E.0482
G1 X103.344 Y124.984 E.93488
G1 X90.214 Y124.596 E.45305
M73 P3 R6
M73 Q3 S6
G1 X88.961 Y124.496 E.04335
G1 X87.431 Y124.199 E.05375
G1 X86.1 Y123.774 E.04819
G1 X84.681 Y123.128 E.05377
G1 X83.485 Y122.404 E.04822
G1 X82.546 Y121.695 E.04058
G1 X80.958 Y120.115 E.07726
G1 X80.192 Y119.105 E.04372
G1 X79.552 Y118.058 E.04232
G1 X79 Y116.917 E.04372
G1 X78.567 Y115.726 E.04371
G1 X78.273 Y114.587 E.04057
G1 X78.018 Y112.492 E.07279
G1 X77.553 Y97.115 E.53059
G1 X77.579 Y95.856 E.04343
G1 X77.732 Y94.598 E.04371
G1 X78.279 Y92.519 E.07414
G1 X78.709 Y91.467 E.0392
G1 X79.278 Y90.379 E.04235
G1 X80.521 Y88.625 E.07415
G1 X82.041 Y87.117 E.07385
M204 S1000
;WIPE_START
G1 F8640
G1 X82.084 Y87.075 E-.01388
G1 X83.849 Y85.847 E-.49648
G1 X84.858 Y85.324 E-.26242
G1 X85.771 Y84.957 E-.22722
;WIPE_END
G1 Z.4 F720
G1 X83.798 Y89.125 F10800
G1 Z.2 F720
G1 E1 F2100
M204 S800
G1 F1200
G1 X83.974 Y88.971 E.00807
G1 X85.618 Y87.916 E.06737
G1 X87.422 Y87.209 E.06683
M73 Q4 S6
G1 X89.294 Y86.868 E.06563
G1 X91.27 Y86.899 E.06816
M73 P4 R6
G1 X93.144 Y87.304 E.06613
G1 X94.966 Y88.095 E.06851
G1 X96.569 Y89.213 E.06741
G1 X97.886 Y90.573 E.06529
G1 X99.441 Y89.58 E.06363
G1 X100.355 Y89.172 E.03452
G1 X102.192 Y88.66 E.06577
G1 X104.085 Y88.507 E.0655
G1 X105.986 Y88.722 E.06598
G1 X106.989 Y88.991 E.03582
G1 X107.923 Y89.347 E.03447
G1 X109.644 Y90.32 E.06819
G1 X110.586 Y91.068 E.04149
G1 X111.711 Y90.226 E.04846
G1 X113.423 Y89.362 E.06614
G1 X115.227 Y88.852 E.06466
G1 X116.22 Y88.721 E.03455
G1 X118.131 Y88.753 E.06592
G1 X119.989 Y89.147 E.06551
G1 X120.927 Y89.495 E.03451
G1 X121.858 Y89.955 E.03582
G1 X122.601 Y90.426 E.03034
G1 X123.658 Y89.447 E.04969
G1 X124.472 Y88.87 E.03441
G1 X125.34 Y88.377 E.03443
G1 X127.091 Y87.697 E.06479
G1 X128.912 Y87.361 E.06387
G1 X129.927 Y87.323 E.03503
G1 X130.935 Y87.389 E.03484
G1 X131.917 Y87.553 E.03434
G1 X132.912 Y87.826 E.03559
G1 X133.822 Y88.179 E.03366
G1 X135.525 Y89.149 E.0676
G1 X136.256 Y89.721 E.03201
G1 X137.468 Y90.964 E.05988
G1 X138.115 Y91.853 E.03792
G1 X138.615 Y92.719 E.03449
G1 X139.309 Y94.465 E.0648
G1 X139.662 Y96.328 E.0654
G1 X139.703 Y97.388 E.03659
G1 X139.634 Y98.408 E.03526
G1 X139.285 Y100.085 E.05908
G1 X138.967 Y100.986 E.03295
G1 X138.525 Y101.925 E.03579
G1 X137.994 Y102.8 E.0353
G1 X136.725 Y104.318 E.06824
G1 X137.822 Y105.698 E.0608
G1 X138.713 Y107.414 E.06669
G1 X139.256 Y109.28 E.06703
G1 X139.393 Y110.299 E.03546
G1 X139.36 Y112.239 E.06692
G1 X139.002 Y113.968 E.0609
G1 X138.65 Y114.946 E.03585
G1 X137.703 Y116.686 E.06832
G1 X137.089 Y117.495 E.03503
G1 X136.396 Y118.236 E.03499
M73 Q5 S6
G1 X134.946 Y119.394 E.064
G1 X134.131 Y119.874 E.03262
M73 P5 R6
G1 X132.294 Y120.617 E.06834
G1 X131.322 Y120.849 E.03447
G1 X130.333 Y120.982 E.03442
G1 X129.333 Y121.014 E.03451
G1 X128.336 Y120.946 E.03447
G1 X126.612 Y120.582 E.06077
G1 X124.784 Y119.816 E.06836
G1 X123.347 Y118.855 E.05962
G1 X122.314 Y119.625 E.04444
G1 X121.453 Y120.128 E.03439
G1 X120.521 Y120.552 E.03531
G1 X118.685 Y121.077 E.06586
G1 X116.758 Y121.24 E.0667
G1 X114.914 Y121.041 E.06397
G1 X113.929 Y120.788 E.03508
G1 X112.156 Y120.037 E.06641
G1 X110.906 Y119.212 E.05166
G1 X109.896 Y120.156 E.04768
G1 X108.248 Y121.224 E.06773
G1 X107.34 Y121.636 E.03439
G1 X106.397 Y121.954 E.03432
G1 X104.444 Y122.298 E.0684
G1 X102.616 Y122.265 E.06306
G1 X100.829 Y121.899 E.06291
G1 X99.89 Y121.561 E.03442
G1 X98.977 Y121.125 E.0349
G1 X98.11 Y120.595 E.03505
G1 X96.943 Y119.639 E.05203
G1 X95.948 Y120.363 E.04244
G1 X94.229 Y121.244 E.06662
G1 X93.23 Y121.579 E.03634
G1 X91.338 Y121.909 E.06624
G1 X89.469 Y121.874 E.06447
G1 X87.68 Y121.502 E.06302
G1 X86.745 Y121.163 E.0343
G1 X85.796 Y120.703 E.03637
G1 X84.963 Y120.188 E.03378
G1 X83.502 Y118.958 E.06587
G1 X82.411 Y117.631 E.05925
G1 X81.459 Y115.892 E.06838
G1 X80.873 Y114.006 E.06812
G1 X80.721 Y112.993 E.03533
G1 X80.674 Y111.975 E.03515
G1 X80.728 Y110.986 E.03416
G1 X81.132 Y109.045 E.06838
G1 X81.865 Y107.311 E.06493
G1 X82.369 Y106.479 E.03355
G1 X83.004 Y105.639 E.03632
G1 X84.06 Y104.576 E.05168
G1 X83.027 Y103.668 E.04744
G1 X82.475 Y103.051 E.02855
G1 X81.427 Y101.504 E.06445
G1 X80.985 Y100.587 E.03511
G1 X80.645 Y99.647 E.03448
G1 X80.401 Y98.675 E.03456
G1 X80.25 Y97.625 E.03659
G1 X80.212 Y96.63 E.03434
G1 X80.415 Y94.745 E.06539
G1 X80.983 Y92.91 E.06625
M73 Q6 S6
G1 X81.894 Y91.22 E.06622
M73 P6 R6
G1 X82.515 Y90.392 E.0357
G1 X83.237 Y89.616 E.03656
G1 X83.753 Y89.165 E.02364
M204 S1000
G1 X83.753 Y89.165 F10800
G1 X84.006 Y89.486
M204 S800
G1 F1200
G1 X84.981 Y88.716 E.04285
G1 X86.654 Y87.864 E.06475
G1 X88.431 Y87.362 E.06369
G1 X90.35 Y87.212 E.06639
G1 X92.082 Y87.413 E.06014
G1 X93.021 Y87.66 E.03349
G1 X94.774 Y88.42 E.0659
G1 X96.317 Y89.494 E.06484
G1 X96.976 Y90.114 E.03121
G1 X97.794 Y91.105 E.04432
G1 X98.783 Y90.39 E.04209
G1 X100.482 Y89.527 E.06572
G1 X101.413 Y89.221 E.0338
G1 X103.112 Y88.918 E.05952
G1 X105.013 Y88.945 E.06557
G1 X106.864 Y89.347 E.06533
G1 X108.618 Y90.116 E.06605
G1 X109.421 Y90.624 E.03277
G1 X110.566 Y91.585 E.05156
G1 X111.905 Y90.549 E.05839
G1 X113.567 Y89.71 E.06421
G1 X115.303 Y89.221 E.0622
G1 X116.242 Y89.097 E.03267
G1 X118.08 Y89.126 E.0634
G1 X119.867 Y89.504 E.063
G1 X120.787 Y89.845 E.03384
G1 X121.682 Y90.288 E.03444
G1 X122.662 Y90.912 E.04007
G1 X123.884 Y89.748 E.05821
G1 X125.502 Y88.718 E.06615
G1 X126.345 Y88.344 E.03181
G1 X128.039 Y87.862 E.06074
G1 X129.912 Y87.7 E.06484
G1 X130.901 Y87.764 E.03418
G1 X132.785 Y88.182 E.06656
G1 X134.514 Y88.951 E.06526
G1 X135.3 Y89.452 E.03215
G1 X136.619 Y90.58 E.05986
G1 X137.794 Y92.05 E.06491
G1 X138.668 Y93.753 E.06602
G1 X139.151 Y95.412 E.05959
G1 X139.288 Y96.372 E.03345
G1 X139.325 Y97.392 E.0352
G1 X139.261 Y98.356 E.03332
G1 X138.922 Y99.984 E.05735
G1 X138.615 Y100.851 E.03172
G1 X138.188 Y101.755 E.03448
G1 X137.677 Y102.596 E.03394
G1 X137.095 Y103.366 E.03329
G1 X136.194 Y104.289 E.04449
G1 X136.963 Y105.152 E.03987
G1 X137.958 Y106.675 E.06274
G1 X138.367 Y107.563 E.03372
G1 X138.887 Y109.358 E.06445
G1 X139.016 Y110.32 E.03348
M73 Q7 S6
G1 X138.984 Y112.205 E.06502
M73 P7 R6
G1 X138.639 Y113.866 E.05851
G1 X137.888 Y115.66 E.06708
G1 X136.806 Y117.245 E.06619
G1 X136.14 Y117.959 E.03368
G1 X134.733 Y119.083 E.06211
G1 X133.12 Y119.93 E.06284
G1 X132.197 Y120.253 E.03373
G1 X130.311 Y120.605 E.06617
G1 X128.371 Y120.57 E.06692
G1 X126.715 Y120.219 E.05838
G1 X124.955 Y119.48 E.06584
G1 X123.317 Y118.359 E.06846
G1 X122.116 Y119.304 E.05271
G1 X120.391 Y120.198 E.06701
G1 X118.608 Y120.707 E.06395
G1 X116.754 Y120.862 E.06417
G1 X114.981 Y120.67 E.06151
G1 X114.05 Y120.43 E.03316
G1 X112.329 Y119.701 E.06446
G1 X110.862 Y118.704 E.06118
G1 X109.667 Y119.856 E.05725
G1 X108.084 Y120.885 E.06512
G1 X106.303 Y121.588 E.06604
G1 X104.425 Y121.921 E.06578
G1 X103.474 Y121.946 E.03281
G1 X101.872 Y121.77 E.05558
G1 X100.044 Y121.217 E.06587
G1 X98.33 Y120.288 E.06724
G1 X96.943 Y119.12 E.06254
G1 X95.752 Y120.04 E.05191
G1 X94.083 Y120.896 E.06469
G1 X93.137 Y121.213 E.03441
G1 X91.318 Y121.532 E.06369
G1 X90.403 Y121.559 E.03157
G1 X88.655 Y121.362 E.06067
G1 X86.9 Y120.819 E.06336
G1 X85.97 Y120.368 E.03565
G1 X84.428 Y119.305 E.0646
G1 X83.765 Y118.688 E.03124
G1 X82.728 Y117.426 E.05634
G1 X81.81 Y115.753 E.06582
G1 X81.245 Y113.94 E.0655
G1 X81.095 Y112.947 E.03464
G1 X81.051 Y111.986 E.03318
G1 X81.102 Y111.035 E.03285
G1 X81.489 Y109.166 E.06583
G1 X82.201 Y107.483 E.06303
G1 X82.687 Y106.683 E.03228
G1 X83.286 Y105.889 E.0343
G1 X84.655 Y104.555 E.06593
G1 X83.981 Y104.04 E.02926
G1 X82.771 Y102.817 E.05934
G1 X81.763 Y101.332 E.0619
M73 P8 R6
M73 Q8 S6
G1 X81.329 Y100.432 E.03446
G1 X80.772 Y98.611 E.06568
G1 X80.626 Y97.6 E.03523
G1 X80.644 Y95.717 E.06495
G1 X81.02 Y93.909 E.06369
G1 X81.729 Y92.223 E.06308
G1 X82.798 Y90.642 E.06582
G1 X83.506 Y89.88 E.03587
G1 X83.959 Y89.523 E.01989
M204 S1000
G1 X83.959 Y89.523 F10800
G1 X84.188 Y89.786
M204 S800
G1 F1200
G1 X84.455 Y89.552 E.01224
G1 X85.976 Y88.58 E.06226
G1 X87.644 Y87.93 E.06174
G1 X89.374 Y87.618 E.06063
G1 X91.183 Y87.648 E.0624
G1 X92.915 Y88.022 E.06111
G1 X94.598 Y88.754 E.0633
G1 X96.066 Y89.776 E.06169
G1 X97.252 Y90.994 E.05863
G1 X97.738 Y91.679 E.02897
G1 X98.978 Y90.713 E.05421
G1 X100.627 Y89.876 E.06378
G1 X101.505 Y89.587 E.03188
G1 X103.134 Y89.295 E.05708
G1 X104.962 Y89.319 E.06305
G1 X106.739 Y89.703 E.0627
G1 X108.425 Y90.44 E.06346
G1 X109.197 Y90.928 E.0315
G1 X110.556 Y92.094 E.06176
G1 X111.346 Y91.406 E.03613
G1 X112.903 Y90.417 E.06362
G1 X114.535 Y89.785 E.06036
G1 X116.263 Y89.474 E.06056
G1 X118.03 Y89.5 E.06095
G1 X119.762 Y89.866 E.06106
G1 X121.506 Y90.622 E.06556
G1 X122.693 Y91.43 E.04952
G1 X123.431 Y90.644 E.03719
G1 X124.877 Y89.506 E.06346
G1 X126.49 Y88.692 E.06231
G1 X128.099 Y88.234 E.0577
G1 X129.897 Y88.077 E.06225
G1 X130.866 Y88.14 E.03349
G1 X132.658 Y88.537 E.0633
G1 X134.319 Y89.274 E.06267
G1 X135.777 Y90.304 E.06157
G1 X136.87 Y91.424 E.05397
G1 X137.473 Y92.248 E.03522
G1 X138.314 Y93.883 E.06341
G1 X138.782 Y95.491 E.05776
G1 X138.913 Y96.414 E.03215
G1 X138.887 Y98.304 E.06519
G1 X138.559 Y99.882 E.05559
G1 X138.263 Y100.716 E.03052
G1 X137.37 Y102.377 E.06504
G1 X136.813 Y103.116 E.03192
M73 P9 R6
M73 Q9 S6
G1 X135.62 Y104.288 E.05768
G1 X136.673 Y105.393 E.05264
G1 X137.619 Y106.841 E.05965
G1 X138.02 Y107.712 E.03307
G1 X138.518 Y109.435 E.06186
G1 X138.641 Y110.36 E.03218
G1 X138.609 Y112.17 E.06244
G1 X138.276 Y113.764 E.05616
G1 X137.553 Y115.488 E.06448
G1 X136.512 Y117.009 E.06357
G1 X135.884 Y117.682 E.03175
G1 X134.519 Y118.772 E.06025
G1 X132.986 Y119.577 E.05972
G1 X132.099 Y119.889 E.03243
G1 X130.289 Y120.229 E.06352
G1 X128.407 Y120.195 E.06492
G1 X126.835 Y119.862 E.05542
G1 X125.127 Y119.144 E.0639
G1 X124.323 Y118.65 E.03255
G1 X123.329 Y117.843 E.04416
G1 X121.917 Y118.984 E.06261
G1 X120.261 Y119.843 E.06434
G1 X118.532 Y120.338 E.06203
G1 X116.751 Y120.485 E.06164
G1 X115.049 Y120.299 E.05905
G1 X113.323 Y119.763 E.06233
G1 X111.735 Y118.897 E.06238
G1 X110.818 Y118.194 E.03985
G1 X109.438 Y119.556 E.06687
G1 X107.919 Y120.546 E.06253
G1 X106.209 Y121.223 E.06343
G1 X104.405 Y121.545 E.0632
G1 X103.49 Y121.569 E.03157
G1 X101.938 Y121.399 E.05385
G1 X100.18 Y120.865 E.06337
G1 X98.535 Y119.972 E.06456
G1 X97.818 Y119.428 E.03104
G1 X96.953 Y118.611 E.04104
G1 X96.269 Y119.207 E.03129
G1 X94.776 Y120.169 E.06126
G1 X93.936 Y120.549 E.0318
G1 X92.169 Y121.046 E.06331
G1 X90.402 Y121.181 E.06112
G1 X88.74 Y120.995 E.05768
G1 X87.056 Y120.475 E.06079
G1 X86.143 Y120.033 E.03499
G1 X84.665 Y119.011 E.06198
G1 X84.029 Y118.418 E.02999
G1 X83.044 Y117.22 E.05349
G1 X82.16 Y115.614 E.06323
G1 X81.616 Y113.874 E.06288
G1 X81.47 Y112.9 E.03397
G1 X81.476 Y111.083 E.06267
G1 X81.624 Y110.138 E.03299
G1 X82.149 Y108.462 E.06057
G1 X83.004 Y106.887 E.06181
M73 P10 R6
M73 Q10 S6
G1 X83.569 Y106.138 E.03236
G1 X84.209 Y105.45 E.03241
G1 X85.328 Y104.538 E.04979
G1 X84.231 Y103.757 E.04644
G1 X83.565 Y103.139 E.03134
G1 X82.559 Y101.909 E.0548
G1 X82.089 Y101.143 E.031
G1 X81.681 Y100.295 E.03246
G1 X81.141 Y98.529 E.06369
G1 X81.001 Y97.556 E.0339
G1 X81.02 Y95.748 E.06236
G1 X81.383 Y94.013 E.06114
G1 X82.065 Y92.394 E.06059
G1 X83.081 Y90.891 E.06257
G1 X83.776 Y90.144 E.03519
G1 X84.142 Y89.825 E.01675
M204 S1000
G1 X84.142 Y89.825 F10800
G1 X84.39 Y90.139
M204 S800
G1 F1200
G1 X85.387 Y89.351 E.04383
G1 X86.928 Y88.566 E.05965
G1 X88.565 Y88.104 E.05867
G1 X90.317 Y87.966 E.06061
G1 X91.942 Y88.154 E.05642
G1 X92.809 Y88.384 E.03094
G1 X94.422 Y89.087 E.06069
G1 X95.149 Y89.544 E.02962
G1 X96.423 Y90.627 E.05767
G1 X96.962 Y91.236 E.02805
G1 X97.672 Y92.239 E.04238
G1 X98.469 Y91.54 E.03656
G1 X99.977 Y90.576 E.06173
G1 X101.598 Y89.953 E.05989
G1 X103.157 Y89.671 E.05464
G1 X104.096 Y89.639 E.0324
G1 X105.724 Y89.823 E.05651
G1 X107.46 Y90.379 E.06287
G1 X108.973 Y91.231 E.05989
G1 X109.65 Y91.757 E.02957
G1 X110.554 Y92.665 E.04419
G1 X111.572 Y91.708 E.04819
G1 X113.065 Y90.758 E.06103
G1 X114.645 Y90.146 E.05844
G1 X116.303 Y89.849 E.05809
G1 X117.996 Y89.876 E.0584
G1 X119.657 Y90.228 E.05856
G1 X121.33 Y90.955 E.06291
G1 X122.774 Y91.969 E.06086
G1 X123.7 Y90.909 E.04854
G1 X125.072 Y89.829 E.06022
G1 X126.634 Y89.04 E.06036
G1 X128.16 Y88.606 E.05472
G1 X129.902 Y88.454 E.06031
G1 X130.813 Y88.513 E.03149
G1 X132.532 Y88.892 E.06071
G1 X134.126 Y89.598 E.06013
G1 X135.525 Y90.584 E.05903
G1 X136.583 Y91.669 E.05227
G1 X137.152 Y92.446 E.03322
G1 X137.96 Y94.014 E.06084
G1 X138.413 Y95.571 E.05593
M73 P11 R6
M73 Q11 S6
G1 X138.538 Y96.457 E.03086
G1 X138.513 Y98.253 E.06195
