; generated by PrusaSlicer 2.7.4+win64 on 2024-04-28 at 15:54:12 UTC


;
;
; 

; external perimeters extrusion width = 0.60mm
; perimeters extrusion width = 0.50mm
; infill extrusion width = 0.50mm
; solid infill extrusion width = 0.50mm
; top infill extrusion width = 0.45mm
; support material extrusion width = 0.38mm
; first layer extrusion width = 0.42mm

M73 P0 R88
M73 Q0 S88
M201 X1000 Y1000 Z200 E5000 ; sets maximum accelerations, mm/sec^2
M203 X200 Y200 Z12 E120 ; sets maximum feedrates, mm / sec
M204 S1250 T1250 ; sets acceleration (S) and retract acceleration (R), mm/sec^2
M205 X8.00 Y8.00 Z0.40 E4.50 ; sets the jerk limits, mm/sec
M205 S0 T0 ; sets the minimum extruding and travel feed rate, mm/sec

; printing object RSP-500_din_mount_x2.stl id:0 copy 0
; stop printing object RSP-500_din_mount_x2.stl id:0 copy 0
; printing object RSP-500_din_mount_x2.stl id:0 copy 1
; stop printing object RSP-500_din_mount_x2.stl id:0 copy 1

;TYPE:Custom
M862.3 P "MK3" ; printer model check
M862.1 P0.4 ; nozzle diameter check
M115 U3.12.2 ; tell printer latest fw version
G90 ; use absolute coordinates
M83 ; extruder relative mode
M104 S230 ; set extruder temp
M140 S85 ; set bed temp
M190 S85 ; wait for bed temp
M109 S230 ; wait for extruder temp
G28 W ; home all without mesh bed level
G80 ; mesh bed leveling

G1 Z0.2 F720
G1 Y-3 F1000 ; go outside print area
G92 E0
G1 X60 E9 F1000 ; intro line
G1 X100 E12.5 F1000 ; intro line

G92 E0
M221 S95

; Don't change E values below. Excessive value can damage the printer.

M907 E538 ; set extruder motor current
G21 ; set units to millimeters
G90 ; use absolute coordinates
M83 ; use relative distances for extrusion

M900 K0.08 ; Filament gcode LA 1.5
M900 K45 ; Filament gcode LA 1.0




M107
;LAYER_CHANGE
;Z:0.2
;HEIGHT:0.2
G1 E-1 F2100
G1 Z.4 F720
G1 X68.436 Y60.315 F10800
G1 Z.2 F720
G1 E1 F2100
M204 S800
;TYPE:Skirt/Brim
;WIDTH:0.42
G1 F1200
G1 X71.578 Y57.173 E.15325
G1 X72.349 Y56.658 E.03198
M73 P0 R87
G1 X74.224 Y55.881 E.07
G1 X75.134 Y55.7 E.032
G1 X180.097 Y55.7 E3.62015
G1 X181.006 Y55.881 E.03197
G1 X182.881 Y56.658 E.07
G1 X183.652 Y57.173 E.03198
G1 X186.794 Y60.315 E.15325
G1 X187.309 Y61.086 E.03198
G1 X188.086 Y62.96 E.06997
G1 X188.263 Y63.734 E.02738
G1 X189.823 Y91.026 E.94283
G1 X189.827 Y102.777 E.40529
G1 X189.646 Y103.686 E.03197
G1 X188.87 Y105.561 E.06999
G1 X188.355 Y106.332 E.03198
G1 X185.213 Y109.474 E.15325
G1 X184.442 Y109.989 E.03198
G1 X182.567 Y110.766 E.07
G1 X181.657 Y110.947 E.032
G1 X76.694 Y110.947 E3.62015
G1 X75.784 Y110.766 E.032
G1 X73.91 Y109.989 E.06997
G1 X73.139 Y109.474 E.03198
G1 X69.997 Y106.332 E.15325
G1 X69.482 Y105.561 E.03198
G1 X68.705 Y103.686 E.07
G1 X68.528 Y102.913 E.02735
G1 X66.968 Y75.62 E.94286
G1 X66.964 Y63.87 E.40525
G1 X67.145 Y62.96 E.032
G1 X67.921 Y61.086 E.06996
G1 X68.403 Y60.365 E.02991
M204 S1000
;WIPE_START
G1 F8640
G1 X68.436 Y60.315 E-.01383
G1 X71.456 Y57.295 E-.98617
;WIPE_END
G1 Z.4 F720
G1 X76.314 Y85.912 F10800
G1 Z.2 F720
G1 E1 F2100
M204 S800
G1 F1200
G1 X76.956 Y85.713 E.02318
G1 X181.344 Y85.706 E3.60031
G1 X182.682 Y86.108 E.04819
G1 X183.827 Y86.846 E.04698
G1 X186.115 Y89.174 E.11258
G1 X186.667 Y90.041 E.03545
G1 X187.027 Y90.985 E.03485
G1 X187.165 Y102.035 E.38114
G1 X186.802 Y103.594 E.05521
G1 X185.97 Y104.952 E.05493
G1 X183.473 Y107.364 E.11974
G1 X182.469 Y107.925 E.03967
G1 X181.356 Y108.234 E.03984
G1 X77.386 Y108.283 E3.5859
G1 X75.855 Y107.912 E.05433
G1 X74.497 Y107.066 E.05518
G1 X72.107 Y104.592 E.11864
G1 X71.546 Y103.588 E.03967
G1 X71.238 Y102.476 E.0398
G1 X71.188 Y91.966 E.36249
G1 X71.381 Y90.818 E.04015
G1 X72.329 Y89.041 E.06946
G1 X74.505 Y86.865 E.10614
G1 X75.647 Y86.118 E.04707
G1 X76.256 Y85.93 E.02198
M204 S1000
G1 X76.256 Y85.93 F10800
G1 X76.365 Y86.287
M204 S800
G1 F1200
G1 X77.038 Y86.082 E.02426
G1 X181.264 Y86.076 E3.59473
G1 X182.502 Y86.441 E.04452
G1 X183.574 Y87.126 E.04388
G1 X185.808 Y89.394 E.1098
G1 X186.321 Y90.194 E.03278
G1 X186.662 Y91.088 E.033
G1 X186.787 Y102.017 E.37696
G1 X186.464 Y103.424 E.04979
G1 X185.69 Y104.698 E.05141
G1 X183.267 Y107.047 E.11639
G1 X182.305 Y107.584 E.038
G1 X181.281 Y107.863 E.0366
G1 X77.409 Y107.906 E3.58252
G1 X75.975 Y107.554 E.05093
G1 X74.752 Y106.788 E.04977
G1 X72.424 Y104.387 E.11534
G1 X71.887 Y103.425 E.038
G1 X71.608 Y102.401 E.0366
G1 X71.565 Y91.979 E.35946
G1 X71.729 Y90.966 E.03539
G1 X72.616 Y89.288 E.06546
G1 X74.758 Y87.146 E.10448
G1 X75.829 Y86.449 E.04407
G1 X76.307 Y86.304 E.01723
M204 S1000
G1 X76.307 Y86.304 F10800
G1 X76.417 Y86.665
M204 S800
G1 F1200
G1 X77.121 Y86.451 E.02538
G1 X181.185 Y86.445 E3.58914
G1 X182.324 Y86.774 E.04089
M73 P1 R87
M73 Q1 S87
G1 X183.321 Y87.406 E.04071
G1 X185.501 Y89.614 E.10702
G1 X185.993 Y90.38 E.0314
G1 X186.298 Y91.189 E.02982
G1 X186.41 Y101.997 E.37278
G1 X186.104 Y103.308 E.04643
G1 X185.41 Y104.444 E.04591
G1 X183.06 Y106.731 E.1131
G1 X182.183 Y107.227 E.03475
G1 X181.206 Y107.493 E.03492
G1 X77.431 Y107.529 E3.57917
G1 X76.148 Y107.217 E.04554
G1 X75.005 Y106.508 E.04639
G1 X72.74 Y104.18 E.11202
G1 X72.244 Y103.302 E.03478
G1 X71.978 Y102.326 E.03489
G1 X71.942 Y91.992 E.35642
G1 X72.078 Y91.112 E.03071
G1 X72.904 Y89.534 E.06143
G1 X75.011 Y87.426 E.1028
G1 X75.965 Y86.802 E.03932
G1 X76.36 Y86.682 E.01424
M204 S1000
G1 X76.36 Y86.682 F10800
G1 X76.466 Y87.039
M204 S800
G1 F1200
G1 X77.202 Y86.82 E.02648
G1 X181.109 Y86.815 E3.58372
G1 X182.147 Y87.108 E.0372
M73 P1 R86
G1 X183.069 Y87.687 E.03755
G1 X185.196 Y89.836 E.10428
G1 X185.647 Y90.533 E.02863
G1 X185.933 Y91.291 E.02794
G1 X186.033 Y101.979 E.36864
G1 X185.765 Y103.14 E.0411
G1 X185.129 Y104.192 E.0424
G1 X182.853 Y106.415 E.10973
G1 X182.019 Y106.886 E.03303
G1 X181.134 Y107.122 E.03159
G1 X77.454 Y107.152 E3.5759
G1 X76.268 Y106.858 E.04214
G1 X75.259 Y106.228 E.04103
G1 X73.056 Y103.973 E.10873
G1 X72.585 Y103.138 E.03306
G1 X72.349 Y102.253 E.03159
G1 X72.319 Y92.004 E.35349
G1 X72.428 Y91.256 E.02607
G1 X73.191 Y89.78 E.05731
G1 X75.263 Y87.707 E.10109
G1 X76.147 Y87.134 E.03633
G1 X76.408 Y87.056 E.0094
M204 S1000
G1 X76.511 Y87.413 F10800
M204 S800
G1 F1200
G1 X77.28 Y87.19 E.02762
G1 X181.034 Y87.186 E3.57845
G1 X181.972 Y87.443 E.03354
G1 X182.817 Y87.969 E.03433
G1 X184.891 Y90.059 E.10155
G1 X185.302 Y90.685 E.02583
G1 X185.568 Y91.393 E.02609
G1 X185.656 Y101.959 E.36443
G1 X185.406 Y103.024 E.03773
G1 X184.848 Y103.939 E.03696
G1 X182.644 Y106.1 E.10646
G1 X181.898 Y106.528 E.02966
G1 X181.06 Y106.752 E.02992
G1 X77.477 Y106.775 E3.57255
G1 X76.44 Y106.522 E.03681
G1 X75.512 Y105.948 E.03763
G1 X73.371 Y103.763 E.10551
G1 X72.943 Y103.017 E.02966
G1 X72.72 Y102.18 E.02987
G1 X72.696 Y92.015 E.35059
G1 X72.779 Y91.397 E.02151
G1 X73.479 Y90.025 E.05312
G1 X75.516 Y87.988 E.09936
G1 X76.327 Y87.466 E.03326
G1 X76.454 Y87.429 E.00456
M204 S1000
G1 X76.454 Y87.429 F10800
G1 X76.554 Y87.786
M204 S800
G1 F1200
G1 X77.357 Y87.56 E.02877
G1 X180.961 Y87.556 E3.57327
G1 X181.799 Y87.779 E.02991
G1 X182.566 Y88.251 E.03106
G1 X184.587 Y90.282 E.09882
G1 X184.975 Y90.874 E.02441
G1 X185.203 Y91.492 E.02272
G1 X185.278 Y101.94 E.36036
G1 X185.067 Y102.855 E.03239
G1 X184.566 Y103.687 E.0335
G1 X182.435 Y105.785 E.10314
G1 X181.732 Y106.188 E.02795
G1 X180.99 Y106.38 E.02643
G1 X77.5 Y106.398 E3.56934
G1 X76.561 Y106.164 E.03338
G1 X75.766 Y105.667 E.03234
G1 X73.686 Y103.555 E.10224
G1 X73.283 Y102.852 E.02795
G1 X73.091 Y102.109 E.02647
G1 X73.073 Y92.028 E.34769
G1 X73.148 Y91.48 E.01908
G1 X73.767 Y90.271 E.04685
G1 X75.767 Y88.27 E.09758
G1 X76.497 Y87.804 E.02987
M204 S1000
G1 X76.497 Y87.804 F10800
G1 X76.681 Y88.134
M204 S800
G1 F1200
G1 X77.431 Y87.93 E.02681
G1 X180.891 Y87.928 E3.56831
G1 X181.628 Y88.116 E.02623
M73 P2 R86
M73 Q2 S87
G1 X182.315 Y88.534 E.02774
G1 X184.284 Y90.507 E.09614
G1 X184.629 Y91.026 E.02149
G1 X184.838 Y91.592 E.02081
G1 X184.901 Y101.919 E.35618
G1 X184.707 Y102.739 E.02906
G1 X184.285 Y103.435 E.02807
G1 X182.224 Y105.472 E.09994
G1 X181.612 Y105.83 E.02445
G1 X180.919 Y106.009 E.02469
G1 X77.523 Y106.021 E3.5661
G1 X76.733 Y105.827 E.02806
G1 X76.017 Y105.386 E.029
G1 X73.999 Y103.343 E.09904
M73 Q2 S86
G1 X73.641 Y102.732 E.02442
G1 X73.462 Y102.038 E.02472
G1 X73.45 Y92.041 E.34479
G1 X73.517 Y91.564 E.01661
G1 X74.054 Y90.517 E.04058
G1 X76.019 Y88.552 E.09584
G1 X76.631 Y88.166 E.02496
M204 S1000
G1 X76.631 Y88.166 F10800
G1 X76.83 Y88.486
M204 S800
G1 F1200
G1 X76.855 Y88.47 E.00102
G1 X77.502 Y88.301 E.02306
G1 X180.825 Y88.299 E3.56358
G1 X181.46 Y88.455 E.02255
G1 X182.066 Y88.818 E.02436
G1 X183.982 Y90.734 E.09345
G1 X184.283 Y91.179 E.01853
G1 X184.473 Y91.692 E.01887
G1 X184.524 Y101.899 E.35204
G1 X184.368 Y102.572 E.02383
G1 X184.002 Y103.185 E.02462
G1 X182.013 Y105.159 E.09665
G1 X181.446 Y105.49 E.02264
G1 X180.851 Y105.638 E.02115
G1 X77.546 Y105.643 E3.56296
G1 X76.854 Y105.469 E.02461
G1 X76.27 Y105.105 E.02373
G1 X74.312 Y103.132 E.09587
G1 X73.981 Y102.565 E.02264
G1 X73.833 Y101.97 E.02115
G1 X73.828 Y92.055 E.34197
G1 X73.886 Y91.649 E.01414
G1 X74.341 Y90.762 E.03438
G1 X76.27 Y88.834 E.09406
M73 P2 R85
G1 X76.779 Y88.517 E.02068
M204 S1000
G1 X76.779 Y88.517 F10800
G1 X76.975 Y88.838
M204 S800
G1 F1200
G1 X77.026 Y88.807 E.00206
G1 X77.569 Y88.673 E.01929
G1 X180.8 Y88.676 E3.56041
G1 X181.339 Y88.813 E.01918
G1 X181.815 Y89.1 E.01917
G1 X183.702 Y90.987 E.09204
G1 X183.956 Y91.368 E.01579
G1 X184.107 Y91.788 E.01539
G1 X184.147 Y101.877 E.34797
G1 X184.008 Y102.455 E.0205
G1 X183.719 Y102.934 E.01929
G1 X181.798 Y104.848 E.09353
G1 X181.327 Y105.131 E.01895
G1 X180.783 Y105.266 E.01933
G1 X77.569 Y105.266 E3.55982
G1 X77.026 Y105.132 E.01929
G1 X76.52 Y104.822 E.02047
G1 X74.623 Y102.918 E.0927
G1 X74.34 Y102.446 E.01898
G1 X74.205 Y101.902 E.01933
G1 X74.254 Y91.736 E.35063
G1 X74.629 Y91.008 E.02824
G1 X76.52 Y89.117 E.09224
G1 X76.924 Y88.87 E.01633
M204 S1000
G1 X76.924 Y88.87 F10800
G1 X77.119 Y89.183
M204 S800
G1 F1200
G1 X77.149 Y89.165 E.00121
G1 X77.594 Y89.05 E.01585
G1 X180.777 Y89.053 E3.55875
G1 X181.172 Y89.152 E.01404
G1 X181.566 Y89.384 E.01577
G1 X183.421 Y91.24 E.0905
G1 X183.741 Y91.88 E.02468
G1 X183.77 Y101.857 E.34411
G1 X183.669 Y102.289 E.0153
G1 X183.435 Y102.685 E.01586
G1 X181.58 Y104.541 E.0905
G1 X181.203 Y104.774 E.01529
G1 X180.758 Y104.889 E.01585
G1 X77.594 Y104.889 E3.5581
G1 X77.149 Y104.774 E.01585
G1 X76.772 Y104.541 E.01529
G1 X74.93 Y102.699 E.08985
G1 X74.697 Y102.322 E.01529
G1 X74.582 Y101.877 E.01585
G1 X74.582 Y92.084 E.33776
G1 X74.622 Y91.824 E.00907
G1 X74.916 Y91.255 E.02209
G1 X76.772 Y89.398 E.09055
G1 X77.068 Y89.215 E.012
M204 S1000
G1 X77.068 Y89.215 F10800
G1 X77.228 Y89.593
M204 S800
G1 F1200
G1 X77.62 Y89.427 E.01468
G1 X180.755 Y89.43 E3.5571
G1 X181.318 Y89.67 E.02111
G1 X183.142 Y91.494 E.08897
G1 X183.374 Y91.974 E.01839
G1 X183.393 Y101.837 E.34017
G1 X183.15 Y102.437 E.02233
G1 X181.328 Y104.26 E.08889
G1 X180.731 Y104.512 E.02235
G1 X77.62 Y104.512 E3.55627
G1 X77.024 Y104.26 E.02232
M73 P3 R85
M73 Q3 S86
G1 X75.212 Y102.447 E.08841
G1 X74.959 Y101.851 E.02233
G1 X74.989 Y91.915 E.34269
G1 X75.203 Y91.501 E.01607
G1 X77.024 Y89.68 E.08882
G1 X77.173 Y89.617 E.00558
M204 S1000
G1 X77.173 Y89.617 F10800
G1 X77.31 Y89.946
M204 S800
G1 F1200
G1 X77.649 Y89.804 E.01268
G1 X180.733 Y89.808 E3.55534
G1 X181.071 Y89.957 E.01274
G1 X182.86 Y91.745 E.08724
G1 X183.006 Y92.061 E.01201
G1 X183.016 Y101.818 E.33652
G1 X182.863 Y102.191 E.0139
G1 X181.074 Y103.979 E.08724
G1 X180.703 Y104.135 E.01388
G1 X77.649 Y104.135 E3.5543
G1 X77.277 Y103.979 E.01391
M73 Q3 S85
G1 X75.492 Y102.194 E.08706
G1 X75.336 Y101.822 E.01391
G1 X75.355 Y92.009 E.33845
G1 X75.49 Y91.747 E.01017
G1 X77.26 Y89.977 E.08633
M204 S1000
G1 X77.26 Y89.977 F10800
G1 X77.527 Y90.243
M204 S800
G1 F1200
G1 X77.532 Y90.238 E.00024
G1 X77.682 Y90.181 E.00553
G1 X180.711 Y90.187 E3.55344
G1 X182.581 Y92 E.08983
G1 X182.639 Y92.15 E.00555
G1 X182.639 Y101.801 E.33286
G1 X182.573 Y101.947 E.00553
G1 X180.82 Y103.701 E.08553
G1 X180.67 Y103.758 E.00553
G1 X77.682 Y103.758 E3.55203
G1 X77.532 Y103.701 E.00553
G1 X75.77 Y101.939 E.08594
G1 X75.713 Y101.789 E.00553
M73 P3 R84
G1 X75.713 Y92.138 E.33286
G1 X75.778 Y91.992 E.00551
G1 X77.484 Y90.286 E.08321
M204 S1000
;WIPE_START
G1 F8640
G1 X77.527 Y90.243 E-.01404
G1 X77.532 Y90.238 E-.00163
G1 X77.682 Y90.181 E-.03705
G1 X81.784 Y90.181 E-.94728
;WIPE_END
G1 Z.4 F720
G1 X77.48 Y80.99 F10800
G1 Z.2 F720
G1 E1 F2100
M204 S800
G1 F1200
G1 X75.826 Y80.991 E.05705
G1 X74.294 Y80.62 E.05437
G1 X72.936 Y79.774 E.05518
G1 X70.546 Y77.3 E.11864
G1 X69.985 Y76.296 E.03967
G1 X69.677 Y75.184 E.0398
G1 X69.627 Y64.674 E.36249
G1 X69.821 Y63.525 E.04019
G1 X70.769 Y61.749 E.06943
G1 X72.945 Y59.573 E.10614
G1 X74.086 Y58.826 E.04704
G1 X75.395 Y58.421 E.04726
G1 X179.783 Y58.414 E3.60031
G1 X181.122 Y58.816 E.04822
G1 X182.267 Y59.554 E.04698
G1 X184.554 Y61.881 E.11253
G1 X185.106 Y62.749 E.03548
G1 X185.466 Y63.692 E.03481
G1 X185.604 Y74.742 E.38114
G1 X185.241 Y76.301 E.05521
G1 X184.409 Y77.659 E.05493
G1 X181.912 Y80.072 E.11976
G1 X180.908 Y80.633 E.03967
G1 X179.795 Y80.942 E.03984
G1 X77.54 Y80.99 E3.52675
M204 S1000
G1 X77.54 Y80.613 F10800
M204 S800
G1 F1200
G1 X75.849 Y80.614 E.05832
G1 X74.414 Y80.261 E.05097
G1 X73.191 Y79.496 E.04975
G1 X70.863 Y77.095 E.11534
G1 X70.326 Y76.133 E.038
G1 X70.047 Y75.109 E.0366
G1 X70.004 Y64.687 E.35946
G1 X70.169 Y63.674 E.0354
G1 X71.056 Y61.996 E.06546
G1 X73.197 Y59.854 E.10445
G1 X74.269 Y59.157 E.0441
G1 X75.477 Y58.79 E.04354
G1 X179.703 Y58.784 E3.59473
G1 X180.942 Y59.149 E.04455
G1 X182.013 Y59.834 E.04385
G1 X184.247 Y62.102 E.1098
G1 X184.761 Y62.901 E.03277
G1 X185.102 Y63.796 E.03303
G1 X185.227 Y74.724 E.37693
G1 X184.903 Y76.132 E.04983
G1 X184.129 Y77.406 E.05141
G1 X181.707 Y79.755 E.11637
G1 X180.745 Y80.292 E.038
G1 X179.721 Y80.571 E.0366
G1 X77.6 Y80.613 E3.52213
M204 S1000
G1 X77.6 Y80.236 F10800
M73 P4 R84
M73 Q4 S85
M204 S800
G1 F1200
G1 X75.871 Y80.237 E.05963
G1 X74.587 Y79.925 E.04557
G1 X73.445 Y79.216 E.04636
G1 X71.179 Y76.887 E.11207
G1 X70.684 Y76.01 E.03473
G1 X70.418 Y75.034 E.03489
G1 X70.381 Y64.7 E.35642
G1 X70.518 Y63.82 E.03072
G1 X71.343 Y62.242 E.06141
G1 X73.45 Y60.134 E.1028
G1 X74.404 Y59.51 E.03932
G1 X75.56 Y59.159 E.04167
G1 X179.625 Y59.153 E3.58917
G1 X180.763 Y59.482 E.04086
G1 X181.76 Y60.114 E.04071
G1 X183.941 Y62.322 E.10704
G1 X184.432 Y63.088 E.03138
G1 X184.737 Y63.897 E.02982
G1 X184.85 Y74.705 E.37279
G1 X184.543 Y76.016 E.04644
G1 X183.849 Y77.152 E.04591
G1 X181.5 Y79.439 E.11307
G1 X180.622 Y79.935 E.03478
G1 X179.646 Y80.201 E.03489
G1 X77.66 Y80.236 E3.51747
M204 S1000
G1 X77.66 Y80.236 F10800
G1 X77.66 Y79.859
M204 S800
G1 F1200
G1 X75.894 Y79.86 E.06091
G1 X74.707 Y79.566 E.04218
G1 X73.699 Y78.936 E.041
G1 X71.495 Y76.68 E.10878
G1 X71.024 Y75.846 E.03303
G1 X70.788 Y74.961 E.03159
G1 X70.759 Y64.712 E.35349
G1 X70.868 Y63.964 E.02607
G1 X71.63 Y62.487 E.05732
G1 X73.703 Y60.415 E.10109
G1 X74.586 Y59.842 E.0363
G1 X75.641 Y59.528 E.03796
G1 X179.548 Y59.523 E3.58372
G1 X180.586 Y59.816 E.0372
M73 Q4 S84
G1 X181.508 Y60.395 E.03755
G1 X183.635 Y62.544 E.10428
G1 X184.087 Y63.24 E.02862
G1 X184.372 Y63.999 E.02796
G1 X184.472 Y74.687 E.36864
G1 X184.205 Y75.847 E.04105
G1 X183.568 Y76.899 E.04242
G1 X181.293 Y79.123 E.10973
G1 X180.458 Y79.594 E.03306
G1 X179.573 Y79.83 E.03159
G1 X77.72 Y79.859 E3.51288
M204 S1000
G1 X77.72 Y79.859 F10800
G1 X77.72 Y79.482
M204 S800
G1 F1200
G1 X75.916 Y79.483 E.06222
G1 X74.88 Y79.23 E.03678
G1 X73.952 Y78.656 E.03763
G1 X71.81 Y76.471 E.10553
G1 X71.382 Y75.725 E.02966
G1 X71.159 Y74.888 E.02987
G1 X71.136 Y64.723 E.35059
G1 X71.219 Y64.105 E.02151
G1 X71.918 Y62.733 E.05311
G1 X73.955 Y60.696 E.09936
G1 X74.766 Y60.174 E.03326
G1 X75.72 Y59.898 E.03425
G1 X179.473 Y59.894 E3.57841
G1 X180.411 Y60.151 E.03354
M73 P4 R83
G1 X181.256 Y60.677 E.03433
G1 X183.331 Y62.767 E.10158
G1 X183.741 Y63.393 E.02581
G1 X184.008 Y64.101 E.0261
G1 X184.095 Y74.667 E.36443
G1 X183.845 Y75.731 E.0377
