; generated by PrusaSlicer 2.7.4+win64 on 2024-04-28 at 16:59:10 UTC


;
;
; 

; external perimeters extrusion width = 0.60mm
; perimeters extrusion width = 0.50mm
; infill extrusion width = 0.50mm
; solid infill extrusion width = 0.50mm
; top infill extrusion width = 0.45mm
; support material extrusion width = 0.38mm
; first layer extrusion width = 0.42mm

M73 P0 R101
M73 Q0 S103
M201 X1000 Y1000 Z200 E5000 ; sets maximum accelerations, mm/sec^2
M203 X200 Y200 Z12 E120 ; sets maximum feedrates, mm / sec
M204 S1250 T1250 ; sets acceleration (S) and retract acceleration (R), mm/sec^2
M205 X8.00 Y8.00 Z0.40 E4.50 ; sets the jerk limits, mm/sec
M205 S0 T0 ; sets the minimum extruding and travel feed rate, mm/sec

; printing object RSP-500_din_mount_x2.stl id:0 copy 0
; stop printing object RSP-500_din_mount_x2.stl id:0 copy 0
; printing object RSP-500_din_mount_x2.stl id:0 copy 1
; stop printing object RSP-500_din_mount_x2.stl id:0 copy 1

;TYPE:Custom
M862.3 P "MK3" ; printer model check
M862.1 P0.4 ; nozzle diameter check
M115 U3.12.2 ; tell printer latest fw version
G90 ; use absolute coordinates
M83 ; extruder relative mode
M104 S230 ; set extruder temp
M140 S85 ; set bed temp
M190 S85 ; wait for bed temp
M109 S230 ; wait for extruder temp
G28 W ; home all without mesh bed level
G80 ; mesh bed leveling

G1 Z0.2 F720
G1 Y-3 F1000 ; go outside print area
G92 E0
G1 X60 E9 F1000 ; intro line
G1 X100 E12.5 F1000 ; intro line

G92 E0
M221 S95

; Don't change E values below. Excessive value can damage the printer.

M907 E538 ; set extruder motor current
G21 ; set units to millimeters
G90 ; use absolute coordinates
M83 ; use relative distances for extrusion

M900 K0.08 ; Filament gcode LA 1.5
M900 K45 ; Filament gcode LA 1.0




M107
;LAYER_CHANGE
;Z:0.2
;HEIGHT:0.2
G1 E-1 F2100
G1 Z.4 F720
G1 X67.223 Y64.971 F10800
G1 Z.2 F720
G1 E1 F2100
M204 S800
;TYPE:Skirt/Brim
;WIDTH:0.42
G1 F1200
G1 X69.649 Y62.545 E.11833
G1 X70.688 Y61.937 E.04152
G1 X75.626 Y60.555 E.17685
G1 X101.607 Y54.904 E.91703
G1 X144.272 Y52.64 E1.47357
G1 X145.066 Y52.732 E.02757
G1 X147.457 Y53.456 E.08616
G1 X187.191 Y71.32 E1.50255
G1 X188.007 Y71.918 E.03489
G1 X188.7 Y73.463 E.0584
G1 X190.26 Y100.755 E.94283
G1 X190.264 Y111.439 E.36849
G1 X189.771 Y112.888 E.05279
G1 X189.582 Y113.133 E.01067
G1 X188.475 Y113.931 E.04707
G1 X187.698 Y114.061 E.02717
G1 X70.575 Y114.061 E4.03954
G1 X68.894 Y113.365 E.06275
G1 X68.784 Y113.254 E.00539
G1 X68.091 Y111.709 E.0584
G1 X66.531 Y84.417 E.94283
M73 P0 R100
G1 X66.527 Y66.652 E.61271
G1 X67.2 Y65.026 E.06069
M204 S1000
;WIPE_START
G1 F8640
G1 X67.223 Y64.971 E-.01377
G1 X69.649 Y62.545 E-.7922
G1 X70.374 Y62.12 E-.19403
;WIPE_END
G1 Z.4 F720
G1 X71.745 Y66.909 F10800
G1 Z.2 F720
G1 E1 F2100
M204 S800
G1 F1200
G1 X72.417 Y65.908 E.04158
G1 X74.299 Y64.093 E.09018
G1 X75.144 Y63.598 E.03378
G1 X76.112 Y63.27 E.03525
G1 X97.229 Y63.174 E.72833
G1 X97.243 Y62.667 E.01749
G1 X97.609 Y61.204 E.05201
G1 X98.428 Y59.888 E.05346
M73 Q0 S102
G1 X99.81 Y58.562 E.06606
G1 X100.729 Y58.006 E.03705
G1 X101.729 Y57.668 E.03641
G1 X105.858 Y57.363 E.1428
G1 X106.957 Y57.401 E.03793
G1 X108.045 Y57.605 E.03818
G1 X109.197 Y58.121 E.04354
G1 X110.346 Y59.12 E.05251
G1 X111.022 Y60.226 E.04471
G1 X112.196 Y60.537 E.04189
G1 X113.335 Y61.209 E.04561
G1 X115.325 Y63.164 E.09621
G1 X130.754 Y63.164 E.53214
G1 X132.527 Y61.391 E.08648
G1 X133.435 Y60.748 E.03837
G1 X135.031 Y60.218 E.058
G1 X135.413 Y60.191 E.01321
G1 X135.496 Y59.91 E.01011
G1 X136.178 Y58.694 E.04809
G1 X138.618 Y56.336 E.11703
G1 X139.491 Y55.894 E.03375
G1 X140.455 Y55.627 E.0345
G1 X144.532 Y55.412 E.14081
G1 X146.685 Y56.204 E.07912
G1 X147.647 Y57.001 E.04309
G1 X148.788 Y58.173 E.05641
G1 X149.458 Y59.286 E.04481
G1 X149.811 Y60.558 E.04553
G1 X149.843 Y61.947 E.04792
G1 X149.66 Y63.168 E.04258
G1 X153.722 Y63.172 E.1401
G1 X155.154 Y63.52 E.05083
G1 X156.464 Y64.314 E.05283
G1 X159.631 Y67.47 E.15421
G1 X160.404 Y68.653 E.04874
G1 X160.814 Y70.04 E.04988
G1 X160.844 Y72.17 E.07347
G1 X179.792 Y72.2 E.65351
G1 X181.174 Y72.593 E.04955
G1 X182.277 Y73.28 E.04482
G1 X183.146 Y74.229 E.04438
G1 X183.68 Y75.235 E.03928
G1 X183.96 Y76.311 E.03835
G1 X183.995 Y79.332 E.1042
G1 X183.795 Y80.389 E.0371
G1 X183.292 Y81.512 E.04244
G1 X181.951 Y82.911 E.06684
G1 X181.69 Y83.099 E.01109
G1 X180.591 Y83.583 E.04142
G1 X179.458 Y83.791 E.03973
G1 X148.606 Y83.791 E1.06408
G1 X149.193 Y84.279 E.02633
G1 X150.295 Y85.396 E.05412
G1 X151.039 Y86.626 E.04958
G1 X151.385 Y87.942 E.04693
G1 X151.404 Y89.24 E.04477
G1 X151.221 Y90.46 E.04255
G1 X155.371 Y90.474 E.14313
G1 X156.714 Y90.812 E.04776
G1 X158.024 Y91.606 E.05283
G1 X161.192 Y94.763 E.15425
G1 X161.917 Y95.844 E.04489
G1 X162.39 Y97.436 E.05728
G1 X162.404 Y99.462 E.06988
G1 X181.354 Y99.492 E.65358
G1 X182.641 Y99.844 E.04602
G1 X183.757 Y100.506 E.04475
G1 X184.679 Y101.483 E.04633
G1 X185.256 Y102.568 E.04238
G1 X185.521 Y103.603 E.03685
G1 X185.555 Y106.624 E.1042
G1 X185.356 Y107.682 E.03713
G1 X184.926 Y108.693 E.03789
G1 X183.46 Y110.248 E.07371
G1 X182.236 Y110.849 E.04703
G1 X181.019 Y111.083 E.04274
G1 X77.301 Y111.083 E3.57721
G1 X75.914 Y110.777 E.04899
G1 X74.679 Y110.097 E.04862
G1 X73.692 Y109.085 E.04876
G1 X73.03 Y107.786 E.05028
G1 X72.787 Y106.517 E.04456
G1 X72.874 Y95.453 E.38161
G1 X73.305 Y94.202 E.04564
G1 X73.978 Y93.2 E.04163
G1 X75.79 Y91.438 E.08717
G1 X76.705 Y90.89 E.03679
G1 X77.673 Y90.563 E.03524
G1 X98.79 Y90.466 E.72833
G1 X98.803 Y89.959 E.01749
G1 X99.17 Y88.496 E.05202
G1 X99.988 Y87.18 E.05344
G1 X101.371 Y85.854 E.06608
G1 X102.289 Y85.298 E.03702
G1 X103.29 Y84.96 E.03644
G1 X107.438 Y84.655 E.14345
G1 X108.546 Y84.696 E.03824
G1 X109.605 Y84.897 E.03718
G1 X110.757 Y85.413 E.04354
G1 X111.907 Y86.412 E.05254
G1 X112.582 Y87.518 E.04469
G1 X113.757 Y87.829 E.04192
G1 X114.895 Y88.501 E.04558
G1 X116.886 Y90.456 E.09624
G1 X132.315 Y90.456 E.53214
G1 X134.088 Y88.683 E.08648
G1 X134.996 Y88.04 E.03837
G1 X136.592 Y87.51 E.058
G1 X136.974 Y87.483 E.01321
G1 X137.056 Y87.202 E.0101
G1 X137.738 Y85.986 E.04809
G1 X139.988 Y83.791 E.10841
G1 X75.74 Y83.791 E2.2159
G1 X74.404 Y83.504 E.04713
G1 X73.118 Y82.805 E.05048
G1 X72.131 Y81.793 E.04876
G1 X71.469 Y80.494 E.05028
G1 X71.227 Y79.225 E.04456
G1 X71.336 Y68.035 E.38596
G1 X71.724 Y66.966 E.03922
M204 S1000
G1 X71.724 Y66.966 F10800
G1 X72.079 Y67.094
M204 S800
G1 F1200
G1 X72.091 Y67.06 E.00124
G1 X72.718 Y66.136 E.03851
G1 X74.51 Y64.406 E.08591
G1 X75.287 Y63.947 E.03113
G1 X76.146 Y63.647 E.03138
G1 X97.604 Y63.549 E.74009
G1 X97.614 Y62.733 E.02815
G1 X97.946 Y61.376 E.04818
G1 X98.707 Y60.142 E.05
G1 X100.025 Y58.872 E.06313
G1 X100.87 Y58.356 E.03415
G1 X101.825 Y58.034 E.03476
G1 X105.874 Y57.74 E.14002
G1 X106.929 Y57.777 E.03641
G1 X107.952 Y57.971 E.03591
G1 X109.015 Y58.453 E.04026
G1 X110.077 Y59.385 E.04873
G1 X110.616 Y60.224 E.03439
G1 X110.731 Y60.541 E.01163
G1 X112.028 Y60.876 E.0462
G1 X113.123 Y61.522 E.04385
G1 X115.17 Y63.541 E.09916
G1 X130.91 Y63.541 E.54287
G1 X132.782 Y61.669 E.09131
G1 X133.629 Y61.072 E.03574
G1 X135.121 Y60.585 E.05413
G1 X135.713 Y60.559 E.02044
G1 X135.839 Y60.068 E.01748
G1 X136.461 Y58.944 E.04431
G1 X138.815 Y56.66 E.11312
G1 X139.644 Y56.239 E.03207
G1 X140.533 Y55.996 E.03179
G1 X142.632 Y55.925 E.07244
G1 X143.662 Y55.786 E.03585
G1 X144.498 Y55.789 E.02883
G1 X146.469 Y56.515 E.07244
G1 X147.384 Y57.272 E.04096
G1 X148.477 Y58.387 E.05385
G1 X149.122 Y59.458 E.04312
G1 X149.441 Y60.633 E.04199
G1 X149.466 Y61.938 E.04502
G1 X149.286 Y63.114 E.04103
G1 X149.122 Y63.545 E.0159
G1 X153.7 Y63.549 E.15789
G1 X154.985 Y63.859 E.04559
G1 X156.214 Y64.597 E.04944
G1 X159.352 Y67.724 E.15279
G1 X160.05 Y68.787 E.04386
G1 X160.445 Y70.121 E.04798
G1 X160.47 Y72.546 E.08364
G1 X179.766 Y72.577 E.66551
G1 X180.999 Y72.928 E.04422
G1 X182.018 Y73.555 E.04127
G1 X182.826 Y74.429 E.04105
G1 X183.321 Y75.354 E.03618
G1 X183.584 Y76.34 E.0352
G1 X183.617 Y79.317 E.10268
G1 X183.429 Y80.297 E.03442
G1 X182.996 Y81.275 E.03689
G1 X181.69 Y82.638 E.06511
G1 X180.499 Y83.217 E.04567
G1 X179.441 Y83.414 E.03712
G1 X147.904 Y83.414 E1.0877
G1 X147.834 Y83.701 E.01019
G1 X148.931 Y84.551 E.04786
G1 X150.011 Y85.645 E.05302
G1 X150.682 Y86.75 E.04459
G1 X151.008 Y87.971 E.04359
G1 X151.026 Y89.229 E.04339
G1 X150.847 Y90.406 E.04106
G1 X150.683 Y90.837 E.0159
G1 X155.304 Y90.846 E.15938
G1 X156.545 Y91.151 E.04408
G1 X157.775 Y91.889 E.04947
G1 X160.913 Y95.017 E.15281
G1 X161.587 Y96.029 E.04194
G1 X162.013 Y97.466 E.05169
G1 X162.03 Y99.838 E.08181
G1 X181.327 Y99.869 E.66555
G1 X182.514 Y100.2 E.0425
M73 P1 R100
G1 X183.539 Y100.815 E.04123
G1 X184.386 Y101.721 E.04278
G1 X184.897 Y102.685 E.03763
G1 X185.144 Y103.631 E.03372
G1 X185.178 Y106.609 E.10272
G1 X184.989 Y107.59 E.03446
M73 Q1 S102
G1 X184.593 Y108.513 E.03464
G1 X183.227 Y109.951 E.06841
G1 X182.101 Y110.496 E.04315
G1 X181.001 Y110.706 E.03862
G1 X77.321 Y110.706 E3.57589
G1 X76.072 Y110.433 E.04409
G1 X74.886 Y109.781 E.04668
G1 X73.984 Y108.845 E.04483
G1 X73.379 Y107.641 E.04647
G1 X73.165 Y106.502 E.03997
G1 X73.25 Y95.488 E.37988
G1 X73.652 Y94.352 E.04156
G1 X74.279 Y93.428 E.03851
G1 X76.037 Y91.725 E.08442
G1 X76.848 Y91.239 E.03261
G1 X77.707 Y90.94 E.03137
G1 X99.165 Y90.841 E.74009
G1 X99.175 Y90.026 E.02811
G1 X99.507 Y88.668 E.04822
G1 X100.267 Y87.434 E.04998
G1 X101.585 Y86.164 E.06313
G1 X102.43 Y85.648 E.03415
G1 X103.385 Y85.326 E.03476
G1 X107.435 Y85.032 E.14005
G1 X108.49 Y85.069 E.03641
G1 X109.513 Y85.264 E.03592
G1 X110.576 Y85.745 E.04024
G1 X111.637 Y86.677 E.04871
G1 X112.176 Y87.516 E.03439
G1 X112.292 Y87.834 E.01167
G1 X113.589 Y88.168 E.04619
G1 X114.684 Y88.814 E.04385
G1 X116.731 Y90.833 E.09916
G1 X132.471 Y90.833 E.54287
G1 X134.343 Y88.961 E.09131
G1 X135.19 Y88.365 E.03572
G1 X136.682 Y87.877 E.05414
G1 X137.273 Y87.851 E.0204
G1 X137.4 Y87.36 E.01749
G1 X138.021 Y86.236 E.04429
G1 X140.331 Y83.983 E.11129
G1 X140.862 Y83.699 E.02077
G1 X140.791 Y83.414 E.01013
G1 X75.761 Y83.414 E2.24287
G1 X74.511 Y83.141 E.04413
G1 X73.326 Y82.489 E.04665
G1 X72.423 Y81.553 E.04486
G1 X71.819 Y80.349 E.04646
G1 X71.604 Y79.21 E.03998
G1 X71.701 Y68.133 E.38206
G1 X72.058 Y67.151 E.03604
M204 S1000
;WIPE_START
G1 F8640
G1 X72.079 Y67.094 E-.01403
G1 X72.091 Y67.06 E-.00833
G1 X72.718 Y66.136 E-.25784
G1 X74.51 Y64.406 E-.57514
G1 X75.049 Y64.088 E-.14466
;WIPE_END
G1 Z.4 F720
G1 X77.742 Y91.316 F10800
G1 Z.2 F720
G1 E1 F2100
M204 S800
G1 F1200
G1 X99.541 Y91.217 E.75185
G1 X99.547 Y90.09 E.03887
G1 X99.845 Y88.838 E.04439
G1 X100.547 Y87.688 E.04647
G1 X101.8 Y86.475 E.06015
G1 X102.608 Y85.981 E.03266
G1 X103.479 Y85.692 E.03165
G1 X107.432 Y85.41 E.13668
G1 X108.434 Y85.443 E.03458
G1 X109.419 Y85.63 E.03458
G1 X110.393 Y86.076 E.03695
G1 X111.334 Y86.903 E.04321
G1 X111.845 Y87.699 E.03262
G1 X112.022 Y88.218 E.01891
G1 X113.467 Y88.526 E.05096
G1 X114.47 Y89.126 E.04031
G1 X116.575 Y91.21 E.10216
G1 X132.627 Y91.21 E.55363
G1 X134.598 Y89.24 E.09611
G1 X135.382 Y88.69 E.03303
G1 X136.77 Y88.245 E.05027
G1 X137.575 Y88.221 E.02778
G1 X137.744 Y87.517 E.02497
G1 X138.305 Y86.486 E.04048
G1 X140.573 Y84.274 E.10927
G1 X141.323 Y83.89 E.02906
G1 X142.171 Y83.658 E.03032
G1 X146.024 Y83.458 E.13307
G1 X147.815 Y84.118 E.06583
G1 X148.684 Y84.836 E.03888
G1 X149.727 Y85.895 E.05126
G1 X150.325 Y86.875 E.0396
G1 X150.632 Y88.002 E.04029
G1 X150.651 Y89.188 E.04091
G1 X150.478 Y90.324 E.03963
G1 X150.114 Y91.213 E.03313
G1 X155.238 Y91.218 E.17673
G1 X156.378 Y91.49 E.04042
M73 P1 R99
G1 X157.525 Y92.173 E.04604
G1 X160.633 Y95.27 E.15133
G1 X161.257 Y96.214 E.03903
G1 X161.636 Y97.495 E.04607
G1 X161.602 Y100.215 E.09382
G1 X181.3 Y100.246 E.67938
G1 X182.386 Y100.556 E.03895
G1 X183.32 Y101.123 E.03768
G1 X184.092 Y101.959 E.03925
G1 X184.539 Y102.803 E.03294
G1 X184.767 Y103.66 E.03059
G1 X184.801 Y106.594 E.1012
G1 X184.624 Y107.497 E.03174
G1 X184.261 Y108.331 E.03137
G1 X182.905 Y109.72 E.06695
G1 X181.967 Y110.143 E.03549
G1 X180.983 Y110.329 E.03454
G1 X77.342 Y110.329 E3.57455
G1 X76.181 Y110.071 E.04102
M73 Q1 S101
G1 X75.096 Y109.466 E.04285
G1 X74.277 Y108.607 E.04093
G1 X73.729 Y107.498 E.04266
G1 X73.542 Y106.487 E.03546
G1 X73.627 Y95.524 E.37812
G1 X73.998 Y94.504 E.03743
G1 X74.579 Y93.658 E.0354
G1 X76.283 Y92.011 E.08174
G1 X76.994 Y91.587 E.02855
G1 X77.686 Y91.337 E.02538
M204 S1000
G1 X77.686 Y91.337 F10800
G1 X77.814 Y91.691
M204 S800
G1 F1200
G1 X77.84 Y91.682 E.00095
G1 X99.919 Y91.592 E.76151
G1 X99.919 Y90.153 E.04963
G1 X100.183 Y89.007 E.04056
G1 X100.828 Y87.941 E.04297
G1 X102.016 Y86.785 E.05717
G1 X102.748 Y86.332 E.02969
G1 X103.573 Y86.058 E.02998
G1 X105.397 Y85.98 E.06297
G1 X107.431 Y85.787 E.07047
G1 X108.378 Y85.816 E.03268
G1 X109.326 Y85.996 E.03328
G1 X110.209 Y86.406 E.03358
G1 X111.031 Y87.129 E.03776
G1 X111.514 Y87.881 E.03083
G1 X111.744 Y88.59 E.02571
G1 X112.264 Y88.605 E.01794
G1 X113.346 Y88.884 E.03854
G1 X114.255 Y89.436 E.03668
G1 X116.42 Y91.587 E.10526
G1 X132.783 Y91.587 E.56436
G1 X134.852 Y89.518 E.10092
G1 X135.573 Y89.016 E.0303
G1 X136.855 Y88.613 E.04635
G1 X137.878 Y88.595 E.03529
G1 X138.089 Y87.671 E.03269
G1 X138.59 Y86.734 E.03665
G1 X140.77 Y84.597 E.10529
G1 X141.477 Y84.235 E.02739
G1 X142.247 Y84.028 E.0275
G1 X144.264 Y83.969 E.0696
G1 X145.247 Y83.832 E.03423
G1 X145.99 Y83.835 E.02563
G1 X147.599 Y84.429 E.05915
G1 X148.422 Y85.107 E.03678
G1 X149.443 Y86.143 E.05017
G1 X149.988 Y87.046 E.03638
G1 X150.261 Y88.075 E.03672
G1 X150.274 Y89.176 E.03798
G1 X150.109 Y90.243 E.03724
G1 X149.749 Y91.103 E.03216
G1 X149.382 Y91.59 E.02103
G1 X155.215 Y91.595 E.20118
G1 X156.261 Y91.849 E.03712
G1 X157.275 Y92.456 E.04076
G1 X160.354 Y95.524 E.14991
G1 X160.904 Y96.348 E.03417
G1 X161.267 Y97.576 E.04417
G1 X161.276 Y99.899 E.08012
G1 X161.089 Y100.591 E.02472
G1 X181.272 Y100.623 E.69611
G1 X182.255 Y100.91 E.03532
G1 X183.1 Y101.43 E.03422
G1 X183.771 Y102.158 E.03415
G1 X184.181 Y102.924 E.02997
G1 X184.391 Y103.689 E.02736
G1 X184.427 Y106.542 E.09841
G1 X184.269 Y107.366 E.02894
G1 X183.929 Y108.149 E.02944
G1 X182.706 Y109.4 E.06034
G1 X181.874 Y109.777 E.0315
G1 X180.965 Y109.952 E.03193
G1 X77.364 Y109.952 E3.57317
G1 X76.292 Y109.71 E.0379
G1 X75.307 Y109.153 E.03903
G1 X74.572 Y108.37 E.03704
G1 X74.08 Y107.357 E.03884
G1 X73.919 Y106.472 E.03102
G1 X73.993 Y95.62 E.37429
G1 X74.323 Y94.696 E.03384
G1 X74.855 Y93.915 E.03259
G1 X76.496 Y92.323 E.07886
G1 X77.14 Y91.935 E.02593
G1 X77.758 Y91.712 E.02266
M204 S1000
G1 X77.758 Y91.712 F10800
G1 X77.886 Y92.066
M204 S800
G1 F1200
G1 X77.938 Y92.048 E.0019
G1 X100.296 Y91.968 E.77113
G1 X100.296 Y90.174 E.06187
G1 X100.523 Y89.174 E.03537
G1 X101.109 Y88.193 E.03941
G1 X102.232 Y87.094 E.05419
G1 X102.927 Y86.665 E.02817
G1 X103.664 Y86.425 E.02673
G1 X105.429 Y86.356 E.06092
G1 X107.429 Y86.164 E.0693
G1 X108.351 Y86.192 E.03181
G1 X109.231 Y86.361 E.03091
G1 X110.024 Y86.735 E.03024
G1 X110.728 Y87.355 E.03235
G1 X111.183 Y88.063 E.02903
G1 X111.465 Y88.964 E.03256
G1 X112.193 Y88.976 E.02511
G1 X113.223 Y89.242 E.03669
G1 X114.037 Y89.745 E.033
G1 X116.264 Y91.964 E.10843
G1 X132.94 Y91.964 E.57515
G1 X135.107 Y89.797 E.1057
G1 X135.763 Y89.343 E.02752
G1 X136.939 Y88.982 E.04243
G1 X138.249 Y88.969 E.04518
G1 X138.434 Y87.825 E.03997
G1 X138.909 Y86.938 E.0347
G1 X140.968 Y84.919 E.09946
G1 X141.63 Y84.58 E.02565
G1 X142.32 Y84.398 E.02461
G1 X145.955 Y84.211 E.12554
G1 X147.384 Y84.74 E.05255
G1 X148.16 Y85.379 E.03467
G1 X149.158 Y86.392 E.04905
G1 X149.651 Y87.216 E.03312
G1 X149.884 Y88.103 E.03163
G1 X149.899 Y89.136 E.03563
G1 X149.752 Y90.119 E.03428
G1 X149.412 Y90.931 E.03036
G1 X148.584 Y91.966 E.04571
G1 X155.191 Y91.972 E.22787
G1 X156.142 Y92.208 E.03379
G1 X157.025 Y92.74 E.03555
G1 X160.075 Y95.779 E.1485
G1 X160.55 Y96.483 E.02929
G1 X160.898 Y97.656 E.0422
G1 X160.899 Y99.871 E.07639
G1 X160.585 Y100.967 E.03932
G1 X181.243 Y101 E.71249
G1 X182.121 Y101.264 E.03162
G1 X182.878 Y101.736 E.03077
G1 X183.475 Y102.393 E.03062
