; generated by SuperSlicer 2.4 on 2024-04-26 at 15:03:20 UTC


;
;

;
;
; TODO: check the size of the extruder and the y-bar clearance. Optimize & test supports.

; external perimeters extrusion width = 0.42mm
; perimeters extrusion width = 0.46mm
; infill extrusion width = 0.44mm
; solid infill extrusion width = 0.46mm
; top infill extrusion width = 0.44mm
; first layer extrusion width = 0.56mm

; object:{"name":"rsp500cover1","id":"rsp500cover1.stl id:0 copy 0","object_center":[60.000000,60.000000,0.000000],"boundingbox_center":[60.000000,60.000000,4.000000],"boundingbox_size":[50.000000,46.500000,8.000000]}
; plater:{"center":[60.000000,60.000000,0.000000],"boundingbox_center":[60.000000,60.000000,4.000000],"boundingbox_size":[50.000000,46.500000,8.000000]}

;TYPE:Custom
; M190 S0
; M109 S0 ; uncomment to remove set&wait temp gcode added automatically after this start gcode
print_start EXTRUDER=250 BED=110 CHAMBER=50
M107
G21 ; set units to millimeters
G90 ; use absolute coordinates
M83 ; use relative distances for extrusion
; Filament gcode
; Macro syntax: https://help.prusa3d.com/article/macros_1775

; Set pressure advance per-filament
;SET_PRESSURE_ADVANCE ADVANCE=0.0x

; Set pressure advance per-filament for different nozzle sizes
;SET_PRESSURE_ADVANCE ADVANCE=0.0x
;

;_TOOLCHANGE 0
M104 S250 ; set temperature
M109 S250 ; set temperature and wait for it to be reached
M190 S110 ; set bed temperature and wait for it to be reached
M107
;LAYER_CHANGE
;Z:0.2
;HEIGHT:0.2
;BEFORE_LAYER_CHANGE
;0.2


G1 Z0.2 F18000
;AFTER_LAYER_CHANGE
;0.2
G92 E0
G1 E-2 F3000
G1 Z0.6 F18000
M204 S1000
G1 X32.414 Y33.631
G1 Z0.2
G1 E2 F1800
;TYPE:Skirt
;WIDTH:0.52
G1 X31.303 Y35.073 E0.06673
G1 X30.907 Y36.85 E0.06673
G1 X30.907 Y83.15 E1.6971
G1 X31.046 Y84.219 E0.0395
G1 X31.881 Y85.836 E0.06673
G1 X33.323 Y86.947 E0.06673
G1 X35.1 Y87.343 E0.06673
G1 X84.9 Y87.343 E1.82539
G1 X85.969 Y87.204 E0.0395
G1 X87.586 Y86.369 E0.06673
G1 X88.697 Y84.927 E0.06673
G1 X89.093 Y83.15 E0.06673
G1 X89.093 Y36.85 E1.6971
G1 X88.954 Y35.781 E0.0395
G1 X88.119 Y34.164 E0.06673
G1 X86.677 Y33.053 E0.06673
G1 X84.9 Y32.657 E0.06673
G1 X35.1 Y32.657 E1.82539
G1 X34.031 Y32.796 E0.0395
G1 X32.467 Y33.603 E0.06453
G1 X32.841 Y33.917 F18000
G1 F1800
G1 X31.779 Y35.184 E0.06059
G1 X31.384 Y36.85 E0.06277
G1 X31.384 Y83.15 E1.6971
G1 X32.121 Y85.371 E0.08577
G1 X33.434 Y86.471 E0.06277
G1 X35.1 Y86.866 E0.06277
G1 X84.9 Y86.866 E1.82539
G1 X87.121 Y86.129 E0.08577
G1 X88.221 Y84.816 E0.06277
G1 X88.616 Y83.15 E0.06277
G1 X88.616 Y36.85 E1.6971
G1 X87.879 Y34.629 E0.08577
G1 X86.566 Y33.529 E0.06277
G1 X84.9 Y33.134 E0.06277
G1 X35.1 Y33.134 E1.82539
G1 X32.88 Y33.871 E0.08575
G1 X33.257 Y34.221 F18000
G1 F1800
G1 X32.255 Y35.302 E0.05403
G1 X31.861 Y36.85 E0.05854
G1 X31.861 Y83.15 E1.6971
G1 X32.381 Y84.909 E0.06723
G1 X33.552 Y85.995 E0.05854
G1 X35.1 Y86.389 E0.05854
G1 X84.9 Y86.389 E1.82539
G1 X86.659 Y85.869 E0.06723
G1 X87.745 Y84.698 E0.05854
G1 X88.139 Y83.15 E0.05854
G1 X88.139 Y36.85 E1.6971
G1 X87.619 Y35.091 E0.06723
G1 X86.448 Y34.005 E0.05854
G1 X84.9 Y33.611 E0.05854
G1 X35.1 Y33.611 E1.82539
G1 X33.341 Y34.131 E0.06723
G1 X33.298 Y34.177 E0.00231
G1 E-2 F3000
M204 S1500
G1 Z0.6 F18000
; printing object rsp500cover1.stl id:0 copy 0
; acceleration to travel
G1 X39.532 Y52.097
; decel to extrusion
M204 S1000
G1 X43.689 Y64.044
; end travel
G1 Z0.2
G1 E2 F1800
;TYPE:Internal perimeter
;WIDTH:0.56
G1 X43.382 Y64.184 E0.01337
G1 X43.043 Y64.389 E0.01572
G1 X42.73 Y64.63 E0.01572
G1 X42.446 Y64.906 E0.01572
G1 X42.196 Y65.213 E0.01572
G1 X41.982 Y65.545 E0.01572
G1 X41.807 Y65.901 E0.01572
G1 X41.674 Y66.273 E0.01572
G1 X41.584 Y66.659 E0.01572
G1 X41.539 Y67.052 E0.01572
G1 X41.539 Y67.448 E0.01572
G1 X41.584 Y67.841 E0.01572
G1 X41.674 Y68.227 E0.01572
G1 X41.807 Y68.599 E0.01572
G1 X41.982 Y68.955 E0.01572
G1 X42.196 Y69.287 E0.01572
G1 X42.446 Y69.594 E0.01572
G1 X42.73 Y69.87 E0.01572
G1 X43.043 Y70.111 E0.01572
G1 X43.382 Y70.316 E0.01572
G1 X43.742 Y70.48 E0.01572
G1 X44.119 Y70.603 E0.01572
G1 X44.507 Y70.681 E0.01572
G1 X44.901 Y70.715 E0.01572
G1 X45.297 Y70.704 E0.01572
G1 X45.688 Y70.647 E0.01572
G1 X46.071 Y70.547 E0.01572
G1 X46.44 Y70.403 E0.01572
G1 X46.79 Y70.218 E0.01572
G1 X47.117 Y69.995 E0.01572
G1 X47.416 Y69.736 E0.01572
G1 X47.683 Y69.444 E0.01573
G1 X47.916 Y69.124 E0.01572
G1 X48.111 Y68.779 E0.01572
G1 X48.265 Y68.415 E0.01572
G1 X48.376 Y68.035 E0.01572
G1 X48.444 Y67.645 E0.01572
G1 X48.466 Y67.25 E0.01572
G1 X48.444 Y66.855 E0.01572
G1 X48.376 Y66.465 E0.01572
G1 X48.265 Y66.085 E0.01572
G1 X48.111 Y65.721 E0.01572
G1 X47.916 Y65.376 E0.01572
G1 X47.683 Y65.056 E0.01572
G1 X47.416 Y64.764 E0.01572
G1 X47.117 Y64.505 E0.01572
G1 X46.79 Y64.282 E0.01572
G1 X46.44 Y64.097 E0.01572
G1 X46.071 Y63.953 E0.01572
G1 X45.688 Y63.853 E0.01572
G1 X45.297 Y63.796 E0.01572
G1 X44.901 Y63.785 E0.01572
G1 X44.507 Y63.819 E0.01572
G1 X44.119 Y63.897 E0.01572
G1 X43.743 Y64.02 E0.01569
G1 X43.903 Y64.515 F18000
G1 F1800
G1 X43.624 Y64.642 E0.0122
G1 X43.336 Y64.816 E0.01337
G1 X43.069 Y65.022 E0.01337
G1 X42.828 Y65.256 E0.01337
G1 X42.615 Y65.517 E0.01337
G1 X42.433 Y65.8 E0.01337
G1 X42.284 Y66.102 E0.01337
G1 X42.171 Y66.419 E0.01337
G1 X42.095 Y66.747 E0.01337
G1 X42.056 Y67.082 E0.01337
G1 X42.056 Y67.418 E0.01337
G1 X42.095 Y67.753 E0.01337
G1 X42.171 Y68.081 E0.01337
G1 X42.284 Y68.398 E0.01337
G1 X42.433 Y68.7 E0.01337
G1 X42.615 Y68.983 E0.01337
G1 X42.828 Y69.244 E0.01337
G1 X43.069 Y69.478 E0.01337
G1 X43.336 Y69.684 E0.01337
G1 X43.624 Y69.858 E0.01337
G1 X43.93 Y69.998 E0.01338
G1 X44.25 Y70.102 E0.01337
G1 X44.58 Y70.168 E0.01337
G1 X44.916 Y70.197 E0.01337
G1 X45.252 Y70.188 E0.01337
G1 X45.586 Y70.14 E0.01337
G1 X45.911 Y70.054 E0.01337
G1 X46.225 Y69.932 E0.01337
G1 X46.523 Y69.775 E0.01337
G1 X46.8 Y69.585 E0.01337
G1 X47.055 Y69.364 E0.01337
G1 X47.283 Y69.116 E0.01338
G1 X47.48 Y68.844 E0.01337
G1 X47.646 Y68.551 E0.01337
G1 X47.777 Y68.241 E0.01337
G1 X47.872 Y67.918 E0.01337
G1 X47.929 Y67.586 E0.01337
G1 X47.948 Y67.25 E0.01337
G1 X47.929 Y66.914 E0.01337
G1 X47.872 Y66.582 E0.01337
G1 X47.777 Y66.259 E0.01337
G1 X47.646 Y65.949 E0.01337
G1 X47.48 Y65.656 E0.01337
G1 X47.283 Y65.384 E0.01337
G1 X47.055 Y65.136 E0.01337
G1 X46.8 Y64.915 E0.01337
G1 X46.523 Y64.725 E0.01337
G1 X46.225 Y64.568 E0.01337
G1 X45.911 Y64.446 E0.01337
G1 X45.586 Y64.36 E0.01337
G1 X45.252 Y64.312 E0.01337
G1 X44.916 Y64.303 E0.01337
G1 X44.58 Y64.332 E0.01337
G1 X44.25 Y64.398 E0.01337
G1 X43.959 Y64.493 E0.01217
G1 X44.118 Y64.985 F18000
;TYPE:External perimeter
G1 F1800
G1 X43.866 Y65.1 E0.01103
G1 X43.628 Y65.244 E0.01102
G1 X43.408 Y65.413 E0.01102
G1 X43.209 Y65.607 E0.01103
G1 X43.034 Y65.821 E0.01102
G1 X42.884 Y66.055 E0.01103
G1 X42.761 Y66.304 E0.01102
G1 X42.668 Y66.565 E0.01102
G1 X42.605 Y66.836 E0.01103
G1 X42.573 Y67.111 E0.01102
G1 X42.573 Y67.389 E0.01102
G1 X42.605 Y67.664 E0.01102
G1 X42.668 Y67.935 E0.01103
G1 X42.761 Y68.196 E0.01102
G1 X42.884 Y68.445 E0.01103
G1 X43.034 Y68.679 E0.01102
G1 X43.209 Y68.893 E0.01102
G1 X43.408 Y69.087 E0.01103
G1 X43.628 Y69.256 E0.01103
G1 X43.866 Y69.4 E0.01102
G1 X44.118 Y69.515 E0.01103
G1 X44.382 Y69.601 E0.01103
G1 X44.654 Y69.656 E0.01102
G1 X44.931 Y69.68 E0.01102
G1 X45.208 Y69.672 E0.01103
G1 X45.483 Y69.632 E0.01102
G1 X45.751 Y69.562 E0.01102
G1 X46.01 Y69.461 E0.01102
G1 X46.255 Y69.331 E0.01103
G1 X46.484 Y69.175 E0.01102
G1 X46.694 Y68.993 E0.01102
G1 X46.882 Y68.789 E0.01103
G1 X47.045 Y68.564 E0.01102
G1 X47.181 Y68.322 E0.01102
G1 X47.289 Y68.067 E0.01102
G1 X47.367 Y67.801 E0.01103
G1 X47.415 Y67.527 E0.01102
G1 X47.431 Y67.25 E0.01102
G1 X47.415 Y66.973 E0.01102
G1 X47.367 Y66.699 E0.01102
G1 X47.289 Y66.433 E0.01103
G1 X47.181 Y66.178 E0.01102
G1 X47.045 Y65.936 E0.01103
G1 X46.882 Y65.711 E0.01102
G1 X46.694 Y65.507 E0.01103
G1 X46.484 Y65.325 E0.01102
G1 X46.255 Y65.169 E0.01102
G1 X46.01 Y65.039 E0.01103
G1 X45.751 Y64.938 E0.01102
G1 X45.483 Y64.868 E0.01103
G1 X45.208 Y64.828 E0.01102
G1 X44.931 Y64.82 E0.01103
G1 X44.654 Y64.844 E0.01102
G1 X44.382 Y64.899 E0.01102
G1 X44.175 Y64.967 E0.00864
;WIPE_START
M204 S1500
G1 X43.801 Y64.741 F18000
;WIPE_END
G1 E-2 F3000
G1 Z0.6 F18000
; acceleration to travel
G1 X44.426 Y57.822
; decel to extrusion
M204 S1000
G1 X44.842 Y53.21
; end travel
G1 Z0.2
G1 E2 F1800
;TYPE:Internal perimeter
G1 X44.901 Y53.215 E0.00235
G1 X45.297 Y53.204 E0.01572
G1 X45.688 Y53.147 E0.01572
G1 X46.071 Y53.047 E0.01572
G1 X46.44 Y52.903 E0.01572
G1 X46.79 Y52.718 E0.01572
G1 X47.117 Y52.495 E0.01572
G1 X47.416 Y52.236 E0.01572
G1 X47.683 Y51.944 E0.01572
G1 X47.916 Y51.624 E0.01572
G1 X48.111 Y51.279 E0.01572
G1 X48.265 Y50.915 E0.01572
G1 X48.376 Y50.535 E0.01572
G1 X48.444 Y50.145 E0.01572
G1 X48.466 Y49.75 E0.01572
G1 X48.444 Y49.355 E0.01572
G1 X48.376 Y48.965 E0.01572
G1 X48.265 Y48.585 E0.01572
G1 X48.111 Y48.221 E0.01572
G1 X47.916 Y47.876 E0.01572
G1 X47.683 Y47.556 E0.01572
G1 X47.416 Y47.264 E0.01572
G1 X47.117 Y47.005 E0.01572
G1 X46.79 Y46.782 E0.01572
G1 X46.44 Y46.597 E0.01572
G1 X46.071 Y46.453 E0.01572
G1 X45.688 Y46.353 E0.01572
G1 X45.297 Y46.296 E0.01572
G1 X44.901 Y46.285 E0.01572
G1 X44.507 Y46.319 E0.01572
G1 X44.119 Y46.397 E0.01572
G1 X43.742 Y46.52 E0.01572
G1 X43.382 Y46.684 E0.01572
G1 X43.043 Y46.889 E0.01572
G1 X42.73 Y47.13 E0.01572
G1 X42.446 Y47.406 E0.01573
G1 X42.196 Y47.713 E0.01572
G1 X41.982 Y48.045 E0.01572
G1 X41.807 Y48.401 E0.01572
G1 X41.674 Y48.773 E0.01572
G1 X41.584 Y49.159 E0.01572
G1 X41.539 Y49.552 E0.01572
G1 X41.539 Y49.948 E0.01572
G1 X41.584 Y50.341 E0.01572
G1 X41.674 Y50.727 E0.01572
G1 X41.807 Y51.099 E0.01572
G1 X41.982 Y51.455 E0.01572
G1 X42.196 Y51.787 E0.01572
G1 X42.446 Y52.094 E0.01572
G1 X42.73 Y52.37 E0.01572
G1 X43.043 Y52.611 E0.01572
G1 X43.382 Y52.816 E0.01572
G1 X43.742 Y52.98 E0.01572
G1 X44.119 Y53.103 E0.01572
G1 X44.507 Y53.181 E0.01572
G1 X44.782 Y53.205 E0.01099
G1 X44.886 Y52.695 F18000
G1 F1800
G1 X44.916 Y52.697 E0.00117
G1 X45.252 Y52.688 E0.01337
G1 X45.586 Y52.64 E0.01337
G1 X45.911 Y52.554 E0.01337
G1 X46.225 Y52.432 E0.01337
G1 X46.523 Y52.275 E0.01337
G1 X46.8 Y52.085 E0.01337
G1 X47.055 Y51.864 E0.01337
G1 X47.283 Y51.616 E0.01337
G1 X47.48 Y51.344 E0.01337
G1 X47.646 Y51.051 E0.01337
G1 X47.777 Y50.741 E0.01337
G1 X47.872 Y50.418 E0.01337
G1 X47.929 Y50.086 E0.01337
G1 X47.948 Y49.75 E0.01337
G1 X47.929 Y49.414 E0.01337
G1 X47.872 Y49.082 E0.01337
G1 X47.777 Y48.759 E0.01337
G1 X47.646 Y48.449 E0.01337
G1 X47.48 Y48.156 E0.01337
G1 X47.283 Y47.884 E0.01337
G1 X47.055 Y47.636 E0.01337
G1 X46.8 Y47.415 E0.01337
G1 X46.523 Y47.225 E0.01337
G1 X46.225 Y47.068 E0.01338
G1 X45.911 Y46.946 E0.01337
G1 X45.586 Y46.86 E0.01337
G1 X45.252 Y46.812 E0.01337
G1 X44.916 Y46.803 E0.01337
G1 X44.58 Y46.832 E0.01337
G1 X44.25 Y46.898 E0.01337
G1 X43.93 Y47.002 E0.01338
G1 X43.624 Y47.142 E0.01337
G1 X43.336 Y47.316 E0.01337
G1 X43.069 Y47.522 E0.01337
G1 X42.828 Y47.756 E0.01338
G1 X42.615 Y48.017 E0.01337
G1 X42.433 Y48.3 E0.01337
G1 X42.284 Y48.602 E0.01337
G1 X42.171 Y48.919 E0.01337
G1 X42.095 Y49.247 E0.01337
G1 X42.056 Y49.582 E0.01337
G1 X42.056 Y49.918 E0.01337
G1 X42.095 Y50.253 E0.01337
G1 X42.171 Y50.581 E0.01337
G1 X42.284 Y50.898 E0.01337
G1 X42.433 Y51.2 E0.01337
G1 X42.615 Y51.483 E0.01337
G1 X42.828 Y51.744 E0.01337
G1 X43.069 Y51.978 E0.01338
G1 X43.336 Y52.184 E0.01337
G1 X43.624 Y52.358 E0.01337
G1 X43.93 Y52.498 E0.01338
G1 X44.25 Y52.602 E0.01337
G1 X44.58 Y52.668 E0.01337
G1 X44.827 Y52.69 E0.00982
G1 X44.931 Y52.18 F18000
;TYPE:External perimeter
G1 F1800
G1 X45.208 Y52.172 E0.01103
G1 X45.483 Y52.132 E0.01102
G1 X45.751 Y52.062 E0.01103
G1 X46.01 Y51.961 E0.01102
G1 X46.255 Y51.831 E0.01103
G1 X46.484 Y51.675 E0.01102
G1 X46.694 Y51.493 E0.01102
G1 X46.882 Y51.289 E0.01103
G1 X47.045 Y51.064 E0.01102
G1 X47.181 Y50.822 E0.01102
G1 X47.289 Y50.567 E0.01102
G1 X47.367 Y50.301 E0.01103
G1 X47.415 Y50.027 E0.01102
G1 X47.431 Y49.75 E0.01102
G1 X47.415 Y49.473 E0.01102
G1 X47.367 Y49.199 E0.01102
G1 X47.289 Y48.933 E0.01103
G1 X47.181 Y48.678 E0.01102
G1 X47.045 Y48.436 E0.01102
G1 X46.882 Y48.211 E0.01102
G1 X46.694 Y48.007 E0.01103
G1 X46.484 Y47.825 E0.01103
G1 X46.255 Y47.669 E0.01102
G1 X46.01 Y47.539 E0.01103
G1 X45.751 Y47.438 E0.01103
G1 X45.483 Y47.368 E0.01102
G1 X45.208 Y47.328 E0.01102
G1 X44.931 Y47.32 E0.01103
G1 X44.654 Y47.344 E0.01103
G1 X44.382 Y47.399 E0.01102
G1 X44.118 Y47.485 E0.01103
G1 X43.866 Y47.6 E0.01103
G1 X43.628 Y47.744 E0.01102
G1 X43.408 Y47.913 E0.01103
G1 X43.209 Y48.107 E0.01103
G1 X43.034 Y48.321 E0.01102
G1 X42.884 Y48.555 E0.01102
G1 X42.761 Y48.804 E0.01103
G1 X42.668 Y49.065 E0.01102
G1 X42.605 Y49.336 E0.01103
G1 X42.573 Y49.611 E0.01102
G1 X42.573 Y49.889 E0.01102
G1 X42.605 Y50.164 E0.01102
G1 X42.668 Y50.435 E0.01103
G1 X42.761 Y50.696 E0.01102
G1 X42.884 Y50.945 E0.01103
G1 X43.034 Y51.179 E0.01102
G1 X43.209 Y51.393 E0.01102
G1 X43.408 Y51.587 E0.01103
G1 X43.628 Y51.756 E0.01102
G1 X43.866 Y51.9 E0.01102
G1 X44.118 Y52.015 E0.01103
G1 X44.382 Y52.101 E0.01103
G1 X44.654 Y52.156 E0.01102
G1 X44.871 Y52.174 E0.00864
;WIPE_START
M204 S1500
G1 X45.127 Y52.528 F18000
;WIPE_END
G1 E-2 F3000
G1 Z0.6 F18000
; acceleration to travel
G1 X39.899 Y43.91
; decel to extrusion
M204 S1000
G1 X36.414 Y38.164
; end travel
G1 Z0.2
G1 E2 F1800
;TYPE:Internal perimeter
G1 X83.586 Y38.164 E1.87402
G1 X83.586 Y81.836 E1.73498
G1 X36.414 Y81.836 E1.87402
G1 X36.414 Y38.224 E1.73259
G1 X35.897 Y37.647 F18000
G1 F1800
G1 X84.103 Y37.647 E1.91511
G1 X84.103 Y82.353 E1.77606
G1 X35.897 Y82.353 E1.91511
G1 X35.897 Y37.707 E1.77368
G1 X35.38 Y37.13 F18000
;TYPE:External perimeter
G1 F1800
G1 X84.62 Y37.13 E1.95619
G1 X84.62 Y82.87 E1.81715
G1 X35.38 Y82.87 E1.95619
G1 X35.38 Y37.19 E1.81476
;WIPE_START
M204 S1500
G1 X35.726 Y37.33 F18000
;WIPE_END
G1 E-2 F3000
G1 Z0.6 F18000
; acceleration to travel
G1 X63.706 Y37.939
; decel to extrusion
M204 S1000
G1 X82.36 Y38.345
; end travel
G1 Z0.2
G1 E2 F1800
;TYPE:Solid infill
;WIDTH:0.559257
G1 X83.183 Y39.168 E0.04617
G1 X83.183 Y39.899 E0.02901
G1 X81.851 Y38.567 E0.07473
G1 X81.119 Y38.567 E0.02901
G1 X83.183 Y40.631 E0.11576
G1 X83.183 Y41.362 E0.02901
G1 X80.388 Y38.567 E0.15679
G1 X79.657 Y38.567 E0.02901
G1 X83.183 Y42.093 E0.19782
G1 X83.183 Y42.824 E0.02901
G1 X78.926 Y38.567 E0.23885
G1 X78.194 Y38.567 E0.02901
G1 X83.183 Y43.556 E0.27988
G1 X83.183 Y44.287 E0.02901
G1 X77.463 Y38.567 E0.32091
G1 X76.732 Y38.567 E0.02901
G1 X83.183 Y45.018 E0.36194
G1 X83.183 Y45.749 E0.02901
G1 X76.001 Y38.567 E0.40297
G1 X75.269 Y38.567 E0.02901
G1 X83.183 Y46.481 E0.444
G1 X83.183 Y47.212 E0.02901
G1 X74.538 Y38.567 E0.48503
G1 X73.807 Y38.567 E0.02901
G1 X83.183 Y47.943 E0.52606
G1 X83.183 Y48.674 E0.02901
G1 X73.076 Y38.567 E0.56709
G1 X72.344 Y38.567 E0.02901
G1 X83.183 Y49.406 E0.60812
G1 X83.183 Y50.137 E0.02901
G1 X71.613 Y38.567 E0.64915
G1 X70.882 Y38.567 E0.02901
G1 X83.183 Y50.868 E0.69018
G1 X83.183 Y51.599 E0.02901
G1 X70.151 Y38.567 E0.73121
G1 X69.419 Y38.567 E0.02901
G1 X83.183 Y52.331 E0.77224
G1 X83.183 Y53.062 E0.02901
G1 X68.688 Y38.567 E0.81327
G1 X67.957 Y38.567 E0.02901
G1 X83.183 Y53.793 E0.8543
G1 X83.183 Y54.524 E0.02901
G1 X67.226 Y38.567 E0.89533
G1 X66.494 Y38.567 E0.02901
G1 X83.183 Y55.256 E0.93636
G1 X83.183 Y55.987 E0.02901
G1 X65.763 Y38.567 E0.97739
G1 X65.032 Y38.567 E0.02901
G1 X83.183 Y56.718 E1.01842
G1 X83.183 Y57.45 E0.02901
G1 X64.3 Y38.567 E1.05945
G1 X63.569 Y38.567 E0.02901
G1 X83.183 Y58.181 E1.10048
G1 X83.183 Y58.912 E0.02901
G1 X62.838 Y38.567 E1.14151
G1 X62.107 Y38.567 E0.02901
G1 X83.183 Y59.643 E1.18254
G1 X83.183 Y60.375 E0.02901
G1 X61.375 Y38.567 E1.22357
G1 X60.644 Y38.567 E0.02901
G1 X83.183 Y61.106 E1.2646
G1 X83.183 Y61.837 E0.02901
G1 X59.913 Y38.567 E1.30563
G1 X59.182 Y38.567 E0.02901
G1 X83.183 Y62.568 E1.34666
G1 X83.183 Y63.3 E0.02901
G1 X58.45 Y38.567 E1.38769
G1 X57.719 Y38.567 E0.02901
G1 X83.183 Y64.031 E1.42872
G1 X83.183 Y64.762 E0.02901
G1 X56.988 Y38.567 E1.46975
G1 X56.257 Y38.567 E0.02901
