; generated by PrusaSlicer 2.7.4+win64 on 2024-04-28 at 09:58:24 UTC


;
;
; 

; external perimeters extrusion width = 0.60mm
; perimeters extrusion width = 0.50mm
; infill extrusion width = 0.50mm
; solid infill extrusion width = 0.50mm
; top infill extrusion width = 0.45mm
; support material extrusion width = 0.38mm
; first layer extrusion width = 0.42mm

M73 P0 R250
M73 Q0 S254
M201 X1000 Y1000 Z200 E5000 ; sets maximum accelerations, mm/sec^2
M203 X200 Y200 Z12 E120 ; sets maximum feedrates, mm / sec
M204 S1250 T1250 ; sets acceleration (S) and retract acceleration (R), mm/sec^2
M205 X8.00 Y8.00 Z0.40 E4.50 ; sets the jerk limits, mm/sec
M205 S0 T0 ; sets the minimum extruding and travel feed rate, mm/sec

; printing object rsp500_cover2.stl id:0 copy 0
; stop printing object rsp500_cover2.stl id:0 copy 0

;TYPE:Custom
M862.3 P "MK3" ; printer model check
M862.1 P0.4 ; nozzle diameter check
M115 U3.12.2 ; tell printer latest fw version
G90 ; use absolute coordinates
M83 ; extruder relative mode
M104 S230 ; set extruder temp
M140 S85 ; set bed temp
M190 S85 ; wait for bed temp
M109 S230 ; wait for extruder temp
G28 W ; home all without mesh bed level
G80 ; mesh bed leveling

G1 Z0.2 F720
G1 Y-3 F1000 ; go outside print area
G92 E0
G1 X60 E9 F1000 ; intro line
G1 X100 E12.5 F1000 ; intro line

G92 E0
M221 S95

; Don't change E values below. Excessive value can damage the printer.

M907 E538 ; set extruder motor current
G21 ; set units to millimeters
G90 ; use absolute coordinates
M83 ; use relative distances for extrusion

M900 K0.08 ; Filament gcode LA 1.5
M900 K45 ; Filament gcode LA 1.0




M107
;LAYER_CHANGE
;Z:0.2
;HEIGHT:0.2
G1 E-1 F2100
G1 Z.4 F720
G1 X53.407 Y74.419 F10800
G1 Z.2 F720
G1 E1 F2100
M204 S800
;TYPE:Skirt/Brim
;WIDTH:0.42
G1 F1200
G1 X55.088 Y73.723 E.06275
G1 X194.912 Y73.723 E4.82249
G1 X196.593 Y74.419 E.06275
G1 X199.581 Y77.407 E.14574
G1 X200.277 Y79.088 E.06275
G1 X200.277 Y130.912 E1.7874
G1 X199.581 Y132.593 E.06275
G1 X196.593 Y135.581 E.14574
G1 X194.912 Y136.277 E.06275
G1 X55.088 Y136.277 E4.82249
G1 X53.407 Y135.581 E.06275
G1 X50.419 Y132.593 E.14574
G1 X49.723 Y130.912 E.06275
G1 X49.723 Y79.088 E1.7874
G1 X50.419 Y77.407 E.06275
M73 Q0 S253
G1 X53.364 Y74.462 E.14364
M204 S1000
;WIPE_START
G1 F8640
G1 X53.407 Y74.419 E-.01404
G1 X55.088 Y73.723 E-.4201
G1 X57.539 Y73.723 E-.56586
;WIPE_END
G1 Z.4 F720
G1 X54.826 Y77.055 F10800
G1 Z.2 F720
G1 E1 F2100
M204 S800
G1 F1200
G1 X55.45 Y76.703 E.02471
G1 X56.844 Y76.387 E.0493
G1 X193.189 Y76.39 E4.7025
G1 X194.209 Y76.584 E.03581
G1 X195.188 Y77 E.03669
G1 X196.312 Y77.896 E.04958
G1 X197.205 Y79.234 E.05548
G1 X197.613 Y80.779 E.05511
G1 X197.613 Y129.218 E1.67065
G1 X197.29 Y130.562 E.04767
M73 P0 R249
G1 X196.671 Y131.679 E.04405
G1 X195.749 Y132.621 E.04546
G1 X194.55 Y133.297 E.04747
G1 X193.156 Y133.613 E.0493
G1 X56.782 Y133.613 E4.7035
G1 X55.438 Y133.29 E.04767
G1 X54.321 Y132.671 E.04405
G1 X53.379 Y131.749 E.04546
G1 X52.703 Y130.55 E.04747
G1 X52.387 Y129.156 E.0493
G1 X52.387 Y80.782 E1.66841
G1 X52.71 Y79.438 E.04767
G1 X53.329 Y78.321 E.04405
G1 X54.251 Y77.379 E.04546
G1 X54.773 Y77.085 E.02066
M204 S1000
G1 X54.773 Y77.085 F10800
G1 X54.955 Y77.41
M204 S800
G1 F1200
G1 X55.609 Y77.046 E.02581
G1 X56.865 Y76.764 E.0444
G1 X193.171 Y76.767 E4.70116
G1 X194.117 Y76.95 E.03323
G1 X195.015 Y77.336 E.03371
G1 X196.053 Y78.171 E.04595
G1 X196.849 Y79.362 E.04941
G1 X197.236 Y80.804 E.05149
G1 X197.236 Y129.195 E1.66899
G1 X196.93 Y130.447 E.04445
G1 X196.355 Y131.472 E.04053
G1 X195.501 Y132.336 E.0419
G1 X194.391 Y132.954 E.04382
G1 X193.136 Y133.236 E.04436
G1 X56.805 Y133.236 E4.70202
G1 X55.553 Y132.93 E.04445
G1 X54.528 Y132.355 E.04053
G1 X53.664 Y131.501 E.0419
G1 X53.046 Y130.391 E.04382
G1 X52.764 Y129.136 E.04436
G1 X52.764 Y80.805 E1.66692
G1 X53.07 Y79.553 E.04445
G1 X53.645 Y78.528 E.04053
G1 X54.499 Y77.664 E.0419
G1 X54.902 Y77.44 E.0159
M204 S1000
G1 X54.902 Y77.44 F10800
G1 X55.081 Y77.766
M204 S800
G1 F1200
G1 X55.766 Y77.39 E.02695
G1 X56.885 Y77.141 E.03954
G1 X193.152 Y77.144 E4.69981
G1 X194.024 Y77.316 E.03065
G1 X194.84 Y77.671 E.03069
G1 X195.793 Y78.445 E.04234
G1 X196.517 Y79.543 E.04536
G1 X196.859 Y80.828 E.04586
G1 X196.859 Y129.172 E1.66737
G1 X196.57 Y130.33 E.04116
G1 X196.041 Y131.263 E.03699
G1 X195.254 Y132.05 E.03839
G1 X194.234 Y132.61 E.04013
G1 X193.115 Y132.859 E.03954
G1 X56.828 Y132.859 E4.7005
G1 X55.67 Y132.57 E.04116
G1 X54.737 Y132.041 E.03699
G1 X53.95 Y131.254 E.03839
G1 X53.39 Y130.234 E.04013
G1 X53.141 Y129.115 E.03954
G1 X53.141 Y80.828 E1.66541
G1 X53.43 Y79.67 E.04116
M73 Q0 S252
G1 X53.959 Y78.737 E.03699
G1 X54.746 Y77.95 E.03839
G1 X55.029 Y77.795 E.01113
M204 S1000
G1 X55.029 Y77.795 F10800
G1 X55.211 Y78.122
M204 S800
G1 F1200
G1 X55.877 Y77.751 E.02629
G1 X56.906 Y77.518 E.03639
G1 X193.133 Y77.521 E4.69843
G1 X193.929 Y77.681 E.028
G1 X194.664 Y78.005 E.0277
G1 X195.53 Y78.717 E.03867
G1 X196.185 Y79.723 E.0414
G1 X196.482 Y80.852 E.04026
G1 X196.482 Y129.148 E1.66572
G1 X196.211 Y130.212 E.03787
M73 P0 R248
G1 X195.755 Y131.016 E.03188
G1 X195.046 Y131.735 E.03483
G1 X194.123 Y132.249 E.03644
G1 X193.094 Y132.482 E.03639
G1 X56.852 Y132.482 E4.69895
G1 X55.788 Y132.211 E.03787
G1 X54.984 Y131.755 E.03188
G1 X54.265 Y131.046 E.03483
G1 X53.751 Y130.123 E.03644
G1 X53.518 Y129.094 E.03639
G1 X53.518 Y80.852 E1.66385
G1 X53.789 Y79.788 E.03787
G1 X54.245 Y78.984 E.03188
G1 X54.954 Y78.265 E.03483
G1 X55.159 Y78.151 E.00809
M204 S1000
G1 X55.159 Y78.151 F10800
G1 X55.337 Y78.477
M204 S800
G1 F1200
G1 X56.034 Y78.095 E.02741
G1 X56.927 Y77.895 E.03156
G1 X193.114 Y77.898 E4.69705
G1 X193.796 Y78.035 E.02399
G1 X194.487 Y78.339 E.02604
G1 X195.267 Y78.988 E.035
G1 X195.829 Y79.85 E.03549
G1 X196.105 Y80.878 E.03671
G1 X196.105 Y129.123 E1.66396
G1 X195.853 Y130.092 E.03453
G1 X195.441 Y130.805 E.0284
G1 X194.799 Y131.448 E.03134
G1 X193.966 Y131.905 E.03277
G1 X193.073 Y132.105 E.03156
G1 X56.877 Y132.105 E4.69736
G1 X55.908 Y131.853 E.03453
G1 X55.195 Y131.441 E.0284
G1 X54.552 Y130.799 E.03134
G1 X54.095 Y129.966 E.03277
G1 X53.895 Y129.073 E.03156
G1 X53.895 Y80.877 E1.66227
G1 X54.147 Y79.908 E.03453
G1 X54.559 Y79.195 E.0284
G1 X55.201 Y78.552 E.03134
G1 X55.285 Y78.506 E.0033
M204 S1000
G1 X55.285 Y78.506 F10800
G1 X55.46 Y78.832
M204 S800
G1 F1200
G1 X56.189 Y78.44 E.02855
G1 X56.947 Y78.272 E.02678
G1 X193.095 Y78.276 E4.69571
G1 X193.699 Y78.4 E.02127
G1 X194.308 Y78.672 E.023
G1 X195.001 Y79.257 E.03128
G1 X195.495 Y80.028 E.03158
G1 X195.728 Y80.902 E.0312
G1 X195.728 Y129.098 E1.66227
G1 X195.496 Y129.968 E.03105
G1 X195.129 Y130.592 E.02497
G1 X194.554 Y131.16 E.02788
G1 X193.811 Y131.56 E.0291
G1 X193.053 Y131.728 E.02678
G1 X56.902 Y131.728 E4.69581
G1 X56.032 Y131.496 E.03105
G1 X55.408 Y131.129 E.02497
G1 X54.84 Y130.554 E.02788
G1 X54.44 Y129.811 E.0291
G1 X54.272 Y129.053 E.02678
G1 X54.272 Y80.902 E1.66071
G1 X54.504 Y80.032 E.03105
M73 Q0 S251
G1 X54.871 Y79.408 E.02497
G1 X55.415 Y78.87 E.02639
M204 S1000
G1 X55.415 Y78.87 F10800
G1 X55.678 Y79.14
M204 S800
G1 F1200
G1 X55.688 Y79.13 E.00049
G1 X56.341 Y78.785 E.02547
G1 X56.967 Y78.649 E.02209
G1 X193.074 Y78.653 E4.69429
G1 X193.599 Y78.764 E.01851
M73 P1 R248
M73 Q1 S251
G1 X194.127 Y79.004 E.02
G1 X194.734 Y79.525 E.02759
G1 X195.139 Y80.156 E.02586
G1 X195.351 Y80.928 E.02761
G1 X195.351 Y129.072 E1.66047
G1 X195.14 Y129.842 E.02754
G1 X194.82 Y130.375 E.02144
G1 X194.312 Y130.87 E.02446
G1 X193.659 Y131.215 E.02547
G1 X193.033 Y131.351 E.02209
G1 X56.928 Y131.351 E4.69422
G1 X56.158 Y131.14 E.02754
M73 P1 R247
G1 X55.625 Y130.82 E.02144
G1 X55.13 Y130.312 E.02446
G1 X54.785 Y129.659 E.02547
G1 X54.649 Y129.033 E.02209
G1 X54.649 Y80.928 E1.65913
G1 X54.86 Y80.158 E.02754
G1 X55.18 Y79.625 E.02144
G1 X55.635 Y79.182 E.0219
M204 S1000
G1 X55.635 Y79.182 F10800
G1 X55.893 Y79.448
M204 S800
G1 F1200
G1 X56.45 Y79.147 E.02184
G1 X56.989 Y79.026 E.01905
G1 X193.053 Y79.03 E4.69281
G1 X193.497 Y79.127 E.01567
G1 X193.943 Y79.334 E.01696
G1 X194.466 Y79.791 E.02395
G1 X194.785 Y80.286 E.02031
G1 X194.974 Y80.955 E.02398
G1 X194.974 Y129.045 E1.65861
G1 X194.784 Y129.715 E.02402
G1 X194.537 Y130.125 E.01651
G1 X194.107 Y130.552 E.0209
G1 X193.55 Y130.853 E.02184
G1 X193.011 Y130.974 E.01905
G1 X56.955 Y130.974 E4.69253
G1 X56.285 Y130.784 E.02402
G1 X55.875 Y130.537 E.01651
G1 X55.448 Y130.107 E.0209
G1 X55.147 Y129.55 E.02184
G1 X55.026 Y129.011 E.01905
G1 X55.026 Y80.955 E1.65744
G1 X55.216 Y80.285 E.02402
G1 X55.463 Y79.875 E.01651
G1 X55.85 Y79.49 E.01883
M204 S1000
G1 X55.85 Y79.49 F10800
G1 X56.113 Y79.759
M204 S800
G1 F1200
G1 X56.135 Y79.738 E.00105
G1 X56.602 Y79.493 E.01819
G1 X57.009 Y79.403 E.01438
G1 X193.031 Y79.407 E4.69136
G1 X193.756 Y79.662 E.02651
G1 X194.196 Y80.054 E.02032
G1 X194.431 Y80.42 E.015
G1 X194.597 Y80.983 E.02024
G1 X194.597 Y129.017 E1.65668
G1 X194.431 Y129.582 E.02031
G1 X194.23 Y129.906 E.01315
G1 X193.865 Y130.262 E.01759
G1 X193.398 Y130.507 E.01819
G1 X192.991 Y130.597 E.01438
G1 X56.983 Y130.597 E4.69088
G1 X56.418 Y130.431 E.02031
G1 X56.094 Y130.23 E.01315
G1 X55.738 Y129.865 E.01759
G1 X55.493 Y129.398 E.01819
G1 X55.403 Y128.991 E.01438
G1 X55.403 Y80.983 E1.65578
G1 X55.569 Y80.418 E.02031
G1 X55.77 Y80.094 E.01315
G1 X56.07 Y79.801 E.01446
M204 S1000
G1 X56.07 Y79.801 F10800
G1 X56.331 Y80.072
M204 S800
G1 F1200
G1 X56.374 Y80.03 E.00207
G1 X57.029 Y79.78 E.02418
G1 X193.009 Y79.784 E4.68991
G1 X193.247 Y79.839 E.00842
M73 Q1 S250
G1 X193.568 Y79.991 E.01225
G1 X193.923 Y80.315 E.01658
G1 X194.22 Y81.012 E.02613
G1 X194.22 Y128.988 E1.65468
G1 X194.079 Y129.443 E.01643
G1 X193.626 Y129.97 E.02397
G1 X192.971 Y130.22 E.02418
G1 X57.012 Y130.22 E4.68919
G1 X56.557 Y130.079 E.01643
M73 P1 R246
G1 X56.03 Y129.626 E.02397
G1 X55.78 Y128.971 E.02418
G1 X55.78 Y81.012 E1.65409
G1 X56.074 Y80.319 E.02596
G1 X56.288 Y80.114 E.01022
M204 S1000
G1 X56.288 Y80.114 F10800
G1 X56.55 Y80.376
M204 S800
G1 F1200
G1 X56.573 Y80.352 E.00115
G1 X56.896 Y80.189 E.01248
G1 X192.987 Y80.161 E4.69374
G1 X193.378 Y80.318 E.01453
G1 X193.647 Y80.573 E.01278
G1 X193.843 Y81.044 E.0176
G1 X193.843 Y128.956 E1.65247
G1 X193.645 Y129.429 E.01769
G1 X193.427 Y129.648 E.01066
G1 X193.104 Y129.811 E.01248
G1 X57.044 Y129.843 E4.69267
G1 X56.571 Y129.645 E.01769
G1 X56.352 Y129.427 E.01066
G1 X56.189 Y129.104 E.01248
G1 X56.157 Y81.044 E1.65758
G1 X56.355 Y80.571 E.01769
G1 X56.507 Y80.418 E.00744
M204 S1000
G1 X56.507 Y80.418 F10800
G1 X56.742 Y80.748
M204 S800
G1 F1200
G1 X57.033 Y80.541 E.01232
G1 X192.935 Y80.534 E4.68722
G1 X193.366 Y80.825 E.01794
G1 X193.466 Y81.079 E.00941
G1 X193.466 Y128.921 E1.65006
G1 X193.366 Y129.175 E.00941
G1 X192.967 Y129.459 E.01689
G1 X57.079 Y129.466 E4.68674
G1 X56.825 Y129.366 E.00941
G1 X56.541 Y128.967 E.01689
G1 X56.534 Y81.079 E1.65164
G1 X56.634 Y80.825 E.00941
G1 X56.693 Y80.783 E.0025
M204 S1000
G1 X56.693 Y80.783 F10800
G1 X56.971 Y81.061
M204 S800
G1 F1200
G1 X57.121 Y80.911 E.00732
G1 X192.948 Y80.94 E4.68464
G1 X193.089 Y81.121 E.00791
M73 Q1 S249
G1 X193.089 Y128.879 E1.64716
G1 X192.879 Y129.089 E.01024
G1 X57.121 Y129.089 E4.68226
G1 X56.911 Y128.879 E.01024
G1 X56.911 Y81.121 E1.64716
G1 X56.929 Y81.104 E.00085
M73 P1 R245
M204 S1000
;WIPE_START
G1 F8640
G1 X56.971 Y81.061 E-.01388
G1 X57.121 Y80.911 E-.04898
G1 X61.18 Y80.912 E-.93714
;WIPE_END
G1 Z.4 F720
; printing object rsp500_cover2.stl id:0 copy 0
G1 X57.787 Y128.213 F10800
G1 Z.2 F720
G1 E1 F2100
M204 S800
;TYPE:Perimeter
;WIDTH:0.419999
G1 F1200
G1 X57.787 Y81.787 E1.60122
G1 X192.213 Y81.787 E4.63631
G1 X192.213 Y93.506 E.40418
G1 X192.213 Y128.213 E1.19703
G1 X57.847 Y128.213 E4.63424
M204 S1000
G1 X57.41 Y128.59 F10800
M204 S800
;TYPE:External perimeter
G1 F1200
G1 X57.41 Y81.41 E1.62722
G1 X192.59 Y81.41 E4.66231
G1 X192.59 Y93.506 E.41719
M73 P2 R245
M73 Q2 S249
G1 X192.59 Y128.59 E1.21004
G1 X57.47 Y128.59 E4.66024
M204 S1000
;WIPE_START
G1 F8640
G1 X57.41 Y128.59 E-.01385
G1 X57.41 Y124.319 E-.98615
;WIPE_END
G1 Z.4 F720
G1 X179.962 Y105.22 F10800
G1 Z.2 F720
G1 E1 F2100
M204 S800
;TYPE:Perimeter
G1 F1200
G1 X180.013 Y105.216 E.00176
G1 X180.532 Y105.265 E.01798
G1 X180.999 Y105.399 E.01676
G1 X181.436 Y105.612 E.01677
G1 X181.828 Y105.898 E.01674
G1 X182.166 Y106.247 E.01676
G1 X182.437 Y106.65 E.01675
G1 X182.635 Y107.094 E.01677
G1 X182.752 Y107.565 E.01674
G1 X182.786 Y108.049 E.01673
G1 X182.735 Y108.532 E.01675
G1 X182.601 Y108.999 E.01676
G1 X182.388 Y109.436 E.01677
G1 X182.102 Y109.828 E.01674
G1 X181.753 Y110.166 E.01676
G1 X181.35 Y110.437 E.01675
G1 X180.906 Y110.635 E.01677
G1 X180.435 Y110.752 E.01674
G1 X179.951 Y110.786 E.01673
G1 X179.468 Y110.735 E.01675
G1 X179.001 Y110.601 E.01676
G1 X178.564 Y110.388 E.01677
G1 X178.172 Y110.102 E.01674
G1 X177.834 Y109.753 E.01676
G1 X177.563 Y109.35 E.01675
G1 X177.365 Y108.906 E.01677
G1 X177.265 Y108.532 E.01335
G1 X177.212 Y108 E.01844
G1 X177.265 Y107.468 E.01844
G1 X177.399 Y107.001 E.01676
G1 X177.612 Y106.564 E.01677
G1 X177.898 Y106.172 E.01674
G1 X178.247 Y105.834 E.01676
G1 X178.65 Y105.563 E.01675
G1 X179.094 Y105.365 E.01677
G1 X179.565 Y105.248 E.01674
G1 X179.902 Y105.224 E.01165
M204 S1000
G1 X179.902 Y105.224 F10800
G1 X179.837 Y105.604
M204 S800
;TYPE:External perimeter
G1 F1200
G1 X179.985 Y105.592 E.00512
G1 X180.435 Y105.629 E.01557
G1 X180.84 Y105.741 E.01449
G1 X181.219 Y105.921 E.01447
G1 X181.562 Y106.164 E.0145
G1 X181.857 Y106.463 E.01449
G1 X182.095 Y106.809 E.01448
G1 X182.27 Y107.191 E.01449
G1 X182.376 Y107.598 E.01451
G1 X182.41 Y108.016 E.01446
G1 X182.371 Y108.435 E.01451
G1 X182.259 Y108.84 E.01449
G1 X182.079 Y109.219 E.01447
G1 X181.836 Y109.562 E.0145
G1 X181.537 Y109.857 E.01449
G1 X181.191 Y110.095 E.01448
G1 X180.809 Y110.27 E.01449
G1 X180.402 Y110.376 E.01451
G1 X179.984 Y110.41 E.01446
G1 X179.565 Y110.371 E.01451
G1 X179.16 Y110.259 E.01449
G1 X178.781 Y110.079 E.01447
G1 X178.438 Y109.836 E.0145
G1 X178.143 Y109.537 E.01449
G1 X177.905 Y109.191 E.01448
G1 X177.73 Y108.809 E.01449
G1 X177.629 Y108.435 E.01336
G1 X177.59 Y107.984 E.01561
G1 X177.629 Y107.565 E.01451
G1 X177.741 Y107.16 E.01449
G1 X177.921 Y106.781 E.01447
G1 X178.164 Y106.438 E.0145
G1 X178.463 Y106.143 E.01449
G1 X178.809 Y105.905 E.01448
G1 X179.191 Y105.73 E.01449
G1 X179.598 Y105.624 E.01451
G1 X179.777 Y105.609 E.0062
M204 S1000
;WIPE_START
G1 F8640
G1 X179.837 Y105.604 E-.0139
G1 X179.985 Y105.592 E-.03429
G1 X180.435 Y105.629 E-.10426
G1 X180.84 Y105.741 E-.09703
G1 X181.219 Y105.921 E-.09688
G1 X181.562 Y106.164 E-.09706
G1 X181.857 Y106.463 E-.09699
G1 X182.095 Y106.809 E-.09697
G1 X182.27 Y107.191 E-.09702
G1 X182.376 Y107.598 E-.09711
G1 X182.41 Y108.016 E-.09684
G1 X182.381 Y108.325 E-.07165
;WIPE_END
G1 Z.4 F720
G1 X170.456 Y110.613 F10800
G1 Z.2 F720
G1 E1 F2100
M204 S800
;TYPE:Perimeter
G1 F1200
G1 X170.406 Y110.635 E.00188
G1 X169.935 Y110.752 E.01674
G1 X169.451 Y110.786 E.01673
G1 X168.968 Y110.735 E.01675
G1 X168.501 Y110.601 E.01676
G1 X168.064 Y110.388 E.01677
G1 X167.672 Y110.102 E.01674
G1 X167.334 Y109.753 E.01676
G1 X167.063 Y109.35 E.01675
G1 X166.865 Y108.906 E.01677
G1 X166.748 Y108.435 E.01674
G1 X166.714 Y107.951 E.01673
G1 X166.765 Y107.468 E.01675
G1 X166.865 Y107.094 E.01335
G1 X167.087 Y106.604 E.01855
G1 X167.398 Y106.172 E.01836
G1 X167.747 Y105.834 E.01676
G1 X168.15 Y105.563 E.01675
G1 X168.594 Y105.365 E.01677
G1 X169.065 Y105.248 E.01674
G1 X169.513 Y105.216 E.01549
G1 X170.032 Y105.265 E.01798
G1 X170.499 Y105.399 E.01676
G1 X170.936 Y105.612 E.01677
G1 X171.328 Y105.898 E.01674
G1 X171.666 Y106.247 E.01676
G1 X171.937 Y106.65 E.01675
G1 X172.135 Y107.094 E.01677
G1 X172.252 Y107.565 E.01674
G1 X172.286 Y108.049 E.01673
G1 X172.235 Y108.532 E.01675
G1 X172.101 Y108.999 E.01676
G1 X171.888 Y109.436 E.01677
G1 X171.602 Y109.828 E.01674
G1 X171.253 Y110.166 E.01676
G1 X170.813 Y110.455 E.01816
G1 X170.511 Y110.588 E.01138
M204 S1000
G1 X170.511 Y110.588 F10800
G1 X170.298 Y110.273
M204 S800
;TYPE:External perimeter
G1 F1200
