; generated by PrusaSlicer 2.7.4+win64 on 2024-04-26 at 16:14:10 UTC


;
;
; 

; external perimeters extrusion width = 0.60mm
; perimeters extrusion width = 0.50mm
; infill extrusion width = 0.50mm
; solid infill extrusion width = 0.50mm
; top infill extrusion width = 0.45mm
; support material extrusion width = 0.38mm
; first layer extrusion width = 0.42mm

M73 P0 R219
M73 Q0 S222
M201 X1000 Y1000 Z200 E5000 ; sets maximum accelerations, mm/sec^2
M203 X200 Y200 Z12 E120 ; sets maximum feedrates, mm / sec
M204 S1250 T1250 ; sets acceleration (S) and retract acceleration (R), mm/sec^2
M205 X8.00 Y8.00 Z0.40 E4.50 ; sets the jerk limits, mm/sec
M205 S0 T0 ; sets the minimum extruding and travel feed rate, mm/sec

; printing object rsp500_cover2.stl id:0 copy 0
; stop printing object rsp500_cover2.stl id:0 copy 0

;TYPE:Custom
M862.3 P "MK3" ; printer model check
M862.1 P0.4 ; nozzle diameter check
M115 U3.12.2 ; tell printer latest fw version
G90 ; use absolute coordinates
M83 ; extruder relative mode
M104 S230 ; set extruder temp
M140 S85 ; set bed temp
M190 S85 ; wait for bed temp
M109 S230 ; wait for extruder temp
G28 W ; home all without mesh bed level
G80 ; mesh bed leveling

G1 Z0.2 F720
G1 Y-3 F1000 ; go outside print area
G92 E0
G1 X60 E9 F1000 ; intro line
G1 X100 E12.5 F1000 ; intro line

G92 E0
M221 S95

; Don't change E values below. Excessive value can damage the printer.

M907 E538 ; set extruder motor current
G21 ; set units to millimeters
G90 ; use absolute coordinates
M83 ; use relative distances for extrusion

M900 K0.08 ; Filament gcode LA 1.5
M900 K45 ; Filament gcode LA 1.0




M107
;LAYER_CHANGE
;Z:0.2
;HEIGHT:0.2
G1 E-1 F2100
G1 Z.4 F720
G1 X54.907 Y60.394 F10800
G1 Z.2 F720
G1 E1 F2100
M204 S800
;TYPE:Skirt/Brim
;WIDTH:0.42
G1 F1200
G1 X56.588 Y59.698 E.05705
G1 X193.408 Y59.698 E4.2899
G1 X195.089 Y60.394 E.05705
G1 X198.076 Y63.382 E.13247
G1 X198.773 Y65.063 E.05706
G1 X198.773 Y115.388 E1.57791
G1 X198.076 Y117.069 E.05706
G1 X195.089 Y120.056 E.13245
G1 X193.408 Y120.752 E.05705
G1 X56.588 Y120.752 E4.2899
G1 X54.907 Y120.056 E.05705
M73 P0 R218
G1 X51.919 Y117.069 E.13247
G1 X51.223 Y115.388 E.05705
G1 X51.223 Y65.063 E1.57791
G1 X51.919 Y63.382 E.05705
G1 X54.864 Y60.437 E.13059
M204 S1000
;WIPE_START
G1 F8640
G1 X54.907 Y60.394 E-.01404
G1 X56.588 Y59.698 E-.4201
G1 X59.039 Y59.698 E-.56586
;WIPE_END
G1 Z.4 F720
G1 X56.319 Y63.033 F10800
G1 Z.2 F720
G1 E1 F2100
M204 S800
G1 F1200
G1 X56.959 Y62.675 E.02299
G1 X58.346 Y62.362 E.04458
G1 X191.685 Y62.365 E4.18075
G1 X192.705 Y62.559 E.03255
M73 Q0 S221
G1 X193.683 Y62.975 E.03332
G1 X194.808 Y63.871 E.04509
G1 X195.701 Y65.209 E.05044
G1 X196.109 Y66.754 E.0501
G1 X196.109 Y113.693 E1.47174
G1 X195.785 Y115.039 E.04341
G1 X195.162 Y116.16 E.04021
G1 X194.234 Y117.104 E.04151
G1 X193.036 Y117.776 E.04307
G1 X191.65 Y118.089 E.04455
G1 X58.282 Y118.089 E4.18166
G1 X56.936 Y117.765 E.04341
G1 X55.815 Y117.142 E.04021
G1 X54.871 Y116.214 E.04151
G1 X54.2 Y115.016 E.04305
G1 X53.887 Y113.63 E.04455
G1 X53.887 Y66.757 E1.46967
G1 X54.211 Y65.411 E.04341
G1 X54.833 Y64.29 E.0402
G1 X55.761 Y63.346 E.04151
G1 X56.267 Y63.063 E.01818
M204 S1000
G1 X56.267 Y63.063 F10800
G1 X56.448 Y63.389
M204 S800
G1 F1200
G1 X57.118 Y63.018 E.02401
G1 X58.366 Y62.739 E.0401
G1 X191.666 Y62.743 E4.17953
G1 X192.613 Y62.926 E.03024
G1 X193.51 Y63.311 E.03061
G1 X194.549 Y64.146 E.04179
G1 X195.345 Y65.337 E.04492
G1 X195.732 Y66.779 E.04681
G1 X195.732 Y113.67 E1.47023
G1 X195.425 Y114.924 E.04048
G1 X194.847 Y115.952 E.03698
G1 X193.986 Y116.819 E.03831
G1 X192.878 Y117.432 E.0397
G1 X191.629 Y117.712 E.04013
G1 X58.305 Y117.712 E4.18028
G1 X57.051 Y117.405 E.04048
G1 X56.023 Y116.826 E.03699
G1 X55.156 Y115.966 E.03829
G1 X54.543 Y114.858 E.0397
G1 X54.264 Y113.609 E.04013
G1 X54.264 Y66.78 E1.46829
G1 X54.571 Y65.527 E.04045
G1 X55.149 Y64.498 E.03701
G1 X56.009 Y63.632 E.03827
G1 X56.395 Y63.418 E.01384
M204 S1000
G1 X56.395 Y63.418 F10800
G1 X56.574 Y63.745
M204 S800
G1 F1200
G1 X57.274 Y63.362 E.02502
G1 X58.387 Y63.116 E.03574
G1 X191.648 Y63.12 E4.17831
G1 X192.519 Y63.291 E.02783
G1 X193.336 Y63.646 E.02793
G1 X194.288 Y64.42 E.03847
G1 X195.013 Y65.518 E.04125
G1 X195.355 Y66.804 E.04172
G1 X195.355 Y113.647 E1.46873
G1 X195.066 Y114.807 E.03748
G1 X194.532 Y115.743 E.03379
G1 X193.74 Y116.532 E.03505
G1 X192.721 Y117.088 E.0364
G1 X191.609 Y117.335 E.03572
G1 X58.328 Y117.335 E4.17893
G1 X57.169 Y117.045 E.03746
M73 P0 R217
G1 X56.232 Y116.512 E.0338
G1 X55.443 Y115.72 E.03505
G1 X54.887 Y114.701 E.0364
G1 X54.641 Y113.589 E.03571
G1 X54.641 Y66.804 E1.46691
G1 X54.93 Y65.644 E.03748
G1 X55.463 Y64.708 E.03377
G1 X56.255 Y63.918 E.03507
G1 X56.521 Y63.773 E.0095
M204 S1000
G1 X56.521 Y63.773 F10800
G1 X56.703 Y64.101
M204 S800
G1 F1200
G1 X57.384 Y63.724 E.02441
G1 X58.408 Y63.493 E.03291
G1 X191.628 Y63.497 E4.17702
G1 X192.424 Y63.657 E.02546
M73 Q0 S220
G1 X193.159 Y63.98 E.02517
G1 X194.025 Y64.692 E.03515
G1 X194.68 Y65.698 E.03764
G1 X194.978 Y66.828 E.03664
G1 X194.978 Y113.623 E1.46722
G1 X194.707 Y114.689 E.03449
G1 X194.247 Y115.496 E.02912
G1 X193.533 Y116.216 E.03179
G1 X192.611 Y116.727 E.03305
G1 X191.588 Y116.958 E.03288
G1 X58.352 Y116.958 E4.17752
G1 X57.287 Y116.686 E.03446
G1 X56.48 Y116.226 E.02912
G1 X55.759 Y115.513 E.03179
G1 X55.248 Y114.591 E.03305
G1 X55.018 Y113.568 E.03288
G1 X55.018 Y66.828 E1.4655
G1 X55.289 Y65.762 E.03449
G1 X55.749 Y64.955 E.02912
G1 X56.463 Y64.234 E.03182
G1 X56.65 Y64.13 E.00671
M204 S1000
G1 X56.65 Y64.13 F10800
G1 X56.828 Y64.456
M204 S800
G1 F1200
G1 X57.541 Y64.068 E.02545
G1 X58.428 Y63.87 E.0285
G1 X191.61 Y63.874 E4.17583
G1 X192.291 Y64.01 E.02177
G1 X192.983 Y64.315 E.02371
G1 X193.762 Y64.963 E.03177
G1 X194.324 Y65.825 E.03226
G1 X194.601 Y66.853 E.03338
G1 X194.601 Y113.598 E1.46566
G1 X194.348 Y114.568 E.03143
G1 X193.933 Y115.284 E.02595
G1 X193.287 Y115.929 E.02862
G1 X192.455 Y116.383 E.02972
G1 X191.567 Y116.58 E.02852
G1 X58.377 Y116.58 E4.17608
G1 X57.407 Y116.328 E.03142
G1 X56.691 Y115.913 E.02595
G1 X56.046 Y115.267 E.02862
G1 X55.592 Y114.435 E.02972
G1 X55.395 Y113.547 E.02852
G1 X55.395 Y66.852 E1.46409
G1 X55.647 Y65.883 E.03139
G1 X56.062 Y65.166 E.02598
G1 X56.709 Y64.521 E.02864
G1 X56.775 Y64.485 E.00236
M204 S1000
G1 X56.775 Y64.485 F10800
G1 X56.953 Y64.81
M204 S800
G1 F1200
G1 X57.695 Y64.413 E.02639
G1 X58.448 Y64.247 E.02418
G1 X191.59 Y64.251 E4.17457
G1 X192.194 Y64.375 E.01933
G1 X192.804 Y64.647 E.02094
G1 X193.496 Y65.232 E.02841
G1 X193.99 Y66.003 E.02871
G1 X194.224 Y66.877 E.02837
G1 X194.224 Y113.573 E1.46412
G1 X193.991 Y114.445 E.0283
M73 P1 R217
G1 X193.622 Y115.07 E.02276
G1 X193.042 Y115.641 E.02552
G1 X192.301 Y116.038 E.02636
G1 X191.547 Y116.203 E.0242
G1 X58.402 Y116.203 E4.17467
G1 X57.531 Y115.971 E.02826
M73 P1 R216
M73 Q1 S220
G1 X56.905 Y115.602 E.02278
G1 X56.334 Y115.022 E.02552
G1 X55.937 Y114.281 E.02636
G1 X55.772 Y113.527 E.0242
G1 X55.772 Y66.877 E1.46268
G1 X56.004 Y66.006 E.02826
G1 X56.373 Y65.38 E.02278
G1 X56.91 Y64.852 E.02361
M204 S1000
G1 X56.91 Y64.852 F10800
G1 X57.172 Y65.122
M204 S800
G1 F1200
G1 X57.195 Y65.1 E.001
G1 X57.846 Y64.759 E.02304
G1 X58.468 Y64.624 E.01996
G1 X191.57 Y64.628 E4.17332
G1 X192.094 Y64.739 E.01679
M73 Q1 S219
G1 X192.622 Y64.979 E.01819
G1 X193.23 Y65.5 E.02511
G1 X193.635 Y66.131 E.02351
G1 X193.846 Y66.903 E.02509
G1 X193.846 Y113.547 E1.46249
G1 X193.635 Y114.319 E.02509
G1 X193.313 Y114.854 E.01958
G1 X192.801 Y115.35 E.02235
G1 X192.149 Y115.692 E.02308
G1 X191.527 Y115.826 E.01995
G1 X58.428 Y115.826 E4.17323
G1 X57.657 Y115.615 E.02506
G1 X57.122 Y115.292 E.01959
G1 X56.625 Y114.78 E.02237
G1 X56.284 Y114.129 E.02304
G1 X56.149 Y113.507 E.01996
G1 X56.149 Y66.903 E1.46124
G1 X56.36 Y66.132 E.02506
G1 X56.683 Y65.597 E.01959
G1 X57.129 Y65.164 E.01949
M204 S1000
G1 X57.129 Y65.164 F10800
G1 X57.389 Y65.436
M204 S800
G1 F1200
G1 X57.434 Y65.393 E.00195
G1 X57.994 Y65.106 E.01973
G1 X58.488 Y65.001 E.01584
G1 X191.549 Y65.005 E4.17203
G1 X191.992 Y65.103 E.01423
G1 X192.438 Y65.309 E.0154
G1 X192.961 Y65.766 E.02178
G1 X193.28 Y66.261 E.01846
G1 X193.469 Y66.93 E.0218
G1 X193.469 Y113.52 E1.4608
G1 X193.28 Y114.189 E.0218
G1 X193.006 Y114.634 E.01639
G1 X192.561 Y115.058 E.01927
G1 X192.001 Y115.344 E.01972
G1 X191.508 Y115.449 E.0158
G1 X58.455 Y115.449 E4.17178
G1 X57.786 Y115.26 E.0218
G1 X57.342 Y114.985 E.01638
G1 X56.917 Y114.541 E.01927
G1 X56.631 Y113.981 E.01972
G1 X56.526 Y113.488 E.0158
G1 X56.526 Y66.93 E1.45979
G1 X56.715 Y66.262 E.02177
G1 X56.99 Y65.817 E.0164
G1 X57.346 Y65.477 E.01543
M204 S1000
G1 X57.346 Y65.477 F10800
G1 X57.605 Y65.742
M204 S800
G1 F1200
G1 X57.635 Y65.713 E.00131
G1 X58.102 Y65.468 E.01654
G1 X58.509 Y65.378 E.01307
G1 X191.526 Y65.382 E4.17065
G1 X192.251 Y65.638 E.02411
G1 X192.691 Y66.03 E.01848
G1 X192.926 Y66.395 E.01361
G1 X193.092 Y66.958 E.0184
G1 X193.092 Y113.492 E1.45904
G1 X192.926 Y114.057 E.01846
G1 X192.725 Y114.381 E.01195
G1 X192.36 Y114.738 E.01601
G1 X191.894 Y114.982 E.01649
G1 X191.487 Y115.072 E.01307
G1 X58.483 Y115.072 E4.17025
G1 X57.918 Y114.906 E.01846
G1 X57.594 Y114.705 E.01195
G1 X57.238 Y114.34 E.01599
G1 X56.993 Y113.873 E.01654
G1 X56.903 Y113.466 E.01307
G1 X56.903 Y66.958 E1.45823
G1 X57.069 Y66.394 E.01843
G1 X57.27 Y66.07 E.01195
G1 X57.562 Y65.784 E.01282
M204 S1000
G1 X57.562 Y65.784 F10800
G1 X57.822 Y66.055
M204 S800
G1 F1200
G1 X57.874 Y66.006 E.00224
G1 X58.529 Y65.756 E.02198
G1 X191.505 Y65.759 E4.16937
G1 X191.743 Y65.814 E.00766
M73 P1 R215
G1 X192.063 Y65.966 E.01111
G1 X192.418 Y66.291 E.01509
G1 X192.715 Y66.988 E.02376
G1 X192.715 Y113.463 E1.45719
G1 X192.574 Y113.919 E.01497
G1 X192.121 Y114.445 E.02177
G1 X191.467 Y114.695 E.02195
G1 X58.512 Y114.695 E4.16871
G1 X58.057 Y114.554 E.01494
M73 Q1 S218
G1 X57.53 Y114.101 E.02179
G1 X57.28 Y113.447 E.02195
G1 X57.28 Y66.988 E1.45669
G1 X57.574 Y66.294 E.02363
G1 X57.779 Y66.097 E.00891
M204 S1000
G1 X57.779 Y66.097 F10800
G1 X58.041 Y66.359
M204 S800
G1 F1200
G1 X58.073 Y66.328 E.0014
G1 X58.396 Y66.164 E.01136
G1 X191.482 Y66.136 E4.17282
G1 X191.873 Y66.293 E.01321
G1 X192.142 Y66.548 E.01162
G1 X192.338 Y67.019 E.016
G1 X192.338 Y113.431 E1.45522
G1 X192.141 Y113.905 E.01609
G1 X191.922 Y114.123 E.00969
G1 X191.599 Y114.286 E.01134
G1 X58.544 Y114.318 E4.17185
G1 X58.071 Y114.12 E.01608
G1 X57.852 Y113.902 E.00969
G1 X57.689 Y113.579 E.01134
G1 X57.657 Y67.019 E1.45986
G1 X57.855 Y66.546 E.01608
G1 X57.999 Y66.402 E.00639
M204 S1000
G1 X57.999 Y66.402 F10800
G1 X58.233 Y66.73
M204 S800
G1 F1200
G1 X58.533 Y66.516 E.01155
G1 X191.43 Y66.51 E4.16689
G1 X191.862 Y66.8 E.01631
G1 X191.961 Y67.054 E.00855
G1 X191.961 Y113.396 E1.45302
G1 X191.862 Y113.65 E.00855
G1 X191.462 Y113.935 E.0154
G1 X58.579 Y113.941 E4.16645
G1 X58.325 Y113.841 E.00856
G1 X58.041 Y113.442 E.01536
G1 X58.034 Y67.054 E1.45446
G1 X58.134 Y66.8 E.00856
G1 X58.184 Y66.765 E.00191
M204 S1000
G1 X58.184 Y66.765 F10800
G1 X58.463 Y67.044
M204 S800
G1 F1200
G1 X58.621 Y66.887 E.00698
G1 X191.444 Y66.915 E4.16457
G1 X191.584 Y67.096 E.00717
M73 P1 R214
G1 X191.584 Y113.354 E1.45039
G1 X191.374 Y113.564 E.00931
G1 X58.621 Y113.564 E4.16238
G1 X58.411 Y113.354 E.00931
M73 P2 R214
M73 Q2 S217
G1 X58.411 Y67.096 E1.45039
G1 X58.421 Y67.087 E.00042
M204 S1000
;WIPE_START
G1 F8640
G1 X58.463 Y67.044 E-.01388
G1 X58.621 Y66.887 E-.05143
G1 X62.669 Y66.888 E-.93469
;WIPE_END
G1 Z.4 F720
; printing object rsp500_cover2.stl id:0 copy 0
G1 X190.708 Y67.762 F10800
G1 Z.2 F720
G1 E1 F2100
M204 S800
;TYPE:Perimeter
;WIDTH:0.419999
G1 F1200
G1 X190.708 Y76.36 E.26958
G1 X190.708 Y112.688 E1.13904
G1 X59.287 Y112.688 E4.12061
G1 X59.287 Y67.762 E1.40862
G1 X190.648 Y67.762 E4.11872
M204 S1000
G1 X190.648 Y67.762 F10800
G1 X191.085 Y67.385
M204 S800
;TYPE:External perimeter
G1 F1200
G1 X191.085 Y76.36 E.2814
G1 X191.085 Y113.065 E1.15086
G1 X58.91 Y113.065 E4.14425
G1 X58.91 Y67.385 E1.43226
G1 X191.025 Y67.385 E4.14237
M204 S1000
;WIPE_START
G1 F8640
G1 X191.085 Y67.385 E-.01385
G1 X191.085 Y71.656 E-.98615
;WIPE_END
G1 Z.4 F720
G1 X177.507 Y84.237 F10800
G1 Z.2 F720
G1 E1 F2100
M204 S800
;TYPE:Perimeter
G1 F1200
G1 X177.56 Y84.223 E.00172
G1 X178.009 Y84.192 E.01411
G1 X178.528 Y84.24 E.01634
G1 X178.995 Y84.374 E.01523
G1 X179.431 Y84.587 E.01521
G1 X179.824 Y84.873 E.01524
G1 X180.161 Y85.222 E.01521
G1 X180.433 Y85.625 E.01524
G1 X180.63 Y86.069 E.01523
G1 X180.747 Y86.54 E.01522
G1 X180.781 Y87.025 E.01524
G1 X180.73 Y87.508 E.01523
G1 X180.596 Y87.974 E.0152
G1 X180.383 Y88.411 E.01524
G1 X180.098 Y88.804 E.01522
G1 X179.748 Y89.141 E.01523
G1 X179.346 Y89.412 E.0152
G1 X178.902 Y89.61 E.01524
G1 X178.431 Y89.727 E.01522
G1 X177.946 Y89.761 E.01524
G1 X177.463 Y89.71 E.01523
G1 X176.996 Y89.576 E.01523
G1 X176.56 Y89.363 E.01521
G1 X176.167 Y89.078 E.01522
G1 X175.83 Y88.728 E.01523
G1 X175.558 Y88.325 E.01524
G1 X175.361 Y87.882 E.0152
G1 X175.243 Y87.41 E.01525
G1 X175.208 Y86.975 E.01368
G1 X175.261 Y86.443 E.01676
G1 X175.395 Y85.976 E.01523
G1 X175.608 Y85.54 E.01521
G1 X175.893 Y85.147 E.01522
G1 X176.243 Y84.81 E.01523
G1 X176.645 Y84.538 E.01522
G1 X177.089 Y84.341 E.01523
G1 X177.449 Y84.251 E.01163
M204 S1000
G1 X177.601 Y84.598 F10800
M204 S800
;TYPE:External perimeter
G1 F1200
G1 X177.98 Y84.568 E.01192
G1 X178.43 Y84.605 E.01416
G1 X178.835 Y84.716 E.01317
G1 X179.215 Y84.896 E.01318
G1 X179.557 Y85.14 E.01317
G1 X179.852 Y85.439 E.01317
G1 X180.091 Y85.784 E.01316
G1 X180.266 Y86.166 E.01317
G1 X180.372 Y86.573 E.01319
G1 X180.406 Y86.992 E.01318
G1 X180.366 Y87.41 E.01317
G1 X180.255 Y87.815 E.01317
G1 X180.074 Y88.195 E.0132
G1 X179.831 Y88.537 E.01315
G1 X179.532 Y88.832 E.01317
G1 X179.186 Y89.071 E.01319
G1 X178.804 Y89.246 E.01317
G1 X178.398 Y89.352 E.01316
G1 X177.979 Y89.385 E.01318
G1 X177.561 Y89.346 E.01316
G1 X177.156 Y89.234 E.01318
G1 X176.776 Y89.054 E.01318
G1 X176.434 Y88.811 E.01315
G1 X176.139 Y88.512 E.01317
G1 X175.9 Y88.166 E.01319
G1 X175.725 Y87.784 E.01317
G1 X175.619 Y87.378 E.01316
G1 X175.585 Y86.975 E.01268
G1 X175.625 Y86.541 E.01367
G1 X175.736 Y86.136 E.01317
G1 X175.916 Y85.756 E.01318
G1 X176.16 Y85.413 E.0132
G1 X176.459 Y85.118 E.01317
G1 X176.805 Y84.88 E.01317
G1 X177.187 Y84.705 E.01317
G1 X177.543 Y84.612 E.01154
M204 S1000
;WIPE_START
G1 F8640
G1 X177.601 Y84.598 E-.01378
G1 X177.98 Y84.568 E-.08779
G1 X178.43 Y84.605 E-.10426
G1 X178.835 Y84.716 E-.09696
G1 X179.215 Y84.896 E-.09709
G1 X179.557 Y85.14 E-.09701
G1 X179.852 Y85.439 E-.09699
G1 X180.091 Y85.784 E-.09691
G1 X180.266 Y86.166 E-.09702
G1 X180.372 Y86.573 E-.09711
G1 X180.406 Y86.992 E-.09707
G1 X180.399 Y87.07 E-.01801
;WIPE_END
G1 Z.4 F720
G1 X164.77 Y85.315 F10800
G1 Z.2 F720
G1 E1 F2100
M204 S800
;TYPE:Perimeter
G1 F1200
G1 X164.862 Y85.18 E.00512
G1 X165.243 Y84.81 E.01665
G1 X165.645 Y84.538 E.01522
G1 X166.089 Y84.341 E.01523
G1 X166.56 Y84.223 E.01522
G1 X167.009 Y84.192 E.01411
G1 X167.528 Y84.24 E.01634
G1 X167.995 Y84.374 E.01523
G1 X168.431 Y84.587 E.01521
G1 X168.824 Y84.873 E.01524
G1 X169.161 Y85.222 E.01521
G1 X169.433 Y85.625 E.01524
G1 X169.63 Y86.069 E.01523
G1 X169.747 Y86.54 E.01522
G1 X169.781 Y87.025 E.01524
G1 X169.73 Y87.508 E.01523
G1 X169.596 Y87.974 E.0152
G1 X169.383 Y88.411 E.01524
G1 X169.098 Y88.804 E.01522
G1 X168.748 Y89.141 E.01523
G1 X168.346 Y89.412 E.0152
G1 X167.902 Y89.61 E.01524
G1 X167.431 Y89.727 E.01522
G1 X166.946 Y89.761 E.01524
G1 X166.463 Y89.71 E.01523
G1 X165.996 Y89.576 E.01523
G1 X165.56 Y89.363 E.01521
G1 X165.167 Y89.078 E.01522
G1 X164.83 Y88.728 E.01523
G1 X164.558 Y88.325 E.01524
G1 X164.361 Y87.882 E.0152
G1 X164.243 Y87.41 E.01525
G1 X164.21 Y86.926 E.01521
G1 X164.261 Y86.443 E.01523
G1 X164.395 Y85.976 E.01523
G1 X164.558 Y85.625 E.01213
G1 X164.736 Y85.365 E.00988
M204 S1000
G1 X164.894 Y85.797 F10800
M204 S800
;TYPE:External perimeter
G1 F1200
G1 X164.9 Y85.784 E.00045
G1 X165.16 Y85.414 E.01418
G1 X165.459 Y85.118 E.01319
G1 X165.805 Y84.88 E.01317
G1 X166.187 Y84.705 E.01317
