; generated by PrusaSlicer 2.7.4+win64 on 2024-04-29 at 12:40:44 UTC


;
;
; 

; external perimeters extrusion width = 0.60mm
; perimeters extrusion width = 0.50mm
; infill extrusion width = 0.50mm
; solid infill extrusion width = 0.50mm
; top infill extrusion width = 0.45mm
; support material extrusion width = 0.38mm
; first layer extrusion width = 0.42mm

M73 P0 R110
M73 Q0 S114
M201 X1000 Y1000 Z200 E5000 ; sets maximum accelerations, mm/sec^2
M203 X200 Y200 Z12 E120 ; sets maximum feedrates, mm / sec
M204 S1250 T1250 ; sets acceleration (S) and retract acceleration (R), mm/sec^2
M205 X8.00 Y8.00 Z0.40 E4.50 ; sets the jerk limits, mm/sec
M205 S0 T0 ; sets the minimum extruding and travel feed rate, mm/sec

; printing object SwitchCover3.stl id:0 copy 0
; stop printing object SwitchCover3.stl id:0 copy 0

;TYPE:Custom
M862.3 P "MK3" ; printer model check
M862.1 P0.4 ; nozzle diameter check
M115 U3.12.2 ; tell printer latest fw version
G90 ; use absolute coordinates
M83 ; extruder relative mode
M104 S230 ; set extruder temp
M140 S85 ; set bed temp
M190 S85 ; wait for bed temp
M109 S230 ; wait for extruder temp
G28 W ; home all without mesh bed level
G80 ; mesh bed leveling

G1 Z0.2 F720
G1 Y-3 F1000 ; go outside print area
G92 E0
G1 X60 E9 F1000 ; intro line
G1 X100 E12.5 F1000 ; intro line

G92 E0
M221 S95

; Don't change E values below. Excessive value can damage the printer.

M907 E538 ; set extruder motor current
G21 ; set units to millimeters
G90 ; use absolute coordinates
M83 ; use relative distances for extrusion

M900 K0.08 ; Filament gcode LA 1.5
M900 K45 ; Filament gcode LA 1.0




M107
;LAYER_CHANGE
;Z:0.2
;HEIGHT:0.2
G1 E-1 F2100
G1 Z.4 F720
G1 X86.142 Y86.142 F10800
G1 Z.2 F720
G1 E1 F2100
M204 S800
;TYPE:Skirt/Brim
;WIDTH:0.42
G1 F1200
G1 X91.843 Y80.441 E.27807
G1 X92.614 Y79.926 E.03198
G1 X94.599 Y79.104 E.0741
G1 X95.509 Y78.923 E.032
G1 X147.491 Y78.923 E1.79285
G1 X148.401 Y79.104 E.032
G1 X150.386 Y79.926 E.0741
G1 X151.157 Y80.441 E.03198
G1 X166.059 Y95.343 E.72686
G1 X166.574 Y96.114 E.03198
G1 X167.396 Y98.099 E.0741
G1 X167.577 Y99.009 E.032
G1 X167.577 Y110.991 E.41326
G1 X167.396 Y111.901 E.032
G1 X166.574 Y113.886 E.0741
G1 X166.059 Y114.657 E.03198
G1 X155.666 Y125.05 E.50693
G1 X151.157 Y129.559 E.21993
G1 X150.386 Y130.074 E.03198
G1 X148.401 Y130.896 E.0741
G1 X147.491 Y131.077 E.032
G1 X95.509 Y131.077 E1.79285
G1 X94.599 Y130.896 E.032
G1 X92.614 Y130.074 E.0741
G1 X91.843 Y129.559 E.03198
G1 X83.941 Y121.657 E.38543
G1 X83.426 Y120.886 E.03198
G1 X82.604 Y118.901 E.0741
G1 X82.423 Y117.991 E.032
G1 X82.423 Y92.009 E.89611
G1 X82.604 Y91.099 E.032
G1 X83.426 Y89.114 E.0741
G1 X83.941 Y88.343 E.03198
G1 X86.1 Y86.185 E.10528
M204 S1000
;WIPE_START
G1 F8640
G1 X86.142 Y86.142 E-.01388
G1 X89.162 Y83.122 E-.98612
;WIPE_END
G1 Z.4 F720
G1 X87.983 Y88.068 F10800
G1 Z.2 F720
G1 E1 F2100
M204 S800
G1 F1200
G1 X93.159 Y82.893 E.25244
G1 X93.854 Y82.352 E.03038
G1 X96.126 Y81.586 E.08269
G1 X146.815 Y81.59 E1.74825
G1 X148.368 Y81.971 E.05515
G1 X149.746 Y82.797 E.05541
G1 X163.662 Y96.713 E.67876
G1 X164.516 Y98.1 E.05618
G1 X164.913 Y99.676 E.05605
G1 X164.913 Y110.374 E.36897
G1 X164.148 Y112.646 E.08268
G1 X163.607 Y113.341 E.03038
G1 X149.841 Y127.107 E.67145
G1 X149.146 Y127.648 E.03038
G1 X146.874 Y128.414 E.08269
G1 X96.085 Y128.399 E1.7517
G1 X94.571 Y128.002 E.05398
G1 X93.254 Y127.203 E.05313
G1 X86.393 Y120.341 E.33468
G1 X85.852 Y119.646 E.03038
G1 X85.087 Y117.374 E.08268
G1 X85.087 Y92.812 E.84714
G1 X85.196 Y91.938 E.03038
G1 X86.261 Y89.79 E.08269
G1 X87.941 Y88.11 E.08194
M204 S1000
G1 X87.941 Y88.11 F10800
G1 X88.207 Y88.377
M204 S800
G1 F1200
G1 X93.417 Y83.168 E.2541
G1 X94.06 Y82.67 E.02805
G1 X96.157 Y81.964 E.07631
G1 X146.792 Y81.967 E1.74639
G1 X148.249 Y82.33 E.05179
G1 X149.496 Y83.08 E.05019
G1 X163.38 Y96.964 E.6772
G1 X164.158 Y98.222 E.05102
G1 X164.536 Y99.7 E.05262
M73 P0 R109
G1 X164.536 Y110.344 E.36711
G1 X163.83 Y112.44 E.07628
G1 X163.332 Y113.083 E.02805
G1 X149.583 Y126.832 E.67062
G1 X148.94 Y127.33 E.02805
G1 X146.843 Y128.036 E.07631
G1 X96.109 Y128.022 E1.7498
G1 X94.742 Y127.665 E.04873
G1 X93.504 Y126.92 E.04983
G1 X86.668 Y120.083 E.33346
G1 X86.17 Y119.44 E.02805
G1 X85.464 Y117.344 E.07628
G1 X85.464 Y92.824 E.84569
G1 X85.566 Y92.017 E.02805
G1 X86.549 Y90.035 E.0763
G1 X88.165 Y88.42 E.0788
M204 S1000
G1 X88.165 Y88.42 F10800
G1 X88.432 Y88.686
M204 S800
G1 F1200
G1 X93.675 Y83.443 E.25573
G1 X94.265 Y82.988 E.0257
G1 X96.187 Y82.341 E.06994
G1 X146.769 Y82.344 E1.74456
G1 X148.08 Y82.669 E.04658
M73 Q0 S113
G1 X149.246 Y83.364 E.04682
G1 X163.097 Y97.215 E.67559
G1 X163.822 Y98.395 E.04777
G1 X164.159 Y99.723 E.04725
G1 X164.159 Y110.313 E.36525
G1 X163.512 Y112.235 E.06994
G1 X163.057 Y112.825 E.0257
G1 X149.325 Y126.557 E.66979
G1 X148.735 Y127.012 E.0257
G1 X146.813 Y127.659 E.06994
G1 X96.179 Y127.651 E1.74635
G1 X94.911 Y127.327 E.04514
G1 X93.754 Y126.636 E.04648
G1 X86.943 Y119.825 E.33221
G1 X86.488 Y119.235 E.0257
G1 X85.841 Y117.313 E.06994
G1 X85.841 Y92.836 E.84421
G1 X85.936 Y92.097 E.0257
G1 X86.838 Y90.28 E.06996
G1 X88.389 Y88.729 E.07565
M204 S1000
G1 X88.389 Y88.729 F10800
G1 X88.656 Y88.995
M204 S800
G1 F1200
G1 X93.933 Y83.719 E.25737
G1 X94.47 Y83.306 E.02337
G1 X96.218 Y82.718 E.06361
G1 X146.745 Y82.721 E1.74266
G1 X147.961 Y83.027 E.04325
G1 X148.995 Y83.646 E.04156
G1 X162.815 Y97.466 E.67408
G1 X163.464 Y98.517 E.0426
G1 X163.782 Y99.747 E.04382
G1 X163.782 Y110.282 E.36335
G1 X163.194 Y112.03 E.06361
G1 X162.781 Y112.567 E.02337
G1 X149.067 Y126.281 E.66891
G1 X148.53 Y126.694 E.02337
G1 X146.782 Y127.282 E.06361
G1 X96.204 Y127.274 E1.74442
G1 X95.032 Y126.969 E.04177
G1 X94.005 Y126.354 E.04129
G1 X87.219 Y119.567 E.33102
G1 X86.806 Y119.03 E.02337
G1 X86.218 Y117.282 E.06361
G1 X86.218 Y92.849 E.84269
G1 X86.306 Y92.177 E.02337
G1 X87.126 Y90.525 E.06361
G1 X88.613 Y89.038 E.07253
M204 S1000
G1 X88.613 Y89.038 F10800
G1 X88.88 Y89.304
M204 S800
G1 F1200
G1 X94.19 Y83.994 E.259
G1 X94.674 Y83.624 E.02101
G1 X96.248 Y83.095 E.05727
G1 X146.722 Y83.098 E1.74083
G1 X147.793 Y83.366 E.03808
G1 X148.746 Y83.93 E.03819
G1 X162.533 Y97.717 E.67247
G1 X163.128 Y98.689 E.03931
M73 P1 R109
G1 X163.405 Y99.771 E.03852
G1 X163.405 Y110.252 E.36149
G1 X162.876 Y111.826 E.05727
G1 X162.506 Y112.31 E.02101
G1 X148.81 Y126.006 E.66803
G1 X148.326 Y126.376 E.02101
M73 Q1 S113
G1 X146.751 Y126.905 E.0573
G1 X96.227 Y126.896 E1.74256
G1 X95.201 Y126.631 E.03655
G1 X94.254 Y126.07 E.03796
G1 X87.494 Y119.31 E.32972
G1 X87.124 Y118.826 E.02101
G1 X86.595 Y117.252 E.05727
G1 X86.595 Y92.861 E.84124
G1 X86.675 Y92.258 E.02098
G1 X87.414 Y90.77 E.0573
G1 X88.838 Y89.347 E.06943
M204 S1000
G1 X88.838 Y89.347 F10800
G1 X89.104 Y89.613
M204 S800
G1 F1200
G1 X94.448 Y84.27 E.26063
G1 X94.877 Y83.943 E.0186
G1 X96.279 Y83.472 E.05101
G1 X146.7 Y83.476 E1.73901
G1 X147.626 Y83.705 E.0329
G1 X148.497 Y84.214 E.03479
G1 X162.251 Y97.968 E.67086
G1 X162.77 Y98.813 E.0342
G1 X163.028 Y99.795 E.03502
G1 X163.028 Y110.221 E.35959
G1 X162.557 Y111.623 E.05101
G1 X162.23 Y112.052 E.0186
G1 X148.552 Y125.73 E.66716
G1 X148.123 Y126.057 E.0186
G1 X146.721 Y126.528 E.05101
G1 X96.251 Y126.519 E1.7407
G1 X95.368 Y126.292 E.03144
G1 X94.503 Y125.786 E.03456
G1 X87.77 Y119.052 E.32843
G1 X87.443 Y118.623 E.0186
G1 X86.972 Y117.221 E.05101
G1 X86.972 Y92.874 E.83972
G1 X87.045 Y92.339 E.01862
G1 X87.702 Y91.015 E.05098
G1 X89.062 Y89.656 E.06631
M204 S1000
G1 X89.062 Y89.656 F10800
G1 X89.328 Y89.922
M204 S800
G1 F1200
G1 X94.705 Y84.546 E.26224
G1 X95.08 Y84.262 E.01622
G1 X96.31 Y83.849 E.04475
G1 X146.677 Y83.853 E1.73714
G1 X147.462 Y84.045 E.02787
G1 X148.248 Y84.499 E.03131
G1 X161.969 Y98.22 E.66925
G1 X162.414 Y98.938 E.02913
G1 X162.651 Y99.821 E.03153
G1 X162.651 Y110.19 E.35762
G1 X162.238 Y111.42 E.04475
G1 X161.954 Y111.795 E.01622
G1 X148.295 Y125.454 E.66623
G1 X147.92 Y125.738 E.01622
G1 X146.69 Y126.151 E.04475
G1 X96.275 Y126.142 E1.7388
G1 X95.534 Y125.952 E.02638
G1 X94.752 Y125.501 E.03113
G1 X88.046 Y118.795 E.32709
G1 X87.762 Y118.42 E.01622
G1 X87.349 Y117.19 E.04475
G1 X87.349 Y92.888 E.83817
G1 X87.414 Y92.422 E.01623
G1 X87.991 Y91.26 E.04475
G1 X89.286 Y89.965 E.06316
M204 S1000
G1 X89.286 Y89.965 F10800
G1 X89.553 Y90.231
M204 S800
G1 F1200
G1 X94.962 Y84.822 E.26383
G1 X95.282 Y84.582 E.0138
M73 P1 R108
G1 X96.34 Y84.226 E.0385
G1 X146.655 Y84.23 E1.73535
G1 X147.299 Y84.387 E.02286
G1 X148 Y84.784 E.02779
G1 X161.687 Y98.471 E.66759
G1 X162.058 Y99.065 E.02415
G1 X162.274 Y99.847 E.02798
G1 X162.274 Y110.16 E.35569
G1 X161.918 Y111.218 E.0385
G1 X161.678 Y111.538 E.0138
G1 X148.038 Y125.178 E.6653
G1 X147.718 Y125.418 E.0138
G1 X146.66 Y125.774 E.0385
G1 X96.298 Y125.765 E1.73697
G1 X95.697 Y125.612 E.02139
M73 Q1 S112
G1 X95 Y125.216 E.02765
G1 X88.322 Y118.538 E.32573
G1 X88.082 Y118.218 E.0138
G1 X87.726 Y117.16 E.0385
G1 X87.726 Y92.901 E.83669
G1 X87.783 Y92.505 E.0138
G1 X88.279 Y91.505 E.0385
G1 X89.51 Y90.274 E.06004
M204 S1000
G1 X89.51 Y90.274 F10800
G1 X89.782 Y90.548
M204 S800
G1 F1200
G1 X95.483 Y84.903 E.27671
G1 X96.371 Y84.603 E.03233
G1 X146.633 Y84.607 E1.73352
G1 X147.139 Y84.729 E.01795
G1 X147.752 Y85.07 E.02419
G1 X161.406 Y98.723 E.66596
G1 X161.703 Y99.196 E.01926
G1 X161.897 Y99.874 E.02432
G1 X161.897 Y110.129 E.35369
G1 X161.597 Y111.017 E.03233
G1 X147.517 Y125.097 E.68676
G1 X146.629 Y125.397 E.03233
G1 X96.322 Y125.388 E1.73507
G1 X95.859 Y125.27 E.01648
G1 X95.248 Y124.93 E.02412
G1 X88.403 Y118.017 E.33553
G1 X88.103 Y117.129 E.03233
G1 X88.151 Y92.59 E.84635
G1 X88.568 Y91.75 E.03234
G1 X89.739 Y90.59 E.05685
M204 S1000
G1 X89.739 Y90.59 F10800
G1 X90 Y90.851
M204 S800
G1 F1200
G1 X95.474 Y85.376 E.26702
G1 X95.682 Y85.224 E.00889
G1 X96.402 Y84.98 E.02622
G1 X146.611 Y84.984 E1.73169
G1 X146.983 Y85.072 E.01318
G1 X147.506 Y85.356 E.02053
G1 X161.125 Y98.976 E.6643
G1 X161.35 Y99.329 E.01444
G1 X161.52 Y99.902 E.02061
G1 X161.52 Y110.098 E.35166
G1 X161.276 Y110.818 E.02622
G1 X147.526 Y124.624 E.67203
G1 X147.318 Y124.776 E.00889
G1 X146.598 Y125.02 E.02622
G1 X96.345 Y125.011 E1.73321
G1 X96.017 Y124.927 E.01168
G1 X95.494 Y124.644 E.02051
G1 X88.876 Y118.026 E.3228
G1 X88.724 Y117.818 E.00889
G1 X88.48 Y117.098 E.02622
G1 X88.48 Y92.931 E.83351
G1 X88.519 Y92.676 E.0089
G1 X88.856 Y91.995 E.02621
G1 X89.957 Y90.893 E.05373
M204 S1000
G1 X89.957 Y90.893 F10800
G1 X90.226 Y91.164
M204 S800
G1 F1200
G1 X95.879 Y85.546 E.27488
G1 X96.433 Y85.357 E.02019
G1 X146.589 Y85.361 E1.72987
G1 X147.26 Y85.644 E.02512
G1 X160.845 Y99.229 E.66262
G1 X161.143 Y99.932 E.02633
G1 X161.143 Y110.067 E.34955
G1 X160.954 Y110.621 E.02019
G1 X147.121 Y124.454 E.67472
G1 X146.567 Y124.643 E.02019
G1 X96.37 Y124.634 E1.73128
G1 X95.74 Y124.356 E.02375
M73 P2 R108
G1 X89.046 Y117.621 E.32751
G1 X88.857 Y117.067 E.02019
G1 X88.887 Y92.764 E.8382
G1 X89.145 Y92.239 E.02018
G1 X90.184 Y91.206 E.05053
M204 S1000
G1 X90.184 Y91.206 F10800
G1 X90.447 Y91.47
M204 S800
G1 F1200
G1 X95.984 Y85.933 E.27007
G1 X96.465 Y85.734 E.01795
G1 X146.682 Y85.765 E1.73197
G1 X147.016 Y85.933 E.01289
M73 Q2 S112
G1 X160.649 Y99.611 E.66606
G1 X160.766 Y99.964 E.01283
G1 X160.766 Y110.035 E.34735
G1 X160.63 Y110.426 E.01428
G1 X147.016 Y124.067 E.66469
G1 X146.535 Y124.266 E.01795
G1 X96.318 Y124.235 E1.73197
G1 X95.984 Y124.067 E.01289
G1 X89.433 Y117.516 E.31953
G1 X89.234 Y117.035 E.01795
G1 X89.234 Y92.964 E.8302
G1 X89.434 Y92.483 E.01797
G1 X90.405 Y91.512 E.04736
M204 S1000
G1 X90.405 Y91.512 F10800
G1 X90.672 Y91.78
M204 S800
G1 F1200
G1 X96.263 Y86.196 E.27254
G1 X96.499 Y86.111 E.00865
G1 X146.547 Y86.118 E1.72614
G1 X146.774 Y86.225 E.00866
G1 X160.286 Y99.736 E.65903
G1 X160.389 Y99.999 E.00974
G1 X160.389 Y110.001 E.34497
G1 X160.304 Y110.237 E.00865
G1 X146.737 Y123.804 E.66174
G1 X146.501 Y123.889 E.00865
G1 X96.485 Y123.889 E1.72504
G1 X96.226 Y123.775 E.00976
G1 X89.696 Y117.237 E.3187
G1 X89.611 Y117.001 E.00865
G1 X89.618 Y92.953 E.82941
G1 X89.725 Y92.726 E.00866
G1 X90.63 Y91.822 E.04412
M204 S1000
;WIPE_START
G1 F8640
G1 X90.672 Y91.78 E-.01371
G1 X93.694 Y88.762 E-.98629
;WIPE_END
G1 Z.4 F720
; printing object SwitchCover3.stl id:0 copy 0
G1 X154.772 Y102.586 F10800
G1 Z.2 F720
M73 P2 R107
G1 E1 F2100
M204 S800
;TYPE:Support material
G1 F1200
G1 X155.554 Y102.811 E.02807
G1 X156.015 Y103.101 E.01878
G1 X156.399 Y103.485 E.01873
G1 X156.689 Y103.946 E.01878
G1 X156.868 Y104.459 E.01874
G1 X156.914 Y105.272 E.02808
G1 X156.689 Y106.054 E.02807
G1 X156.399 Y106.515 E.01878
G1 X156.015 Y106.899 E.01873
G1 X155.302 Y107.293 E.0281
G1 X154.772 Y107.414 E.01875
G1 X154.228 Y107.414 E.01876
G1 X153.446 Y107.189 E.02807
G1 X152.985 Y106.899 E.01878
G1 X152.601 Y106.515 E.01873
G1 X152.311 Y106.054 E.01878
G1 X152.132 Y105.541 E.01874
G1 X152.086 Y104.728 E.02808
G1 X152.311 Y103.946 E.02807
G1 X152.601 Y103.485 E.01878
G1 X152.985 Y103.101 E.01873
G1 X153.698 Y102.707 E.0281
G1 X154.228 Y102.586 E.01875
G1 X154.716 Y102.583 E.01683
M204 S1000
G1 X154.716 Y102.583 F10800
G1 X156.423 Y106.183
M204 S800
G1 F1200
G1 X156.423 Y104.192 E.06867
G1 X156.004 Y103.553 E.02635
G1 X156.004 Y106.447 E.09981
G1 X155.585 Y106.783 E.01852
G1 X155.585 Y103.217 E.12299
G1 X155.166 Y103.021 E.01595
G1 X155.166 Y106.979 E.13651
G1 X154.747 Y107.074 E.01482
G1 X154.747 Y102.926 E.14306
G1 X154.5 Y102.911 E.00853
G1 X154.328 Y102.92 E.00594
G1 X154.328 Y107.08 E.14348
G1 X153.909 Y107.001 E.01471
G1 X153.909 Y102.999 E.13803
G1 X153.49 Y103.175 E.01567
G1 X153.49 Y106.825 E.12589
G1 X153.071 Y106.521 E.01785
G1 X153.071 Y103.479 E.10492
G1 X152.652 Y104.031 E.0239
G1 X152.652 Y106.294 E.07805
M204 S1000
;WIPE_START
G1 F8640
G1 X152.652 Y104.031 E-.52253
G1 X153.071 Y103.479 E-.16002
G1 X153.071 Y104.854 E-.31745
;WIPE_END
G1 Z.4 F720
G1 X95.772 Y102.586 F10800
G1 Z.2 F720
G1 E1 F2100
M204 S800
G1 F1200
G1 X96.554 Y102.811 E.02807
G1 X97.015 Y103.101 E.01878
G1 X97.399 Y103.485 E.01873
G1 X97.793 Y104.198 E.0281
G1 X97.914 Y104.728 E.01875
G1 X97.914 Y105.272 E.01876
G1 X97.689 Y106.054 E.02807
G1 X97.399 Y106.515 E.01878
G1 X97.015 Y106.899 E.01873
G1 X96.302 Y107.293 E.0281
G1 X95.772 Y107.414 E.01875
G1 X95.228 Y107.414 E.01876
G1 X94.446 Y107.189 E.02807
G1 X93.985 Y106.899 E.01878
G1 X93.601 Y106.515 E.01873
G1 X93.207 Y105.802 E.0281
G1 X93.086 Y105.272 E.01875
G1 X93.086 Y104.728 E.01876
G1 X93.311 Y103.946 E.02807
G1 X93.601 Y103.485 E.01878
G1 X93.985 Y103.101 E.01873
G1 X94.698 Y102.707 E.0281
G1 X95.228 Y102.586 E.01875
G1 X95.716 Y102.583 E.01683
M204 S1000
G1 X95.716 Y102.583 F10800
G1 X97.348 Y106.294
M204 S800
G1 F1200
G1 X97.348 Y104.031 E.07805
G1 X96.929 Y103.479 E.0239
G1 X96.929 Y106.521 E.10492
G1 X96.51 Y106.825 E.01785
G1 X96.51 Y103.175 E.12589
G1 X96.091 Y102.999 E.01567
G1 X96.091 Y107.001 E.13803
G1 X95.672 Y107.08 E.01471
G1 X95.672 Y102.92 E.14348
G1 X95.5 Y102.911 E.00594
G1 X95.253 Y102.926 E.00853
G1 X95.253 Y107.074 E.14306
G1 X94.834 Y106.979 E.01482
G1 X94.834 Y103.021 E.13651
G1 X94.415 Y103.217 E.01595
G1 X94.415 Y106.783 E.12299
G1 X93.996 Y106.447 E.01852
G1 X93.996 Y103.553 E.09981
G1 X93.577 Y104.192 E.02635
G1 X93.577 Y106.183 E.06867
M204 S1000
;WIPE_START
G1 F8640
G1 X93.577 Y104.192 E-.45973
G1 X93.996 Y103.553 E-.17644
G1 X93.996 Y105.129 E-.36383
M73 Q2 S111
;WIPE_END
G1 Z.4 F720
G1 X90.787 Y93.326 F10800
G1 Z.2 F720
G1 E1 F2100
M204 S800
;TYPE:Perimeter
;WIDTH:0.419999
G1 F1200
G1 X96.826 Y87.287 E.29456
G1 X146.174 Y87.287 E1.702
G1 X159.213 Y100.326 E.63599
G1 X159.213 Y100.923 E.02059
G1 X159.213 Y109.674 E.30182
G1 X146.174 Y122.713 E.63599
G1 X96.826 Y122.713 E1.702
G1 X90.787 Y116.674 E.29456
G1 X90.787 Y93.386 E.8032
M204 S1000
G1 X90.41 Y93.17 F10800
M204 S800
;TYPE:External perimeter
G1 F1200
G1 X96.67 Y86.91 E.30534
G1 X146.33 Y86.91 E1.71276
G1 X159.59 Y100.17 E.64677
G1 X159.59 Y100.923 E.02597
G1 X159.59 Y109.83 E.3072
G1 X146.33 Y123.09 E.64677
G1 X96.67 Y123.09 E1.71276
G1 X90.41 Y116.83 E.30534
G1 X90.41 Y93.23 E.81396
M204 S1000
;WIPE_START
G1 F8640
