; generated by PrusaSlicer 2.7.4+win64 on 2024-04-29 at 10:22:13 UTC


;
;
; 

; external perimeters extrusion width = 0.60mm
; perimeters extrusion width = 0.50mm
; infill extrusion width = 0.50mm
; solid infill extrusion width = 0.50mm
; top infill extrusion width = 0.45mm
; support material extrusion width = 0.38mm
; first layer extrusion width = 0.42mm

M73 P0 R24
M73 Q0 S24
M201 X1000 Y1000 Z200 E5000 ; sets maximum accelerations, mm/sec^2
M203 X200 Y200 Z12 E120 ; sets maximum feedrates, mm / sec
M204 S1250 T1250 ; sets acceleration (S) and retract acceleration (R), mm/sec^2
M205 X8.00 Y8.00 Z0.40 E4.50 ; sets the jerk limits, mm/sec
M205 S0 T0 ; sets the minimum extruding and travel feed rate, mm/sec

; printing object SwitchCover1.stl id:0 copy 0
; stop printing object SwitchCover1.stl id:0 copy 0

;TYPE:Custom
M862.3 P "MK3" ; printer model check
M862.1 P0.4 ; nozzle diameter check
M115 U3.12.2 ; tell printer latest fw version
G90 ; use absolute coordinates
M83 ; extruder relative mode
M104 S230 ; set extruder temp
M140 S85 ; set bed temp
M190 S85 ; wait for bed temp
M109 S230 ; wait for extruder temp
G28 W ; home all without mesh bed level
G80 ; mesh bed leveling

G1 Z0.2 F720
G1 Y-3 F1000 ; go outside print area
G92 E0
G1 X60 E9 F1000 ; intro line
G1 X100 E12.5 F1000 ; intro line

G92 E0
M221 S95

; Don't change E values below. Excessive value can damage the printer.

M907 E538 ; set extruder motor current
G21 ; set units to millimeters
G90 ; use absolute coordinates
M83 ; use relative distances for extrusion

M900 K0.08 ; Filament gcode LA 1.5
M900 K45 ; Filament gcode LA 1.0




M107
;LAYER_CHANGE
;Z:0.2
;HEIGHT:0.2
G1 E-1 F2100
G1 Z.4 F720
G1 X84.91 Y84.287 F10800
G1 Z.2 F720
G1 E1 F2100
M204 S800
;TYPE:Skirt/Brim
;WIDTH:0.42
G1 F1200
G1 X87.474 Y81.704 E.12553
G1 X88.286 Y80.998 E.03711
G1 X89.162 Y80.397 E.03664
G1 X90.222 Y79.843 E.04125
G1 X91.696 Y79.327 E.05386
G1 X92.87 Y79.099 E.04125
G1 X93.943 Y79.024 E.0371
G1 X149.057 Y79.024 E1.90087
G1 X150.755 Y79.202 E.05888
G1 X152.317 Y79.652 E.05606
G1 X153.167 Y80.026 E.03203
G1 X154.089 Y80.555 E.03666
G1 X155.526 Y81.704 E.06346
G1 X168.567 Y94.804 E.63753
G1 X169.353 Y95.912 E.04685
G1 X169.907 Y96.972 E.04125
G1 X170.423 Y98.445 E.05383
G1 X170.684 Y99.915 E.05149
G1 X170.684 Y110.085 E.35076
G1 X170.522 Y111.135 E.03664
G1 X170.244 Y112.161 E.03666
G1 X169.853 Y113.149 E.03665
G1 X169.421 Y113.973 E.03209
G1 X168.752 Y114.964 E.04124
G1 X168 Y115.824 E.0394
G1 X155.574 Y128.25 E.60609
G1 X154.714 Y129.002 E.0394
G1 X153.838 Y129.603 E.03664
G1 X152.778 Y130.157 E.04125
G1 X151.304 Y130.673 E.05386
G1 X150.13 Y130.901 E.04125
G1 X149.057 Y130.976 E.0371
G1 X94.01 Y130.977 E1.89856
G1 X92.87 Y130.901 E.03941
M73 P1 R24
M73 Q1 S24
G1 X91.696 Y130.673 E.04125
G1 X90.222 Y130.157 E.05386
G1 X89.162 Y129.603 E.04125
G1 X88.053 Y128.816 E.0469
G1 X81.954 Y122.776 E.29605
G1 X81.248 Y121.964 E.03711
G1 X80.647 Y121.088 E.03664
G1 X80.147 Y120.149 E.03669
G1 X79.715 Y119.034 E.04124
G1 X79.368 Y117.512 E.05384
G1 X79.278 Y116.456 E.03655
G1 X79.273 Y93.76 E.78278
G1 X79.478 Y91.865 E.06574
G1 X79.756 Y90.839 E.03666
G1 X80.276 Y89.583 E.04688
G1 X80.805 Y88.661 E.03666
G1 X81.519 Y87.702 E.04124
G1 X84.867 Y84.329 E.16391
M204 S1000
;WIPE_START
G1 F8640
G1 X84.91 Y84.287 E-.01388
G1 X87.474 Y81.704 E-.84037
G1 X87.95 Y81.29 E-.14575
;WIPE_END
G1 Z.4 F720
G1 X86.744 Y86.203 F10800
G1 Z.2 F720
G1 E1 F2100
M204 S800
G1 F1200
G1 X89.323 Y83.62 E.12589
G1 X90.061 Y82.999 E.03327
G1 X90.873 Y82.49 E.03305
G1 X92.38 Y81.902 E.05579
G1 X94.006 Y81.687 E.05657
G1 X149.048 Y81.687 E1.89838
G1 X150.221 Y81.813 E.04069
G1 X151.346 Y82.131 E.04032
G1 X152.477 Y82.684 E.04342
G1 X153.638 Y83.581 E.0506
G1 X166.539 Y96.533 E.6305
G1 X166.998 Y97.17 E.02708
G1 X167.684 Y98.588 E.05433
G1 X167.904 Y99.365 E.02785
G1 X168.057 Y100.577 E.04213
G1 X168.055 Y109.464 E.30651
G1 X167.793 Y111.064 E.05592
G1 X167.499 Y111.882 E.02998
G1 X167.104 Y112.657 E.03
G1 X166.121 Y113.937 E.05566
G1 X153.677 Y126.381 E.60697
G1 X152.939 Y127.001 E.03324
G1 X152.127 Y127.51 E.03305
G1 X150.62 Y128.098 E.05579
G1 X148.994 Y128.313 E.05657
G1 X93.394 Y128.279 E1.91763
G1 X92.335 Y128.085 E.03713
G1 X91.311 Y127.726 E.03743
G1 X90.355 Y127.204 E.03757
M73 Q2 S24
G1 X89.516 Y126.555 E.03658
G1 X83.871 Y120.928 E.2749
G1 X83.25 Y120.189 E.03329
M73 P2 R24
G1 X82.74 Y119.377 E.03307
G1 X82.152 Y117.87 E.05579
G1 X81.937 Y116.244 E.05657
G1 X81.937 Y93.765 E.77529
G1 X82.086 Y92.411 E.04698
G1 X82.339 Y91.522 E.03188
G1 X82.701 Y90.697 E.03107
G1 X83.19 Y89.893 E.03246
G1 X83.764 Y89.188 E.03136
G1 X86.702 Y86.245 E.14343
M204 S1000
G1 X86.702 Y86.245 F10800
G1 X86.969 Y86.511
M204 S800
G1 F1200
G1 X89.584 Y83.892 E.12765
G1 X90.294 Y83.297 E.03195
G1 X91.062 Y82.816 E.03125
G1 X91.785 Y82.487 E.0274
G1 X93.241 Y82.119 E.0518
G1 X94.012 Y82.064 E.02666
G1 X149.039 Y82.064 E1.89787
G1 X150.135 Y82.181 E.03802
G1 X151.207 Y82.482 E.0384
G1 X152.283 Y83.008 E.04131
G1 X153.38 Y83.856 E.04782
G1 X165.893 Y96.371 E.61038
G1 X166.673 Y97.363 E.04352
M73 P2 R23
G1 X167.072 Y98.085 E.02845
G1 X167.534 Y99.439 E.04934
G1 X167.681 Y100.6 E.04036
G1 X167.679 Y109.438 E.30482
G1 X167.434 Y110.948 E.05276
G1 X167.158 Y111.722 E.02834
G1 X166.773 Y112.475 E.02917
G1 X165.849 Y113.675 E.05224
G1 X153.416 Y126.108 E.60643
G1 X152.706 Y126.703 E.03195
G1 X151.938 Y127.184 E.03125
G1 X150.517 Y127.735 E.05257
G1 X148.988 Y127.936 E.05319
G1 X94.027 Y127.936 E1.89559
G1 X92.417 Y127.716 E.05604
M73 Q2 S23
G1 X91.452 Y127.375 E.0353
G1 X90.549 Y126.881 E.0355
G1 X89.757 Y126.265 E.03461
G1 X84.143 Y120.667 E.27344
G1 X83.562 Y119.978 E.03108
G1 X83.066 Y119.188 E.03217
G1 X82.515 Y117.767 E.05257
G1 X82.314 Y116.238 E.05319
G1 X82.314 Y93.771 E.77488
G1 X82.452 Y92.502 E.04403
G1 X82.69 Y91.661 E.03014
G1 X83.041 Y90.86 E.03016
G1 X83.505 Y90.101 E.03068
G1 X84.05 Y89.435 E.02968
G1 X86.926 Y86.554 E.1404
M204 S1000
G1 X86.926 Y86.554 F10800
G1 X87.193 Y86.82
M204 S800
G1 F1200
G1 X89.845 Y84.165 E.12943
G1 X90.505 Y83.609 E.02976
G1 X91.251 Y83.143 E.03034
G1 X92.586 Y82.628 E.04935
G1 X94.019 Y82.441 E.04984
G1 X149.028 Y82.441 E1.89725
G1 X150.079 Y82.554 E.03646
M73 P3 R23
M73 Q3 S23
G1 X151.068 Y82.833 E.03544
G1 X152.09 Y83.332 E.03923
G1 X153.121 Y84.131 E.04499
G1 X165.961 Y97.019 E.62745
G1 X166.348 Y97.555 E.0228
G1 X166.978 Y98.852 E.04973
G1 X167.165 Y99.514 E.02373
G1 X167.304 Y100.622 E.03851
G1 X167.303 Y109.411 E.30313
G1 X167.075 Y110.833 E.04967
G1 X166.807 Y111.583 E.02747
G1 X166.443 Y112.292 E.02749
G1 X165.578 Y113.413 E.04884
G1 X153.155 Y125.836 E.60594
G1 X152.495 Y126.391 E.02974
G1 X151.749 Y126.857 E.03034
G1 X150.414 Y127.372 E.04935
G1 X148.981 Y127.559 E.04984
G1 X93.505 Y127.533 E1.91335
G1 X92.529 Y127.356 E.03421
G1 X91.592 Y127.025 E.03427
G1 X90.745 Y126.558 E.03336
G1 X89.998 Y125.975 E.03268
G1 X84.415 Y120.406 E.27197
G1 X83.859 Y119.745 E.02979
G1 X83.393 Y118.999 E.03034
G1 X82.878 Y117.664 E.04935
G1 X82.691 Y116.231 E.04984
G1 X82.691 Y93.777 E.77443
G1 X82.822 Y92.573 E.04177
G1 X83.049 Y91.777 E.02855
G1 X83.381 Y91.024 E.02838
G1 X83.82 Y90.309 E.02894
G1 X84.335 Y89.681 E.02801
G1 X87.15 Y86.863 E.13738
M204 S1000
G1 X87.15 Y86.863 F10800
G1 X87.417 Y87.129
M204 S800
G1 F1200
G1 X90.106 Y84.437 E.13123
G1 X90.737 Y83.907 E.02842
G1 X91.44 Y83.47 E.02855
G1 X92.074 Y83.184 E.02399
G1 X93.339 Y82.867 E.04498
G1 X94.026 Y82.818 E.02375
G1 X149.019 Y82.818 E1.89669
G1 X149.992 Y82.921 E.03375
G1 X150.93 Y83.184 E.0336
G1 X151.896 Y83.656 E.03708
G1 X152.863 Y84.406 E.04221
G1 X165.351 Y96.896 E.60916
G1 X166.024 Y97.747 E.03742
M73 Q4 S23
G1 X166.4 Y98.429 E.02686
G1 X166.795 Y99.588 E.04223
G1 X166.928 Y100.644 E.03671
M73 P4 R23
G1 X166.926 Y109.386 E.30151
G1 X166.716 Y110.718 E.04651
G1 X166.465 Y111.423 E.02581
G1 X166.125 Y112.09 E.02582
G1 X165.307 Y113.151 E.04621
G1 X152.894 Y125.563 E.60543
G1 X152.263 Y126.093 E.02842
G1 X151.56 Y126.53 E.02855
G1 X150.311 Y127.009 E.04614
G1 X148.974 Y127.182 E.0465
G1 X94.036 Y127.182 E1.8948
G1 X92.612 Y126.988 E.04957
G1 X91.734 Y126.675 E.03215
G1 X90.941 Y126.236 E.03126
G1 X90.24 Y125.685 E.03075
G1 X84.687 Y120.145 E.27054
G1 X84.157 Y119.513 E.02845
G1 X83.72 Y118.81 E.02855
G1 X83.241 Y117.561 E.04614
G1 X83.068 Y116.224 E.0465
G1 X83.068 Y93.782 E.77402
G1 X83.188 Y92.664 E.03878
G1 X83.4 Y91.916 E.02681
G1 X83.709 Y91.21 E.02658
G1 X84.134 Y90.518 E.02801
G1 X84.62 Y89.928 E.02636
G1 X87.374 Y87.171 E.1344
M204 S1000
G1 X87.374 Y87.171 F10800
G1 X87.641 Y87.437
M204 S800
G1 F1200
G1 X90.366 Y84.709 E.13299
G1 X90.969 Y84.205 E.02711
G1 X91.627 Y83.797 E.0267
G1 X92.79 Y83.354 E.04292
G1 X94.032 Y83.195 E.04319
G1 X149.009 Y83.195 E1.89614
G1 X149.907 Y83.289 E.03114
G1 X150.792 Y83.535 E.03168
G1 X151.702 Y83.98 E.03494
G1 X152.605 Y84.681 E.03943
G1 X165.383 Y97.503 E.62433
G1 X166.065 Y98.601 E.04458
G1 X166.27 Y99.114 E.01905
G1 X166.425 Y99.664 E.01971
G1 X166.551 Y100.665 E.0348
G1 X166.55 Y109.361 E.29992
G1 X166.356 Y110.604 E.04339
G1 X165.795 Y111.907 E.04893
G1 X165.036 Y112.889 E.04281
G1 X152.633 Y125.291 E.60494
G1 X152.031 Y125.795 E.02708
G1 X151.373 Y126.203 E.0267
G1 X150.21 Y126.646 E.04292
G1 X148.968 Y126.805 E.04319
G1 X93.591 Y126.783 E1.90994
G1 X92.723 Y126.627 E.03042
M73 P5 R23
M73 Q5 S23
G1 X91.875 Y126.325 E.03105
G1 X91.139 Y125.914 E.02907
G1 X90.482 Y125.396 E.02886
G1 X84.96 Y119.884 E.2691
G1 X84.455 Y119.281 E.02713
G1 X84.047 Y118.623 E.0267
G1 X83.604 Y117.46 E.04292
G1 X83.445 Y116.218 E.04319
G1 X83.445 Y93.787 E.77364
G1 X83.555 Y92.755 E.0358
G1 X83.751 Y92.055 E.02507
G1 X84.049 Y91.374 E.02564
G1 X84.448 Y90.728 E.02619
G1 X84.905 Y90.176 E.02472
G1 X87.598 Y87.48 E.13143
M204 S1000
G1 X87.598 Y87.48 F10800
G1 X87.865 Y87.746
M204 S800
G1 F1200
G1 X90.627 Y84.982 E.13477
G1 X91.179 Y84.518 E.02487
G1 X92.36 Y83.882 E.04626
G1 X93.456 Y83.612 E.03893
G1 X94.039 Y83.572 E.02015
G1 X148.999 Y83.572 E1.89556
G1 X149.851 Y83.662 E.02955
G1 X150.653 Y83.886 E.02872
G1 X151.507 Y84.303 E.03278
G1 X152.346 Y84.956 E.03667
G1 X164.809 Y97.421 E.60794
G1 X165.375 Y98.132 E.03134
G1 X165.916 Y99.244 E.04265
G1 X166.056 Y99.738 E.01771
G1 X166.175 Y100.687 E.03299
G1 X166.174 Y109.336 E.2983
G1 X165.996 Y110.49 E.04027
G1 X165.773 Y111.125 E.02321
G1 X165.476 Y111.705 E.02247
G1 X164.764 Y112.627 E.04018
G1 X152.372 Y125.019 E.60443
G1 X151.821 Y125.482 E.02482
G1 X151.186 Y125.876 E.02577
G1 X150.109 Y126.282 E.0397
G1 X148.961 Y126.428 E.03991
G1 X94.045 Y126.428 E1.89404
G1 X92.807 Y126.259 E.04309
G1 X92.018 Y125.976 E.02891
G1 X91.337 Y125.593 E.02695
G1 X90.725 Y125.108 E.02693
G1 X85.232 Y119.623 E.26773
G1 X84.768 Y119.071 E.02487
G1 X84.374 Y118.436 E.02577
G1 X83.968 Y117.359 E.0397
G1 X83.822 Y116.211 E.03991
G1 X83.822 Y93.793 E.77319
G1 X83.925 Y92.825 E.03357
G1 X84.11 Y92.171 E.02344
G1 X84.761 Y90.938 E.04809
G1 X85.189 Y90.424 E.02307
G1 X87.822 Y87.789 E.12848
M204 S1000
G1 X87.822 Y87.789 F10800
G1 X88.089 Y88.055
M204 S800
G1 F1200
G1 X90.888 Y85.254 E.13657
G1 X91.41 Y84.816 E.0235
M73 Q6 S23
G1 X92.001 Y84.453 E.02392
G1 X92.991 Y84.081 E.03648
M73 P6 R23
G1 X94.045 Y83.949 E.03664
G1 X148.989 Y83.949 E1.895
G1 X149.766 Y84.03 E.02694
G1 X150.516 Y84.237 E.02683
G1 X151.313 Y84.627 E.0306
G1 X152.088 Y85.23 E.03387
G1 X164.538 Y97.683 E.60733
G1 X165.051 Y98.325 E.02834
G1 X165.393 Y98.944 E.02439
G1 X165.686 Y99.813 E.03163
G1 X165.798 Y100.707 E.03107
G1 X165.797 Y109.312 E.29678
G1 X165.636 Y110.377 E.03715
G1 X165.147 Y111.522 E.04294
G1 X164.493 Y112.365 E.0368
G1 X152.112 Y124.746 E.60389
G1 X151.59 Y125.184 E.0235
G1 X150.999 Y125.547 E.02392
G1 X150.009 Y125.919 E.03648
G1 X148.955 Y126.051 E.03664
G1 X93.653 Y126.031 E1.90735
G1 X92.891 Y125.891 E.02672
M73 P6 R22
G1 X92.162 Y125.627 E.02674
G1 X91.536 Y125.272 E.02482
G1 X90.968 Y124.82 E.02504
G1 X85.504 Y119.362 E.26636
G1 X85.066 Y118.84 E.0235
G1 X84.703 Y118.249 E.02392
G1 X84.331 Y117.259 E.03648
G1 X84.199 Y116.205 E.03664
G1 X84.199 Y93.798 E.77281
G1 X84.296 Y92.895 E.03132
M73 Q6 S22
G1 X84.727 Y91.704 E.04368
G1 X85.473 Y90.672 E.04392
G1 X88.046 Y88.097 E.12555
M204 S1000
G1 X88.046 Y88.097 F10800
G1 X88.331 Y88.379
M204 S800
G1 F1200
G1 X91.149 Y85.526 E.13831
G1 X91.62 Y85.13 E.02122
G1 X92.642 Y84.582 E.04
G1 X93.55 Y84.36 E.03224
G1 X94.051 Y84.326 E.01732
G1 X148.979 Y84.326 E1.89445
G1 X149.711 Y84.403 E.02539
G1 X150.379 Y84.589 E.02392
G1 X151.118 Y84.95 E.02837
G1 X151.829 Y85.505 E.03111
G1 X164.258 Y97.936 E.60628
G1 X164.739 Y98.537 E.02655
M73 P7 R22
M73 Q7 S22
G1 X165.202 Y99.486 E.03642
G1 X165.422 Y100.728 E.0435
G1 X165.421 Y109.29 E.2953
G1 X165.276 Y110.265 E.034
G1 X165.079 Y110.827 E.02054
G1 X164.828 Y111.32 E.01908
G1 X164.222 Y112.103 E.03415
G1 X151.851 Y124.474 E.60341
G1 X150.813 Y125.219 E.04407
G1 X149.91 Y125.555 E.03323
G1 X148.949 Y125.674 E.0334
G1 X94.055 Y125.674 E1.89328
G1 X92.975 Y125.523 E.03761
G1 X92.307 Y125.279 E.02453
G1 X91.737 Y124.953 E.02265
G1 X91.212 Y124.532 E.02321
G1 X85.776 Y119.101 E.26502
G1 X85.031 Y118.063 E.04407
G1 X84.695 Y117.16 E.03323
G1 X84.576 Y116.199 E.0334
G1 X84.576 Y93.803 E.77243
G1 X84.662 Y92.985 E.02837
G1 X84.819 Y92.426 E.02003
G1 X85.386 Y91.36 E.04164
G1 X88.289 Y88.422 E.14245
M204 S1000
G1 X88.289 Y88.422 F10800
G1 X88.539 Y88.671
M204 S800
G1 F1200
G1 X91.411 Y85.798 E.14011
G1 X92.373 Y85.109 E.04081
G1 X93.188 Y84.809 E.02995
G1 X94.057 Y84.703 E.03019
G1 X148.97 Y84.703 E1.89393
G1 X149.627 Y84.771 E.02278
G1 X150.242 Y84.94 E.022
G1 X150.923 Y85.273 E.02615
G1 X151.571 Y85.78 E.02838
G1 X163.979 Y98.19 E.60526
G1 X164.427 Y98.749 E.02471
G1 X164.701 Y99.245 E.01954
G1 X164.951 Y99.983 E.02687
G1 X165.045 Y100.748 E.02658
G1 X165.044 Y109.268 E.29385
G1 X164.916 Y110.153 E.03084
G1 X164.498 Y111.136 E.03684
G1 X163.951 Y111.84 E.03075
G1 X151.589 Y124.202 E.60297
G1 X150.627 Y124.891 E.04081
G1 X149.812 Y125.191 E.02995
G1 X148.943 Y125.297 E.03019
G1 X93.716 Y125.279 E1.90476
G1 X93.09 Y125.164 E.02195
M73 P8 R22
M73 Q8 S22
G1 X92.452 Y124.93 E.02344
G1 X91.457 Y124.245 E.04166
G1 X86.048 Y118.839 E.26376
G1 X85.359 Y117.877 E.04081
G1 X85.059 Y117.062 E.02995
G1 X84.953 Y116.193 E.03019
G1 X84.953 Y93.809 E.77202
G1 X85.033 Y93.055 E.02615
G1 X85.394 Y92.057 E.0366
G1 X86.038 Y91.171 E.03778
G1 X88.496 Y88.713 E.11989
M204 S1000
G1 X88.496 Y88.713 F10800
G1 X88.773 Y88.993
M204 S800
G1 F1200
G1 X92.04 Y85.756 E.15862
G1 X92.919 Y85.283 E.03443
G1 X94.063 Y85.08 E.04007
G1 X148.96 Y85.08 E1.89338
G1 X150.105 Y85.292 E.04016
G1 X150.728 Y85.596 E.02391
G1 X151.312 Y86.054 E.0256
G1 X163.7 Y98.444 E.60428
G1 X164.114 Y98.96 E.02282
G1 X164.482 Y99.713 E.02891
G1 X164.668 Y100.767 E.03691
G1 X164.668 Y109.246 E.29244
G1 X164.556 Y110.041 E.02769
G1 X164.376 Y110.553 E.01872
G1 X164.18 Y110.933 E.01475
G1 X163.679 Y111.578 E.02817
G1 X151.328 Y123.93 E.60245
G1 X150.442 Y124.562 E.03754
G1 X149.715 Y124.826 E.02668
G1 X148.937 Y124.92 E.02703
G1 X94.064 Y124.92 E1.89255
G1 X93.204 Y124.804 E.02993
G1 X92.597 Y124.582 E.02229
G1 X91.702 Y123.958 E.03763
G1 X86.32 Y118.578 E.26246
G1 X85.688 Y117.692 E.03754
G1 X85.424 Y116.965 E.02668
G1 X85.33 Y116.187 E.02703
G1 X85.33 Y93.814 E.77164
G1 X85.537 Y92.659 E.04047
G1 X86.01 Y91.785 E.03428
G1 X86.32 Y91.422 E.01646
G1 X88.73 Y89.035 E.11699
M204 S1000
G1 X88.73 Y89.035 F10800
G1 X88.985 Y89.29
M204 S800
G1 F1200
G1 X91.934 Y86.341 E.14384
G1 X92.743 Y85.767 E.03421
G1 X93.382 Y85.539 E.0234
G1 X94.069 Y85.457 E.02386
G1 X148.95 Y85.458 E1.89283
G1 X149.968 Y85.644 E.03569
M73 P9 R22
M73 Q9 S22
G1 X150.532 Y85.918 E.02163
G1 X151.053 Y86.329 E.02289
G1 X163.422 Y98.698 E.60331
G1 X164.01 Y99.548 E.03565
G1 X164.216 Y100.152 E.02201
G1 X164.292 Y100.786 E.02202
G1 X164.291 Y109.226 E.29109
G1 X164.195 Y109.929 E.02447
G1 X163.851 Y110.748 E.03064
G1 X163.408 Y111.316 E.02484
G1 X151.066 Y123.659 E.60202
G1 X150.257 Y124.233 E.03421
G1 X149.618 Y124.461 E.0234
G1 X148.931 Y124.543 E.02386
G1 X93.779 Y124.528 E1.90218
