; generated by PrusaSlicer 2.7.4+win64 on 2024-04-29 at 11:03:11 UTC


;
;
; 

; external perimeters extrusion width = 0.60mm
; perimeters extrusion width = 0.50mm
; infill extrusion width = 0.50mm
; solid infill extrusion width = 0.50mm
; top infill extrusion width = 0.45mm
; support material extrusion width = 0.38mm
; first layer extrusion width = 0.42mm

M73 P0 R12
M73 Q0 S12
M201 X1000 Y1000 Z200 E5000 ; sets maximum accelerations, mm/sec^2
M203 X200 Y200 Z12 E120 ; sets maximum feedrates, mm / sec
M204 S1250 T1250 ; sets acceleration (S) and retract acceleration (R), mm/sec^2
M205 X8.00 Y8.00 Z0.40 E4.50 ; sets the jerk limits, mm/sec
M205 S0 T0 ; sets the minimum extruding and travel feed rate, mm/sec

; printing object SwitchCoverTemp.stl id:0 copy 0
; stop printing object SwitchCoverTemp.stl id:0 copy 0

;TYPE:Custom
M862.3 P "MK3" ; printer model check
M862.1 P0.4 ; nozzle diameter check
M115 U3.12.2 ; tell printer latest fw version
G90 ; use absolute coordinates
M83 ; extruder relative mode
M104 S230 ; set extruder temp
M140 S85 ; set bed temp
M190 S85 ; wait for bed temp
M109 S230 ; wait for extruder temp
G28 W ; home all without mesh bed level
G80 ; mesh bed leveling

G1 Z0.2 F720
G1 Y-3 F1000 ; go outside print area
G92 E0
G1 X60 E9 F1000 ; intro line
G1 X100 E12.5 F1000 ; intro line

G92 E0
M221 S95

; Don't change E values below. Excessive value can damage the printer.

M907 E538 ; set extruder motor current
G21 ; set units to millimeters
G90 ; use absolute coordinates
M83 ; use relative distances for extrusion

M900 K0.08 ; Filament gcode LA 1.5
M900 K45 ; Filament gcode LA 1.0




M107
;LAYER_CHANGE
;Z:0.2
;HEIGHT:0.2
G1 E-1 F2100
G1 Z.4 F720
G1 X86.671 Y85.795 F10800
G1 Z.2 F720
G1 E1 F2100
M204 S800
;TYPE:Skirt/Brim
;WIDTH:0.42
G1 F1200
G1 X90.676 Y81.75 E.19633
G1 X92.05 Y80.629 E.06116
M73 Q1 S12
G1 X93.083 Y80.026 E.04125
M73 P1 R12
G1 X94.339 Y79.506 E.04688
G1 X95.495 Y79.202 E.04123
G1 X97.044 Y79.028 E.05376
G1 X145.807 Y79.024 E1.68182
G1 X147.505 Y79.202 E.05888
G1 X149.067 Y79.652 E.05606
G1 X149.917 Y80.026 E.03203
G1 X150.839 Y80.555 E.03666
G1 X152.276 Y81.704 E.06346
G1 X165.317 Y94.804 E.63753
G1 X166.171 Y96.027 E.05145
G1 X166.848 Y97.433 E.05382
G1 X167.206 Y98.575 E.04128
G1 X167.434 Y99.915 E.04688
G1 X167.434 Y110.085 E.35076
G1 X167.272 Y111.135 E.03664
G1 X166.994 Y112.161 E.03666
G1 X166.603 Y113.149 E.03665
G1 X166.171 Y113.973 E.03209
G1 X165.502 Y114.964 E.04124
G1 X164.75 Y115.824 E.0394
G1 X152.324 Y128.25 E.60609
G1 X150.95 Y129.371 E.06116
G1 X149.917 Y129.974 E.04125
G1 X148.534 Y130.535 E.05147
G1 X147.012 Y130.882 E.05384
G1 X145.807 Y130.976 E.04169
G1 X97.26 Y130.977 E1.67437
G1 X96.12 Y130.901 E.03941
M73 P2 R12
M73 Q2 S12
G1 X94.946 Y130.673 E.04125
G1 X93.472 Y130.157 E.05386
G1 X92.412 Y129.603 E.04125
G1 X91.536 Y129.002 E.03664
G1 X90.676 Y128.25 E.0394
G1 X85.25 Y122.824 E.26466
G1 X84.129 Y121.45 E.06116
G1 X83.526 Y120.417 E.04125
G1 X83.006 Y119.161 E.04688
G1 X82.702 Y118.005 E.04123
G1 X82.531 Y116.522 E.05149
G1 X82.523 Y93.76 E.78506
G1 X82.702 Y91.995 E.06119
G1 X83.006 Y90.839 E.04123
G1 X83.397 Y89.851 E.03665
G1 X83.897 Y88.912 E.03669
G1 X84.683 Y87.804 E.04685
G1 X86.629 Y85.838 E.09541
M204 S1000
;WIPE_START
G1 F8640
G1 X86.671 Y85.795 E-.01388
G1 X89.676 Y82.76 E-.98612
;WIPE_END
G1 Z.4 F720
G1 X88.5 Y87.704 F10800
G1 Z.2 F720
G1 E1 F2100
M204 S800
G1 F1200
G1 X92.561 Y83.632 E.19835
G1 X93.763 Y82.694 E.05259
G1 X94.693 Y82.22 E.036
G1 X95.535 Y81.928 E.03074
G1 X96.377 Y81.754 E.02965
G1 X97.252 Y81.687 E.03027
G1 X145.798 Y81.687 E1.67434
G1 X146.97 Y81.813 E.04065
M73 Q3 S12
G1 X148.096 Y82.131 E.04035
G1 X149.223 Y82.682 E.04327
M73 P3 R12
G1 X150.333 Y83.532 E.04822
G1 X163.238 Y96.472 E.63031
G1 X163.888 Y97.404 E.03919
G1 X164.393 Y98.472 E.04075
G1 X164.678 Y99.487 E.03636
G1 X164.804 Y100.535 E.03641
G1 X164.806 Y109.459 E.30779
G1 X164.571 Y110.971 E.05277
G1 X164.277 Y111.814 E.03079
G1 X163.875 Y112.619 E.03103
G1 X163.424 Y113.295 E.02803
G1 X162.869 Y113.939 E.02932
G1 X150.437 Y126.37 E.60636
G1 X149.247 Y127.3 E.05209
G1 X148.433 Y127.727 E.0317
G1 X147.565 Y128.043 E.03186
G1 X146.683 Y128.237 E.03115
G1 X145.751 Y128.313 E.03225
G1 X96.615 Y128.276 E1.69469
G1 X95.563 Y128.079 E.03691
M73 P3 R11
G1 X94.581 Y127.734 E.0359
G1 X93.653 Y127.235 E.03634
G1 X92.812 Y126.596 E.03643
G1 X87.132 Y120.94 E.27646
G1 X86.194 Y119.737 E.05261
G1 X85.72 Y118.807 E.036
G1 X85.428 Y117.965 E.03074
G1 X85.254 Y117.123 E.02965
G1 X85.187 Y116.248 E.03027
G1 X85.187 Y93.766 E.7754
G1 X85.314 Y92.513 E.04344
M73 P4 R11
M73 Q4 S12
G1 X85.546 Y91.647 E.03092
G1 X85.897 Y90.801 E.03159
G1 X86.427 Y89.913 E.03567
G1 X86.958 Y89.25 E.0293
G1 X88.457 Y87.746 E.07324
M204 S1000
G1 X88.457 Y87.746 F10800
G1 X88.724 Y88.012
M204 S800
G1 F1200
G1 X92.824 Y83.902 E.20022
G1 X93.968 Y83.011 E.05001
G1 X94.852 Y82.562 E.0342
G1 X95.646 Y82.288 E.02897
G1 X96.441 Y82.126 E.02798
G1 X97.259 Y82.064 E.02829
G1 X145.788 Y82.064 E1.67375
G1 X146.883 Y82.18 E.03798
M73 Q4 S11
G1 X147.957 Y82.482 E.03848
G1 X148.509 Y82.723 E.02077
G1 X149.03 Y83.007 E.02047
G1 X150.076 Y83.808 E.04544
G1 X162.958 Y96.725 E.62918
G1 X163.569 Y97.606 E.03698
G1 X164.045 Y98.618 E.03857
G1 X164.311 Y99.574 E.03422
G1 X164.428 Y100.568 E.03452
G1 X164.429 Y109.433 E.30575
G1 X164.21 Y110.859 E.04976
G1 X163.934 Y111.657 E.02912
G1 X163.543 Y112.44 E.03019
G1 X162.597 Y113.677 E.05371
G1 X150.175 Y126.099 E.60589
G1 X149.041 Y126.983 E.04959
G1 X148.27 Y127.387 E.03002
G1 X147.449 Y127.684 E.03011
G1 X146.615 Y127.866 E.02944
G1 X145.743 Y127.936 E.03017
G1 X97.275 Y127.936 E1.67165
G1 X95.674 Y127.718 E.05573
M73 P5 R11
M73 Q5 S11
G1 X94.72 Y127.383 E.03487
G1 X93.845 Y126.911 E.03429
G1 X93.051 Y126.304 E.03447
G1 X87.403 Y120.677 E.27497
G1 X86.511 Y119.532 E.05006
G1 X86.062 Y118.648 E.0342
G1 X85.788 Y117.854 E.02897
G1 X85.626 Y117.059 E.02798
G1 X85.564 Y116.241 E.02829
G1 X85.597 Y93.18 E.79537
G1 X85.907 Y91.757 E.05023
G1 X86.24 Y90.959 E.02982
G1 X86.744 Y90.118 E.03382
G1 X87.245 Y89.494 E.0276
G1 X88.681 Y88.054 E.07014
M204 S1000
G1 X88.681 Y88.054 F10800
G1 X88.948 Y88.32
M204 S800
G1 F1200
G1 X93.086 Y84.173 E.20205
G1 X94.171 Y83.329 E.04741
G1 X95.01 Y82.904 E.03244
G1 X95.756 Y82.649 E.02719
G1 X97.266 Y82.441 E.05257
G1 X145.778 Y82.441 E1.67317
G1 X146.827 Y82.554 E.03639
G1 X147.818 Y82.833 E.03551
G1 X148.837 Y83.331 E.03912
G1 X149.818 Y84.083 E.04263
G1 X162.678 Y96.979 E.62814
G1 X163.249 Y97.806 E.03466
M73 P6 R11
M73 Q6 S11
G1 X163.696 Y98.763 E.03643
G1 X163.944 Y99.66 E.0321
G1 X164.053 Y100.6 E.03264
G1 X164.053 Y109.407 E.30375
G1 X163.85 Y110.748 E.04678
G1 X163.591 Y111.5 E.02743
G1 X163.212 Y112.26 E.02929
G1 X162.326 Y113.415 E.05021
G1 X149.913 Y125.828 E.60545
G1 X148.837 Y126.667 E.04706
G1 X148.108 Y127.046 E.02834
G1 X147.333 Y127.325 E.02841
G1 X146.548 Y127.495 E.0277
G1 X145.736 Y127.559 E.02809
G1 X96.704 Y127.527 E1.6911
G1 X95.758 Y127.351 E.03319
G1 X94.86 Y127.033 E.03286
G1 X94.039 Y126.587 E.03222
G1 X93.29 Y126.012 E.03257
G1 X87.674 Y120.415 E.27346
G1 X86.829 Y119.329 E.04746
G1 X86.404 Y118.49 E.03244
G1 X86.149 Y117.744 E.02719
G1 X85.941 Y116.234 E.05257
G1 X85.941 Y93.777 E.77454
G1 X86.057 Y92.646 E.03921
G1 X86.267 Y91.868 E.02779
G1 X86.582 Y91.118 E.02806
G1 X87.06 Y90.324 E.03196
G1 X87.532 Y89.739 E.02592
G1 X88.905 Y88.363 E.06704
M204 S1000
G1 X88.905 Y88.363 F10800
G1 X89.172 Y88.629
M204 S800
G1 F1200
G1 X93.348 Y84.444 E.20391
G1 X94.375 Y83.647 E.04484
M73 P7 R11
M73 Q7 S11
G1 X95.167 Y83.247 E.0306
G1 X95.866 Y83.01 E.02546
G1 X97.273 Y82.818 E.04898
G1 X145.768 Y82.818 E1.67258
G1 X146.741 Y82.921 E.03375
G1 X147.679 Y83.183 E.03359
G1 X148.643 Y83.655 E.03702
G1 X149.56 Y84.359 E.03987
G1 X162.398 Y97.232 E.62704
G1 X162.929 Y98.006 E.03237
G1 X163.347 Y98.907 E.03426
G1 X163.576 Y99.745 E.02996
G1 X163.677 Y100.632 E.03079
G1 X163.677 Y109.383 E.30182
G1 X163.489 Y110.638 E.04377
G1 X163.248 Y111.343 E.0257
G1 X162.88 Y112.08 E.02841
G1 X162.055 Y113.153 E.04668
G1 X149.651 Y125.556 E.60499
G1 X148.632 Y126.349 E.04453
G1 X147.946 Y126.705 E.02666
G1 X147.218 Y126.966 E.02667
G1 X146.481 Y127.124 E.026
G1 X145.729 Y127.182 E.02601
G1 X97.286 Y127.182 E1.67079
G1 X95.869 Y126.99 E.04932
M73 P8 R11
M73 Q8 S11
G1 X95.027 Y126.694 E.03078
G1 X94.232 Y126.263 E.03119
G1 X93.53 Y125.721 E.03059
G1 X87.945 Y120.152 E.27202
G1 X87.147 Y119.125 E.04486
G1 X86.747 Y118.333 E.0306
G1 X86.51 Y117.634 E.02546
G1 X86.318 Y116.227 E.04898
G1 X86.318 Y93.782 E.77412
G1 X86.428 Y92.713 E.03706
G1 X86.628 Y91.979 E.02624
G1 X86.924 Y91.277 E.02628
G1 X87.375 Y90.531 E.03007
G1 X87.819 Y89.984 E.0243
G1 X89.129 Y88.671 E.06397
M204 S1000
G1 X89.129 Y88.671 F10800
G1 X89.396 Y88.937
M204 S800
G1 F1200
G1 X93.61 Y84.715 E.20574
G1 X94.577 Y83.965 E.04221
G1 X95.324 Y83.59 E.02883
G1 X95.975 Y83.371 E.02369
G1 X97.28 Y83.195 E.04542
G1 X145.759 Y83.195 E1.67203
G1 X146.656 Y83.289 E.03111
G1 X147.541 Y83.535 E.03168
G1 X148.45 Y83.979 E.03489
G1 X149.302 Y84.634 E.03707
G1 X162.118 Y97.484 E.62594
G1 X162.608 Y98.205 E.03007
G1 X162.998 Y99.05 E.0321
G1 X163.208 Y99.829 E.02783
G1 X163.301 Y100.663 E.02894
G1 X163.3 Y109.358 E.29989
G1 X163.128 Y110.528 E.04079
M73 P9 R11
M73 Q9 S11
G1 X162.905 Y111.186 E.02396
G1 X162.548 Y111.9 E.02753
G1 X161.783 Y112.891 E.04318
G1 X149.389 Y125.285 E.60453
G1 X148.428 Y126.032 E.04198
G1 X147.104 Y126.606 E.04977
G1 X145.721 Y126.805 E.04819
G1 X96.793 Y126.778 E1.68751
G1 X95.952 Y126.622 E.0295
G1 X95.167 Y126.344 E.02872
G1 X94.427 Y125.939 E.02909
G1 X93.771 Y125.431 E.02862
G1 X88.216 Y119.89 E.27061
G1 X87.465 Y118.923 E.04223
G1 X87.09 Y118.176 E.02883
G1 X86.871 Y117.525 E.02369
G1 X86.695 Y116.22 E.04542
G1 X86.695 Y93.787 E.77371
G1 X86.799 Y92.781 E.03488
G1 X87.265 Y91.437 E.04906
G1 X88.105 Y90.229 E.05075
G1 X89.353 Y88.979 E.06092
M204 S1000
G1 X89.353 Y88.979 F10800
G1 X89.62 Y89.245
M204 S800
G1 F1200
G1 X93.873 Y84.986 E.20759
G1 X94.779 Y84.283 E.03955
G1 X95.48 Y83.934 E.02701
G1 X96.082 Y83.733 E.02189
G1 X97.287 Y83.572 E.04193
G1 X145.748 Y83.572 E1.67141
G1 X146.6 Y83.662 E.02955
M73 P10 R11
M73 Q10 S11
G1 X147.403 Y83.886 E.02875
G1 X148.256 Y84.302 E.03273
G1 X149.044 Y84.909 E.03431
G1 X161.837 Y97.737 E.62484
G1 X162.287 Y98.403 E.02772
G1 X162.648 Y99.192 E.02993
G1 X162.84 Y99.911 E.02567
G1 X162.925 Y100.693 E.02713
G1 X162.924 Y109.334 E.29803
G1 X162.766 Y110.42 E.03785
G1 X162.562 Y111.03 E.02218
G1 X162.217 Y111.72 E.02661
G1 X161.512 Y112.629 E.03968
G1 X149.127 Y125.014 E.60409
G1 X148.225 Y125.714 E.03938
G1 X146.99 Y126.246 E.04638
G1 X145.714 Y126.428 E.04445
G1 X97.296 Y126.428 E1.66992
G1 X96.064 Y126.261 E.04288
G1 X95.308 Y125.994 E.02765
G1 X94.622 Y125.617 E.027
G1 X94.012 Y125.141 E.02669
G1 X88.487 Y119.628 E.26919
G1 X87.783 Y118.721 E.0396
G1 X87.233 Y117.418 E.04878
G1 X87.072 Y116.213 E.04193
M73 P11 R11
G1 X87.072 Y93.793 E.77326
M73 Q11 S11
G1 X87.17 Y92.849 E.03273
G1 X87.348 Y92.204 E.02308
G1 X87.607 Y91.599 E.0227
G1 X88.005 Y90.946 E.02638
G1 X88.391 Y90.476 E.02098
G1 X89.577 Y89.288 E.0579
M204 S1000
G1 X89.577 Y89.288 F10800
G1 X89.843 Y89.554
M204 S800
G1 F1200
G1 X94.135 Y85.257 E.20947
G1 X94.982 Y84.602 E.03693
G1 X96.189 Y84.095 E.04515
G1 X97.293 Y83.949 E.03841
G1 X145.739 Y83.949 E1.67089
G1 X146.515 Y84.03 E.02691
G1 X147.266 Y84.237 E.02687
G1 X148.062 Y84.626 E.03056
G1 X148.786 Y85.184 E.03153
G1 X161.556 Y97.989 E.62372
G1 X161.965 Y98.599 E.02533
G1 X162.298 Y99.333 E.0278
G1 X162.472 Y99.993 E.02354
G1 X162.549 Y100.723 E.02532
G1 X162.547 Y109.311 E.2962
M73 P11 R10
G1 X162.405 Y110.313 E.0349
G1 X161.898 Y111.518 E.04509
G1 X161.241 Y112.366 E.037
G1 X148.865 Y124.743 E.60367
G1 X148.022 Y125.396 E.03678
G1 X146.877 Y125.886 E.04295
G1 X145.707 Y126.051 E.04075
G1 X96.903 Y126.031 E1.68324
G1 X96.175 Y125.901 E.02551
M73 P12 R10
M73 Q12 S10
G1 X95.448 Y125.644 E.02659
G1 X94.818 Y125.294 E.02486
G1 X94.254 Y124.851 E.02474
G1 X88.757 Y119.365 E.26785
G1 X88.102 Y118.518 E.03693
G1 X87.595 Y117.311 E.04515
G1 X87.449 Y116.207 E.03841
G1 X87.449 Y93.798 E.77288
G1 X87.541 Y92.917 E.03055
G1 X87.936 Y91.783 E.04142
G1 X88.676 Y90.723 E.04459
G1 X89.801 Y89.596 E.05492
M204 S1000
G1 X89.801 Y89.596 F10800
G1 X90.094 Y89.885
M204 S800
G1 F1200
G1 X94.397 Y85.528 E.2112
G1 X95.183 Y84.921 E.03425
G1 X95.79 Y84.622 E.02334
G1 X96.295 Y84.457 E.01832
G1 X97.3 Y84.326 E.03496
G1 X145.73 Y84.326 E1.67034
G1 X146.431 Y84.398 E.0243
G1 X147.129 Y84.589 E.02496
G1 X147.868 Y84.95 E.02837
G1 X148.528 Y85.46 E.02877
G1 X161.275 Y98.241 E.62258
G1 X161.628 Y98.769 E.02191
M73 P13 R10
M73 Q13 S10
G1 X161.948 Y99.474 E.0267
G1 X162.173 Y100.751 E.04472
G1 X162.171 Y109.289 E.29447
G1 X162.043 Y110.206 E.03193
G1 X161.874 Y110.719 E.01863
G1 X161.567 Y111.338 E.02383
G1 X160.97 Y112.104 E.0335
G1 X148.603 Y124.472 E.60324
G1 X147.819 Y125.078 E.03418
G1 X146.765 Y125.526 E.0395
G1 X145.7 Y125.674 E.03708
G1 X97.305 Y125.674 E1.66913
G1 X96.258 Y125.532 E.03644
G1 X95.591 Y125.294 E.02443
G1 X95.016 Y124.973 E.02271
G1 X94.496 Y124.562 E.02286
G1 X89.028 Y119.103 E.26649
G1 X88.421 Y118.317 E.03425
G1 X87.957 Y117.205 E.04156
G1 X87.826 Y116.2 E.03496
G1 X87.826 Y93.803 E.77247
G1 X87.912 Y92.985 E.02837
G1 X88.06 Y92.452 E.01908
G1 X88.634 Y91.364 E.04243
G1 X90.052 Y89.928 E.0696
M204 S1000
G1 X90.052 Y89.928 F10800
G1 X90.293 Y90.169
M204 S800
G1 F1200
G1 X94.659 Y85.8 E.21303
G1 X95.383 Y85.241 E.03155
G1 X96.399 Y84.819 E.03794
G1 X97.306 Y84.703 E.03154
M73 P14 R10
G1 X145.72 Y84.703 E1.66979
G1 X146.377 Y84.771 E.02278
M73 Q14 S10
G1 X146.992 Y84.94 E.022
G1 X147.673 Y85.273 E.02615
G1 X148.27 Y85.735 E.02604
G1 X157.163 Y94.622 E.43362
G1 X160.994 Y98.494 E.18786
G1 X161.598 Y99.615 E.04392
G1 X161.797 Y100.78 E.04076
G1 X161.794 Y109.267 E.29271
G1 X161.681 Y110.101 E.02903
G1 X161.235 Y111.157 E.03954
G1 X160.7 Y111.841 E.02995
G1 X148.34 Y124.201 E.60287
G1 X147.617 Y124.76 E.03152
G1 X146.653 Y125.166 E.03608
G1 X145.694 Y125.297 E.03338
G1 X96.966 Y125.279 E1.68062
G1 X96.342 Y125.164 E.02188
M73 P15 R10
G1 X95.734 Y124.945 E.02229
G1 X94.74 Y124.274 E.04136
M73 Q15 S10
G1 X89.3 Y118.841 E.26517
G1 X88.741 Y118.117 E.03155
G1 X88.319 Y117.101 E.03794
G1 X88.203 Y116.194 E.03154
G1 X88.203 Y93.809 E.77205
G1 X88.283 Y93.055 E.02615
G1 X88.617 Y92.107 E.03467
G1 X89.244 Y91.219 E.03749
G1 X90.251 Y90.212 E.04912
M204 S1000
G1 X90.251 Y90.212 F10800
G1 X90.537 Y90.496
M204 S800
G1 F1200
G1 X94.922 Y86.07 E.21488
G1 X95.583 Y85.561 E.02877
G1 X96.095 Y85.312 E.01964
G1 X96.502 Y85.182 E.01474
G1 X97.313 Y85.08 E.02819
G1 X145.71 Y85.08 E1.6692
G1 X146.855 Y85.292 E.04016
G1 X147.478 Y85.596 E.02391
G1 X148.029 Y86.025 E.02408
G1 X160.692 Y98.719 E.6184
G1 X160.955 Y99.11 E.01625
G1 X161.237 Y99.727 E.0234
G1 X161.42 Y100.79 E.0372
G1 X161.418 Y109.246 E.29165
G1 X161.186 Y110.409 E.0409
G1 X160.904 Y110.976 E.02184
G1 X160.429 Y111.579 E.02647
G1 X148.078 Y123.929 E.60241
G1 X147.433 Y124.43 E.02817
M73 P16 R10
G1 X146.541 Y124.806 E.03339
G1 X145.687 Y124.92 E.02972
G1 X97.314 Y124.92 E1.66837
M73 Q16 S10
G1 X96.455 Y124.804 E.0299
G1 X95.878 Y124.596 E.02115
G1 X94.984 Y123.986 E.03733
G1 X89.57 Y118.578 E.26393
G1 X89.061 Y117.917 E.02877
G1 X88.682 Y116.998 E.03429
G1 X88.58 Y116.187 E.02819
G1 X88.58 Y93.814 E.77164
G1 X88.779 Y92.682 E.03964
G1 X89.26 Y91.786 E.03507
G1 X90.495 Y90.538 E.06056
M204 S1000
G1 X90.495 Y90.538 F10800
G1 X90.742 Y90.785
M204 S800
G1 F1200
G1 X95.184 Y86.342 E.21669
G1 X95.782 Y85.882 E.02602
G1 X96.604 Y85.545 E.03064
G1 X97.319 Y85.457 E.02485
G1 X145.7 Y85.458 E1.66865
G1 X146.718 Y85.644 E.03569
M73 P17 R10
G1 X147.282 Y85.918 E.02163
G1 X147.787 Y86.314 E.02213
G1 X156.629 Y95.155 E.43125
G1 X160.39 Y98.946 E.18418
M73 Q17 S10
G1 X160.878 Y99.84 E.03513
G1 X161.042 Y100.8 E.03359
G1 X161.041 Y109.226 E.29061
G1 X160.955 Y109.896 E.0233
G1 X160.587 Y110.773 E.0328
G1 X160.158 Y111.316 E.02387
G1 X147.816 Y123.658 E.60199
G1 X147.248 Y124.101 E.02484
