; HEADER_BLOCK_START
; generated by OrcaSlicer 2.3.1-dev on 2025-08-06 at 16:26:40
; total layer number: 40
; filament_density: 1.02
; filament_diameter: 1.75
; max_z_height: 8.00
; HEADER_BLOCK_END

; THUMBNAIL_BLOCK_START

;
; THUMBNAIL_BLOCK_END

; THUMBNAIL_BLOCK_START

;
; THUMBNAIL_BLOCK_END

; external perimeters extrusion width = 0.40mm
; perimeters extrusion width = 0.40mm
; infill extrusion width = 0.45mm
; solid infill extrusion width = 0.40mm
; top infill extrusion width = 0.40mm
; first layer extrusion width = 0.50mm

; EXECUTABLE_BLOCK_START
EXCLUDE_OBJECT_DEFINE NAME=Part_1_id_0_copy_0 CENTER=175,175 POLYGON=[[163,175],[163.07,173.703],[163.281,172.42],[163.628,171.168],[164.109,169.961],[164.718,168.813],[165.447,167.738],[166.288,166.748],[167.231,165.854],[168.266,165.068],[169.379,164.398],[170.558,163.852],[171.79,163.437],[173.059,163.158],[174.35,163.018],[175.65,163.018],[176.941,163.158],[178.21,163.437],[179.442,163.852],[180.621,164.398],[181.734,165.068],[182.769,165.854],[183.712,166.748],[184.553,167.738],[185.282,168.813],[185.891,169.961],[186.372,171.168],[186.719,172.42],[186.93,173.703],[187,175],[186.93,176.297],[186.719,177.58],[186.372,178.832],[185.891,180.039],[185.282,181.187],[184.553,182.262],[183.712,183.252],[182.769,184.146],[181.734,184.932],[180.621,185.602],[179.442,186.148],[178.21,186.563],[176.941,186.842],[175.65,186.982],[174.35,186.982],[173.059,186.842],[171.79,186.563],[170.558,186.148],[169.379,185.602],[168.266,184.932],[167.231,184.146],[166.288,183.252],[165.447,182.262],[164.718,181.187],[164.109,180.039],[163.628,178.832],[163.281,177.58],[163.07,176.297],[163,175]]
M73 P0 R11
;TYPE:Custom
M190 S100
M109 S250
PRINT_START EXTRUDER=250 BED=100
; You can use following code instead if your PRINT_START macro support Chamber and print area bedmesh
; PRINT_START EXTRUDER=250 BED=100 Chamber=0 PRINT_MIN=161.003,161.018 PRINT_MAX=188.997,188.982
G90
G21
M83 ; use relative distances for extrusion
; Filament gcode
SET_PRESSURE_ADVANCE ADVANCE=0.045; Override pressure advance value
M106 S0
;LAYER_CHANGE
;Z:0.2
;HEIGHT:0.2
;BEFORE_LAYER_CHANGE
;0.2
G92 E0

G1 E-.3 F1800
;AFTER_LAYER_CHANGE
;0.2
;_SET_FAN_SPEED_CHANGING_LAYER
SET_VELOCITY_LIMIT ACCEL=500 ACCEL_TO_DECEL=250
SET_VELOCITY_LIMIT SQUARE_CORNER_VELOCITY=9
; printing object Part 1 id:0 copy 0
EXCLUDE_OBJECT_START NAME=Part_1_id_0_copy_0
G1 Z.6 F21000
G1 X185.376 Y175
G1 Z.6
G1 Z.2
G1 E.3 F1800
;TYPE:Inner wall
;WIDTH:0.499999
G1 F3000
G1 X185.316 Y176.122 E.03971
G1 X185.134 Y177.231 E.03971
G1 X184.833 Y178.313 E.03971
G1 X184.417 Y179.357 E.03971
G1 X183.891 Y180.35 E.03971
G1 X183.261 Y181.28 E.03971
G1 X182.533 Y182.136 E.03971
G1 X181.718 Y182.908 E.03971
G1 X180.823 Y183.588 E.03971
G1 X179.86 Y184.168 E.03971
G1 X178.841 Y184.639 E.03971
G1 X177.776 Y184.998 E.03971
G1 X176.679 Y185.24 E.03971
G1 X175.562 Y185.361 E.03971
G1 X174.438 Y185.361 E.03971
G1 X173.321 Y185.24 E.03971
G1 X172.224 Y184.998 E.03971
G1 X171.159 Y184.639 E.03971
G1 X170.14 Y184.168 E.03971
G1 X169.177 Y183.588 E.03971
G1 X168.282 Y182.908 E.03971
G1 X167.467 Y182.136 E.03971
G1 X166.739 Y181.28 E.03971
G1 X166.109 Y180.35 E.03971
G1 X165.583 Y179.357 E.03971
G1 X165.167 Y178.313 E.03971
G1 X164.87 Y177.245 E.03918
G1 X164.684 Y176.121 E.04028
G1 X164.624 Y175 E.03967
G1 X164.684 Y173.878 E.03971
G1 X164.866 Y172.769 E.03971
G1 X165.167 Y171.687 E.03971
G1 X165.583 Y170.643 E.03971
G1 X166.109 Y169.65 E.03971
G1 X166.739 Y168.72 E.03971
G1 X167.467 Y167.864 E.03971
G1 X168.282 Y167.092 E.03971
G1 X169.177 Y166.412 E.03971
G1 X170.14 Y165.832 E.03971
G1 X171.159 Y165.361 E.03971
G1 X172.224 Y165.002 E.03971
G1 X173.321 Y164.76 E.03971
G1 X174.438 Y164.639 E.03971
G1 X175.562 Y164.639 E.03971
G1 X176.664 Y164.759 E.03918
G1 X177.777 Y165.002 E.04028
G1 X178.841 Y165.361 E.03967
G1 X179.86 Y165.832 E.03971
G1 X180.823 Y166.412 E.03971
G1 X181.718 Y167.092 E.03971
G1 X182.533 Y167.864 E.03971
G1 X183.261 Y168.72 E.03971
G1 X183.891 Y169.65 E.03971
G1 X184.417 Y170.643 E.03971
G1 X184.833 Y171.687 E.03971
G1 X185.13 Y172.755 E.03918
G1 X185.316 Y173.879 E.04028
G1 X185.374 Y174.96 E.03826
G1 X185.834 Y175 F21000
G1 F3000
G1 X185.771 Y176.171 E.04146
G1 X185.581 Y177.329 E.04146
G1 X185.267 Y178.459 E.04146
G1 X184.833 Y179.549 E.04146
G1 X184.283 Y180.586 E.04146
G1 X183.625 Y181.557 E.04146
G1 X182.866 Y182.451 E.04146
G1 X182.014 Y183.257 E.04146
G1 X181.08 Y183.967 E.04146
G1 X180.075 Y184.572 E.04146
G1 X179.01 Y185.065 E.04146
G1 X177.898 Y185.439 E.04146
G1 X176.753 Y185.691 E.04146
G1 X175.587 Y185.818 E.04146
G1 X174.413 Y185.818 E.04146
G1 X173.247 Y185.691 E.04147
G1 X172.102 Y185.439 E.04146
G1 X170.99 Y185.065 E.04146
G1 X169.925 Y184.572 E.04146
G1 X168.92 Y183.967 E.04146
G1 X167.986 Y183.257 E.04146
G1 X167.134 Y182.451 E.04146
G1 X166.375 Y181.557 E.04146
G1 X165.717 Y180.586 E.04146
G1 X165.167 Y179.549 E.04146
G1 X164.733 Y178.459 E.04146
G1 X164.423 Y177.344 E.04092
G1 X164.229 Y176.171 E.04204
G1 X164.166 Y175 E.04144
G1 X164.229 Y173.829 E.04146
G1 X164.419 Y172.671 E.04146
G1 X164.733 Y171.541 E.04146
G1 X165.167 Y170.451 E.04146
G1 X165.717 Y169.414 E.04146
G1 X166.375 Y168.443 E.04146
G1 X167.134 Y167.549 E.04146
G1 X167.986 Y166.743 E.04146
G1 X168.92 Y166.033 E.04146
G1 X169.925 Y165.428 E.04146
G1 X170.99 Y164.935 E.04146
G1 X172.102 Y164.561 E.04146
G1 X173.247 Y164.309 E.04146
G1 X174.413 Y164.182 E.04146
G1 X175.587 Y164.182 E.04146
G1 X176.737 Y164.307 E.04092
G1 X177.899 Y164.561 E.04203
G1 X179.01 Y164.935 E.04144
G1 X180.075 Y165.428 E.04146
G1 X181.08 Y166.033 E.04146
G1 X182.014 Y166.743 E.04146
G1 X182.866 Y167.549 E.04146
G1 X183.625 Y168.443 E.04146
G1 X184.283 Y169.414 E.04146
G1 X184.833 Y170.451 E.04147
G1 X185.267 Y171.541 E.04146
G1 X185.577 Y172.656 E.04092
G1 X185.771 Y173.829 E.04204
G1 X185.832 Y174.96 E.04002
G1 X186.292 Y175 F21000
G1 F3000
G1 X186.226 Y176.221 E.04322
G1 X186.028 Y177.427 E.04322
G1 X185.701 Y178.606 E.04322
G1 X185.248 Y179.741 E.04322
G1 X184.676 Y180.822 E.04322
G1 X183.989 Y181.834 E.04322
G1 X183.198 Y182.765 E.04322
G1 X182.31 Y183.606 E.04322
G1 X181.337 Y184.346 E.04322
G1 X180.289 Y184.977 E.04322
G1 X179.18 Y185.49 E.04322
G1 X178.021 Y185.88 E.04322
G1 X176.827 Y186.143 E.04322
G1 X175.611 Y186.275 E.04322
G1 X174.389 Y186.275 E.04321
G1 X173.173 Y186.143 E.04322
G1 X171.979 Y185.88 E.04322
G1 X170.82 Y185.49 E.04322
G1 X169.711 Y184.977 E.04322
G1 X168.663 Y184.346 E.04322
G1 X167.69 Y183.606 E.04322
G1 X166.802 Y182.765 E.04322
G1 X166.011 Y181.834 E.04322
G1 X165.324 Y180.822 E.04322
G1 X164.752 Y179.741 E.04322
G1 X164.299 Y178.606 E.04322
G1 X163.976 Y177.443 E.04266
G1 X163.774 Y176.22 E.04379
G1 X163.708 Y175 E.0432
G1 X163.774 Y173.779 E.04322
G1 X163.972 Y172.573 E.04322
G1 X164.299 Y171.394 E.04322
G1 X164.752 Y170.259 E.04322
G1 X165.324 Y169.178 E.04322
G1 X166.011 Y168.166 E.04322
G1 X166.802 Y167.235 E.04322
G1 X167.69 Y166.394 E.04322
G1 X168.663 Y165.654 E.04322
G1 X169.711 Y165.023 E.04322
G1 X170.82 Y164.51 E.04322
G1 X171.979 Y164.12 E.04322
G1 X173.173 Y163.857 E.04322
G1 X174.389 Y163.725 E.04322
G1 X175.611 Y163.725 E.04321
G1 X176.811 Y163.855 E.04266
G1 X178.021 Y164.12 E.04379
G1 X179.18 Y164.51 E.0432
G1 X180.289 Y165.023 E.04322
G1 X181.337 Y165.654 E.04322
G1 X182.31 Y166.394 E.04322
G1 X183.198 Y167.235 E.04322
G1 X183.989 Y168.166 E.04322
G1 X184.676 Y169.178 E.04322
G1 X185.248 Y170.259 E.04322
G1 X185.701 Y171.394 E.04322
G1 X186.024 Y172.557 E.04266
G1 X186.226 Y173.78 E.04379
G1 X186.29 Y174.96 E.04178
G1 X186.311 Y174.959 F21000
G1 X186.313 Y175
G1 X186.748 Y175.024
;TYPE:Outer wall
G1 F3000
G1 X186.681 Y176.27 E.04412
G1 X186.475 Y177.526 E.04497
G1 X186.135 Y178.752 E.04497
G1 X185.664 Y179.934 E.04497
G1 X185.068 Y181.058 E.04497
G1 X184.354 Y182.111 E.04497
G1 X183.53 Y183.08 E.04497
G1 X182.607 Y183.955 E.04497
G1 X181.594 Y184.725 E.04497
G1 X180.504 Y185.381 E.04497
G1 X179.349 Y185.915 E.04497
G1 X178.143 Y186.321 E.04497
G1 X176.901 Y186.595 E.04497
G1 X175.636 Y186.732 E.04497
G1 X174.364 Y186.732 E.04497
G1 X173.099 Y186.595 E.04497
G1 X171.857 Y186.321 E.04497
G1 X170.651 Y185.915 E.04497
G1 X169.496 Y185.381 E.04497
G1 X168.406 Y184.725 E.04497
G1 X167.393 Y183.955 E.04497
G1 X166.47 Y183.08 E.04497
G1 X165.646 Y182.111 E.04497
G1 X164.932 Y181.058 E.04497
G1 X164.336 Y179.934 E.04497
G1 X163.865 Y178.752 E.04497
G1 X163.529 Y177.541 E.0444
G1 X163.319 Y176.27 E.04554
G1 X163.25 Y175 E.04496
G1 X163.319 Y173.73 E.04497
G1 X163.525 Y172.474 E.04497
G1 X163.865 Y171.248 E.04497
G1 X164.336 Y170.066 E.04497
G1 X164.932 Y168.942 E.04497
G1 X165.646 Y167.889 E.04497
G1 X166.47 Y166.92 E.04497
G1 X167.393 Y166.045 E.04497
G1 X168.406 Y165.275 E.04497
G1 X169.496 Y164.619 E.04497
G1 X170.651 Y164.085 E.04497
G1 X171.857 Y163.679 E.04497
G1 X173.099 Y163.405 E.04497
M73 P1 R11
G1 X174.364 Y163.268 E.04497
G1 X175.636 Y163.268 E.04497
G1 X176.885 Y163.403 E.0444
G1 X178.144 Y163.679 E.04554
G1 X179.349 Y164.085 E.04496
G1 X180.504 Y164.619 E.04497
G1 X181.594 Y165.275 E.04497
G1 X182.607 Y166.045 E.04497
G1 X183.53 Y166.92 E.04497
G1 X184.354 Y167.889 E.04497
G1 X185.068 Y168.942 E.04497
G1 X185.664 Y170.066 E.04497
G1 X186.135 Y171.248 E.04497
G1 X186.471 Y172.459 E.0444
G1 X186.681 Y173.73 E.04554
G1 X186.749 Y174.984 E.04439
G1 E-.21 F1800
;WIPE_START
G1 F3000
G1 X186.696 Y175.983 E-.09
;WIPE_END
G1 Z.6 F21000
G1 X186.261 Y175.959 Z.6
G1 X180.637 Y166.46
G1 Z.2
G1 E.3 F1800
;TYPE:Bottom surface
;WIDTH:0.5092
G1 F3000
G1 X182.319 Y168.142 E.08576
G1 X182.987 Y168.928 E.03722
G1 X183.597 Y169.827 E.03917
G1 X183.881 Y170.363 E.02184
G1 X179.614 Y166.096 E.21756
G1 X178.714 Y165.68 E.03578
G1 X178.449 Y165.59 E.01007
G1 X184.41 Y171.552 E.30399
G1 X184.508 Y171.796 E.0095
G1 X184.705 Y172.506 E.02654
G1 X177.489 Y165.29 E.36793
G1 X176.645 Y165.106 E.03115
G1 X184.879 Y173.339 E.41985
G1 X184.974 Y173.917 E.02111
G1 X184.984 Y174.104 E.00677
G1 X175.901 Y165.021 E.4632
G1 X175.543 Y164.982 E.01298
G1 X175.203 Y164.982 E.01228
G1 X185.022 Y174.801 E.50073
G1 X185.033 Y175 E.00717
G1 X185.009 Y175.447 E.01615
G1 X174.543 Y164.982 E.53367
G1 X173.94 Y165.038 E.02184
G1 X184.975 Y176.073 E.5627
G1 X184.883 Y176.64 E.02073
G1 X173.348 Y165.105 E.5882
G1 X172.808 Y165.224 E.01995
G1 X184.786 Y177.203 E.6108
G1 X184.643 Y177.719 E.01931
G1 X172.271 Y165.348 E.63083
G1 X171.778 Y165.514 E.01877
G1 X184.497 Y178.232 E.64854
G1 X184.309 Y178.704 E.0183
G1 X171.285 Y165.68 E.66411
G1 X170.834 Y165.889 E.01791
G1 X184.121 Y179.175 E.67751
G1 X183.896 Y179.609 E.01764
G1 X170.383 Y166.097 E.68902
G1 X169.965 Y166.338 E.01742
M73 P2 R11
G1 X183.667 Y180.04 E.69873
G1 X183.412 Y180.445 E.01724
G1 X169.553 Y166.585 E.70673
G1 X169.37 Y166.696 E.00771
G1 X169.162 Y166.854 E.00942
G1 X183.146 Y180.838 E.71309
G1 X182.987 Y181.072 E.01019
G1 X182.865 Y181.216 E.00683
G1 X168.787 Y167.139 E.71785
G1 X168.421 Y167.432 E.01691
G1 X182.562 Y181.573 E.72106
G1 X182.284 Y181.9 E.01547
G1 X182.256 Y181.926 E.00139
G1 X168.083 Y167.753 E.72273
G1 X167.744 Y168.074 E.01682
G1 X181.917 Y182.247 E.72273
G1 X181.579 Y182.568 E.01682
G1 X167.438 Y168.427 E.72106
G1 X167.135 Y168.784 E.01687
G1 X181.213 Y182.861 E.71785
G1 X180.838 Y183.146 E.01697
G1 X166.854 Y169.162 E.71309
G1 X166.588 Y169.555 E.01712
G1 X180.447 Y183.415 E.70673
G1 X180.035 Y183.662 E.01732
G1 X166.333 Y169.96 E.69873
G1 X166.104 Y170.391 E.01759
G1 X179.616 Y183.903 E.68902
G1 X179.166 Y184.111 E.01791
G1 X165.879 Y170.825 E.67751
G1 X165.691 Y171.296 E.0183
M73 P3 R11
G1 X178.715 Y184.32 E.6641
G1 X178.222 Y184.486 E.01876
G1 X165.503 Y171.768 E.64854
G1 X165.357 Y172.281 E.01925
G1 X177.728 Y184.652 E.63083
G1 X177.192 Y184.776 E.01984
G1 X165.214 Y172.798 E.6108
G1 X165.117 Y173.36 E.02057
G1 X176.652 Y184.895 E.5882
G1 X176.06 Y184.962 E.02148
G1 X165.025 Y173.927 E.5627
G1 X164.991 Y174.553 E.02259
G1 X175.457 Y185.018 E.53367
G1 X174.797 Y185.018 E.02378
G1 X164.978 Y175.199 E.50073
G1 X165.016 Y175.896 E.02518
G1 X174.099 Y184.979 E.46319
G1 X173.357 Y184.896 E.02694
G1 X165.121 Y176.661 E.41994
G1 X165.206 Y177.171 E.01864
G1 X165.295 Y177.495 E.0121
G1 X172.511 Y184.71 E.36795
G1 X172.316 Y184.667 E.0072
G1 X171.551 Y184.41 E.02911
G1 X165.59 Y178.448 E.30398
G1 X165.894 Y179.213 E.02967
G1 X166.119 Y179.638 E.01734
G1 X170.386 Y183.904 E.21754
G1 X169.37 Y183.304 E.04254
G1 X168.505 Y182.647 E.03917
G1 X167.832 Y182.01 E.03341
G1 X166.491 Y180.668 E.0684
; stop printing object Part 1 id:0 copy 0
;LAYER_CHANGE
;Z:0.4
;HEIGHT:0.2
;BEFORE_LAYER_CHANGE
;0.4
G92 E0

G1 E-.21 F1800
;WIPE_START
G1 F3000
G1 X167.198 Y181.375 E-.09
;WIPE_END
EXCLUDE_OBJECT_END NAME=Part_1_id_0_copy_0
;AFTER_LAYER_CHANGE
;0.4
;_SET_FAN_SPEED_CHANGING_LAYER
SET_VELOCITY_LIMIT ACCEL=5000 ACCEL_TO_DECEL=2500
M140 S100 ; set bed temperature
; printing object Part 1 id:0 copy 0
SET_VELOCITY_LIMIT ACCEL=7000 ACCEL_TO_DECEL=3500 SQUARE_CORNER_VELOCITY=12
EXCLUDE_OBJECT_START NAME=Part_1_id_0_copy_0
G1 Z.8 F21000
G1 X185.727 Y175 Z.8
G1 Z.4
G1 E.3 F1800
SET_VELOCITY_LIMIT ACCEL=5000 ACCEL_TO_DECEL=2500 SQUARE_CORNER_VELOCITY=7
;TYPE:Inner wall
;WIDTH:0.399999
G1 F3000
G1 X185.664 Y176.16 E.03207
G1 X185.476 Y177.306 E.03207
G1 X185.165 Y178.425 E.03207
G1 X184.735 Y179.504 E.03207
G1 X184.191 Y180.53 E.03207
G1 X183.54 Y181.492 E.03207
G1 X182.788 Y182.377 E.03207
G1 X181.944 Y183.176 E.03207
G1 X181.02 Y183.879 E.03207
G1 X180.025 Y184.477 E.03207
G1 X178.97 Y184.965 E.03207
G1 X177.87 Y185.336 E.03207
G1 X176.735 Y185.586 E.03207
G1 X175.581 Y185.711 E.03207
G1 X174.419 Y185.711 E.03207
G1 X173.265 Y185.586 E.03207
G1 X172.13 Y185.336 E.03207
G1 X171.03 Y184.965 E.03207
G1 X169.975 Y184.477 E.03207
G1 X168.98 Y183.879 E.03207
G1 X168.056 Y183.176 E.03207
G1 X167.212 Y182.377 E.03207
G1 X166.46 Y181.492 E.03207
G1 X165.809 Y180.53 E.03207
G1 X165.265 Y179.504 E.03207
G1 X164.835 Y178.425 E.03207
G1 X164.536 Y177.351 E.0308
G1 X164.336 Y176.157 E.03341
G1 X164.273 Y175 E.032
G1 X164.336 Y173.84 E.03207
G1 X164.524 Y172.694 E.03207
G1 X164.835 Y171.575 E.03207
G1 X165.265 Y170.496 E.03207
G1 X165.809 Y169.47 E.03207
G1 X166.46 Y168.508 E.03207
G1 X167.212 Y167.623 E.03207
G1 X168.056 Y166.824 E.03207
G1 X168.98 Y166.121 E.03207
G1 X169.975 Y165.523 E.03207
G1 X171.03 Y165.035 E.03207
G1 X172.13 Y164.664 E.03207
G1 X173.265 Y164.414 E.03207
G1 X174.419 Y164.289 E.03207
G1 X175.581 Y164.289 E.03207
G1 X176.689 Y164.409 E.0308
G1 X177.872 Y164.665 E.03341
G1 X178.97 Y165.035 E.032
G1 X180.025 Y165.523 E.03207
G1 X181.02 Y166.121 E.03207
G1 X181.944 Y166.824 E.03207
G1 X182.788 Y167.623 E.03207
G1 X183.54 Y168.508 E.03207
G1 X184.191 Y169.47 E.03207
G1 X184.735 Y170.496 E.03207
G1 X185.165 Y171.575 E.03207
G1 X185.464 Y172.649 E.0308
G1 X185.664 Y173.843 E.03341
G1 X185.725 Y174.96 E.0309
SET_VELOCITY_LIMIT ACCEL=7000 ACCEL_TO_DECEL=3500 SQUARE_CORNER_VELOCITY=12
G1 X186.084 Y175 F21000
SET_VELOCITY_LIMIT ACCEL=5000 ACCEL_TO_DECEL=2500 SQUARE_CORNER_VELOCITY=7
G1 F3000
G1 X186.02 Y176.198 E.03314
G1 X185.825 Y177.383 E.03314
G1 X185.504 Y178.539 E.03314
G1 X185.06 Y179.654 E.03314
G1 X184.498 Y180.715 E.03314
G1 X183.824 Y181.708 E.03314
G1 X183.047 Y182.623 E.03314
G1 X182.176 Y183.448 E.03314
M73 P4 R11
G1 X181.22 Y184.175 E.03314
G1 X180.192 Y184.793 E.03314
G1 X179.103 Y185.297 E.03314
G1 X177.965 Y185.68 E.03314
G1 X176.793 Y185.938 E.03314
G1 X175.6 Y186.068 E.03314
G1 X174.4 Y186.068 E.03314
G1 X173.207 Y185.938 E.03314
G1 X172.035 Y185.68 E.03314
G1 X170.897 Y185.297 E.03314
G1 X169.808 Y184.793 E.03314
G1 X168.78 Y184.175 E.03314
G1 X167.824 Y183.448 E.03314
G1 X166.953 Y182.623 E.03314
G1 X166.176 Y181.708 E.03314
G1 X165.502 Y180.715 E.03314
G1 X164.94 Y179.654 E.03314
G1 X164.496 Y178.539 E.03314
G1 X164.187 Y177.428 E.03185
G1 X163.98 Y176.197 E.03448
G1 X163.916 Y175 E.03309
G1 X163.98 Y173.802 E.03314
G1 X164.175 Y172.617 E.03314
G1 X164.496 Y171.461 E.03314
G1 X164.94 Y170.346 E.03314
G1 X165.502 Y169.285 E.03314
G1 X166.176 Y168.292 E.03314
