; HEADER_BLOCK_START
; generated by OrcaSlicer 2.3.1-dev on 2025-08-06 at 16:43:57
; total layer number: 40
; filament_density: 1.02
; filament_diameter: 1.75
; max_z_height: 8.00
; HEADER_BLOCK_END

; THUMBNAIL_BLOCK_START

;
; THUMBNAIL_BLOCK_END

; THUMBNAIL_BLOCK_START

;
; THUMBNAIL_BLOCK_END

; external perimeters extrusion width = 0.40mm
; perimeters extrusion width = 0.40mm
; infill extrusion width = 0.45mm
; solid infill extrusion width = 0.40mm
; top infill extrusion width = 0.40mm
; first layer extrusion width = 0.50mm

; EXECUTABLE_BLOCK_START
EXCLUDE_OBJECT_DEFINE NAME=Part_1_id_0_copy_0 CENTER=175,175 POLYGON=[[163,175],[163.07,173.703],[163.281,172.42],[163.628,171.168],[164.109,169.961],[164.718,168.813],[165.447,167.738],[166.288,166.748],[167.231,165.854],[168.266,165.068],[169.379,164.398],[170.558,163.852],[171.79,163.437],[173.059,163.158],[174.35,163.018],[175.65,163.018],[176.941,163.158],[178.21,163.437],[179.442,163.852],[180.621,164.398],[181.734,165.068],[182.769,165.854],[183.712,166.748],[184.553,167.738],[185.282,168.813],[185.891,169.961],[186.372,171.168],[186.719,172.42],[186.93,173.703],[187,175],[186.93,176.297],[186.719,177.58],[186.372,178.832],[185.891,180.039],[185.282,181.187],[184.553,182.262],[183.712,183.252],[182.769,184.146],[181.734,184.932],[180.621,185.602],[179.442,186.148],[178.21,186.563],[176.941,186.842],[175.65,186.982],[174.35,186.982],[173.059,186.842],[171.79,186.563],[170.558,186.148],[169.379,185.602],[168.266,184.932],[167.231,184.146],[166.288,183.252],[165.447,182.262],[164.718,181.187],[164.109,180.039],[163.628,178.832],[163.281,177.58],[163.07,176.297],[163,175]]
M73 P0 R12
;TYPE:Custom
M190 S100
M109 S250
PRINT_START EXTRUDER=250 BED=100
; You can use following code instead if your PRINT_START macro support Chamber and print area bedmesh
; PRINT_START EXTRUDER=250 BED=100 Chamber=0 PRINT_MIN=160.695,160.71 PRINT_MAX=189.305,189.29
G90
G21
M83 ; use relative distances for extrusion
; Filament gcode
SET_PRESSURE_ADVANCE ADVANCE=0.045; Override pressure advance value
M106 S0
;LAYER_CHANGE
;Z:0.2
;HEIGHT:0.2
;BEFORE_LAYER_CHANGE
;0.2
G92 E0

G1 E-.3 F1800
;AFTER_LAYER_CHANGE
;0.2
;_SET_FAN_SPEED_CHANGING_LAYER
SET_VELOCITY_LIMIT ACCEL=500 ACCEL_TO_DECEL=250
SET_VELOCITY_LIMIT SQUARE_CORNER_VELOCITY=9
; printing object Part 1 id:0 copy 0
EXCLUDE_OBJECT_START NAME=Part_1_id_0_copy_0
G1 Z.6 F21000
G1 X177.859 Y164.706
G1 Z.6
G1 Z.2
G1 E.3 F1800
;TYPE:Inner wall
;WIDTH:0.499999
G1 F3000
G1 X178.955 Y165.075 E.04085
G1 X180.005 Y165.56 E.04089
G1 X180.996 Y166.157 E.04089
G1 X181.917 Y166.857 E.04089
G1 X182.757 Y167.653 E.04089
G1 X183.506 Y168.534 E.04089
G1 X184.155 Y169.492 E.04089
G1 X184.697 Y170.514 E.04089
G1 X185.125 Y171.589 E.04089
G1 X185.434 Y172.703 E.04089
G1 X185.621 Y173.845 E.04089
G1 X185.684 Y175 E.04089
G1 X185.621 Y176.155 E.04089
G1 X185.434 Y177.297 E.04089
G1 X185.125 Y178.411 E.04089
G1 X184.697 Y179.486 E.04089
G1 X184.155 Y180.508 E.04089
G1 X183.506 Y181.466 E.04089
G1 X182.757 Y182.347 E.04089
G1 X181.917 Y183.143 E.04089
G1 X180.996 Y183.843 E.04089
G1 X180.005 Y184.44 E.04089
G1 X178.955 Y184.925 E.04089
G1 X177.858 Y185.295 E.04089
G1 X176.728 Y185.543 E.04089
G1 X175.578 Y185.668 E.04089
G1 X174.422 Y185.668 E.04089
G1 X173.272 Y185.543 E.04089
G1 X172.142 Y185.295 E.04089
G1 X171.045 Y184.925 E.04089
G1 X169.996 Y184.44 E.04089
G1 X169.004 Y183.843 E.04089
G1 X168.083 Y183.143 E.04089
G1 X167.243 Y182.347 E.04089
G1 X166.494 Y181.466 E.04089
G1 X165.845 Y180.508 E.04089
G1 X165.303 Y179.486 E.04089
G1 X164.875 Y178.411 E.04089
G1 X164.566 Y177.297 E.04089
G1 X164.379 Y176.155 E.04089
G1 X164.316 Y175 E.04089
G1 X164.379 Y173.845 E.04089
G1 X164.566 Y172.703 E.04089
G1 X164.875 Y171.589 E.04089
G1 X165.303 Y170.514 E.04089
G1 X165.845 Y169.492 E.04089
G1 X166.494 Y168.534 E.04089
G1 X167.243 Y167.653 E.04089
G1 X168.083 Y166.857 E.04089
G1 X169.004 Y166.157 E.04089
G1 X169.995 Y165.56 E.04089
G1 X171.045 Y165.075 E.04089
G1 X172.142 Y164.705 E.04089
G1 X173.272 Y164.457 E.04089
G1 X174.422 Y164.332 E.04089
G1 X175.578 Y164.332 E.04089
G1 X176.713 Y164.455 E.04034
G1 X177.82 Y164.697 E.04006
G1 X177.981 Y164.265 F21000
G1 F3000
G1 X179.124 Y164.65 E.04261
G1 X180.219 Y165.156 E.04264
G1 X181.253 Y165.778 E.04264
G1 X182.213 Y166.508 E.04264
G1 X183.089 Y167.338 E.04264
G1 X183.87 Y168.257 E.04264
G1 X184.547 Y169.256 E.04264
G1 X185.112 Y170.322 E.04264
G1 X185.559 Y171.442 E.04264
G1 X185.881 Y172.605 E.04264
G1 X186.077 Y173.795 E.04264
G1 X186.142 Y175 E.04264
G1 X186.077 Y176.205 E.04264
G1 X185.881 Y177.395 E.04264
G1 X185.559 Y178.558 E.04264
G1 X185.112 Y179.678 E.04264
G1 X184.547 Y180.744 E.04264
G1 X183.87 Y181.743 E.04264
G1 X183.089 Y182.662 E.04264
G1 X182.213 Y183.492 E.04264
G1 X181.253 Y184.222 E.04264
G1 X180.219 Y184.844 E.04264
G1 X179.124 Y185.35 E.04264
G1 X177.981 Y185.736 E.04264
G1 X176.803 Y185.995 E.04264
G1 X175.603 Y186.125 E.04264
G1 X174.397 Y186.125 E.04264
G1 X173.197 Y185.995 E.04264
G1 X172.019 Y185.736 E.04264
G1 X170.876 Y185.35 E.04264
G1 X169.781 Y184.844 E.04264
G1 X168.747 Y184.222 E.04264
G1 X167.787 Y183.492 E.04264
G1 X166.911 Y182.662 E.04264
G1 X166.13 Y181.743 E.04264
G1 X165.453 Y180.744 E.04264
G1 X164.888 Y179.678 E.04264
G1 X164.441 Y178.558 E.04264
G1 X164.119 Y177.395 E.04264
G1 X163.923 Y176.205 E.04264
G1 X163.858 Y175 E.04264
G1 X163.923 Y173.795 E.04264
G1 X164.119 Y172.605 E.04264
G1 X164.441 Y171.442 E.04264
G1 X164.888 Y170.322 E.04264
G1 X165.453 Y169.256 E.04264
G1 X166.13 Y168.257 E.04264
G1 X166.911 Y167.338 E.04264
G1 X167.787 Y166.508 E.04264
G1 X168.747 Y165.778 E.04264
G1 X169.781 Y165.156 E.04264
G1 X170.876 Y164.65 E.04264
G1 X172.019 Y164.264 E.04264
G1 X173.197 Y164.005 E.04264
G1 X174.397 Y163.875 E.04264
G1 X175.603 Y163.875 E.04264
G1 X176.787 Y164.003 E.04208
G1 X177.942 Y164.256 E.04181
G1 X178.119 Y163.829 F21000
G1 F3000
G1 X179.293 Y164.224 E.0438
G1 X180.433 Y164.752 E.04439
G1 X181.51 Y165.399 E.04439
G1 X182.509 Y166.159 E.04439
G1 X183.421 Y167.023 E.04439
G1 X184.234 Y167.98 E.04439
G1 X184.939 Y169.02 E.04439
G1 X185.527 Y170.129 E.04439
G1 X185.992 Y171.296 E.04439
G1 X186.328 Y172.506 E.04439
G1 X186.532 Y173.746 E.04439
G1 X186.6 Y175 E.04439
G1 X186.532 Y176.254 E.04439
G1 X186.328 Y177.494 E.04439
G1 X185.992 Y178.704 E.04439
G1 X185.527 Y179.871 E.04439
G1 X184.939 Y180.98 E.04439
G1 X184.234 Y182.02 E.04439
G1 X183.421 Y182.977 E.04439
G1 X182.509 Y183.841 E.04439
G1 X181.51 Y184.601 E.04439
G1 X180.433 Y185.248 E.04439
G1 X179.293 Y185.776 E.04439
G1 X178.103 Y186.177 E.04439
G1 X176.877 Y186.447 E.04439
G1 X175.628 Y186.583 E.04439
G1 X174.372 Y186.583 E.04439
G1 X173.123 Y186.447 E.04439
G1 X171.897 Y186.177 E.04439
G1 X170.707 Y185.776 E.04439
G1 X169.567 Y185.248 E.04439
G1 X168.49 Y184.601 E.04439
G1 X167.491 Y183.841 E.04439
G1 X166.579 Y182.977 E.04439
G1 X165.766 Y182.02 E.04439
G1 X165.061 Y180.98 E.04439
G1 X164.473 Y179.871 E.04439
G1 X164.008 Y178.704 E.04439
G1 X163.672 Y177.494 E.04439
G1 X163.468 Y176.254 E.04439
G1 X163.4 Y175 E.04439
G1 X163.468 Y173.746 E.04439
G1 X163.672 Y172.506 E.04439
G1 X164.008 Y171.296 E.04439
G1 X164.473 Y170.129 E.04439
G1 X165.061 Y169.02 E.04439
G1 X165.766 Y167.98 E.04439
G1 X166.579 Y167.023 E.04439
G1 X167.491 Y166.159 E.04439
G1 X168.49 Y165.399 E.04439
G1 X169.567 Y164.752 E.04439
G1 X170.707 Y164.224 E.04439
G1 X171.897 Y163.823 E.04439
G1 X173.123 Y163.553 E.04439
G1 X174.372 Y163.417 E.04439
G1 X175.628 Y163.417 E.04439
G1 X176.861 Y163.551 E.04382
G1 X178.08 Y163.818 E.04414
G1 X178.085 Y163.797 F21000
G1 X178.109 Y163.803
G1 X178.126 Y163.808
G1 X178.265 Y163.395
;TYPE:Outer wall
G1 F3000
G1 X179.463 Y163.799 E.04468
G1 X180.648 Y164.347 E.04615
G1 X181.766 Y165.02 E.04615
G1 X182.806 Y165.81 E.04614
G1 X183.754 Y166.708 E.04615
G1 X184.599 Y167.703 E.04615
G1 X185.331 Y168.784 E.04615
G1 X185.943 Y169.937 E.04615
G1 X186.426 Y171.15 E.04614
G1 X186.775 Y172.408 E.04615
G1 X186.987 Y173.696 E.04615
G1 X187.057 Y175 E.04615
G1 X186.987 Y176.304 E.04615
G1 X186.775 Y177.592 E.04615
G1 X186.426 Y178.85 E.04614
G1 X185.943 Y180.063 E.04614
G1 X185.331 Y181.216 E.04615
G1 X184.599 Y182.297 E.04615
G1 X183.754 Y183.292 E.04615
G1 X182.806 Y184.19 E.04615
G1 X181.766 Y184.98 E.04614
G1 X180.648 Y185.653 E.04615
G1 X179.463 Y186.201 E.04615
G1 X178.226 Y186.618 E.04615
G1 X176.951 Y186.898 E.04615
G1 X175.653 Y187.04 E.04615
G1 X174.347 Y187.04 E.04614
G1 X173.049 Y186.898 E.04615
G1 X171.774 Y186.618 E.04615
G1 X170.537 Y186.201 E.04615
G1 X169.352 Y185.653 E.04615
G1 X168.234 Y184.98 E.04615
G1 X167.194 Y184.19 E.04614
G1 X166.246 Y183.292 E.04615
G1 X165.401 Y182.297 E.04615
G1 X164.669 Y181.216 E.04615
G1 X164.057 Y180.063 E.04615
G1 X163.574 Y178.85 E.04614
G1 X163.225 Y177.592 E.04615
G1 X163.013 Y176.304 E.04615
G1 X162.943 Y175 E.04615
G1 X163.013 Y173.696 E.04615
G1 X163.225 Y172.408 E.04615
G1 X163.574 Y171.15 E.04614
G1 X164.057 Y169.937 E.04615
G1 X164.669 Y168.784 E.04615
G1 X165.401 Y167.703 E.04615
G1 X166.246 Y166.708 E.04615
G1 X167.194 Y165.81 E.04615
G1 X168.234 Y165.02 E.04614
M73 P1 R12
G1 X169.352 Y164.347 E.04615
G1 X170.537 Y163.799 E.04615
G1 X171.774 Y163.382 E.04615
G1 X173.049 Y163.102 E.04615
G1 X174.347 Y162.96 E.04615
G1 X175.653 Y162.96 E.04614
G1 X176.934 Y163.1 E.04556
G1 X178.226 Y163.382 E.04673
G1 X178.227 Y163.383 E.00005
G1 E-.21 F1800
;WIPE_START
G1 F3000
G1 X179.175 Y163.702 E-.09
;WIPE_END
G1 Z.6 F21000
G1 X179.036 Y164.115 Z.6
G1 X180.841 Y166.224
G1 Z.2
G1 E.3 F1800
;TYPE:Bottom surface
;WIDTH:0.5023
G1 F3000
G1 X182.515 Y167.898 E.08407
G1 X183.232 Y168.742 E.03936
G1 X183.861 Y169.669 E.03978
G1 X184.113 Y170.146 E.01918
G1 X179.821 Y165.853 E.21565
G1 X178.827 Y165.394 E.03889
G1 X178.653 Y165.335 E.00655
G1 X184.656 Y171.338 E.30158
G1 X184.799 Y171.698 E.01378
G1 X184.966 Y172.298 E.0221
G1 X177.687 Y165.019 E.36566
G1 X176.856 Y164.837 E.03024
G1 X185.158 Y173.14 E.41711
G1 X185.282 Y173.913 E.02781
G1 X176.102 Y164.733 E.46115
G1 X175.56 Y164.674 E.01939
G1 X175.394 Y164.674 E.0059
G1 X185.319 Y174.6 E.49863
G1 X185.341 Y175 E.01424
G1 X185.327 Y175.257 E.00915
G1 X174.744 Y164.674 E.53166
G1 X174.44 Y164.674 E.0108
G1 X174.128 Y164.708 E.01114
G1 X185.293 Y175.873 E.56091
G1 X185.28 Y176.118 E.0087
G1 X185.225 Y176.455 E.01212
G1 X173.542 Y164.772 E.58691
G1 X173.327 Y164.795 E.0077
G1 X172.99 Y164.87 E.01225
G1 X185.133 Y177.013 E.61005
G1 X185.099 Y177.223 E.00757
G1 X185.011 Y177.54 E.01169
G1 X172.458 Y164.987 E.63065
G1 X172.234 Y165.036 E.00816
G1 X171.952 Y165.131 E.01054
G1 X184.87 Y178.048 E.64895
G1 X184.799 Y178.302 E.00934
G1 X184.707 Y178.535 E.00891
G1 X171.466 Y165.295 E.66516
G1 X171.173 Y165.394 E.01102
G1 X170.997 Y165.475 E.00687
G1 X184.521 Y178.999 E.67945
G1 X184.326 Y179.453 E.01756
M73 P1 R11
G1 X170.553 Y165.68 E.69194
G1 X170.113 Y165.89 E.01731
G1 X184.101 Y179.878 E.70273
G1 X183.876 Y180.303 E.01707
G1 X169.707 Y166.134 E.7118
M73 P2 R11
G1 X169.302 Y166.378 E.01682
G1 X183.616 Y180.692 E.71912
G1 X183.353 Y181.079 E.01662
G1 X168.923 Y166.649 E.72495
G1 X168.554 Y166.93 E.01647
G1 X183.071 Y181.447 E.72933
G1 X182.773 Y181.799 E.01637
G1 X168.196 Y167.222 E.7323
G1 X167.863 Y167.538 E.01632
G1 X182.471 Y182.146 E.73388
G1 X182.137 Y182.462 E.01632
G1 X167.529 Y167.854 E.73388
G1 X167.227 Y168.201 E.01636
G1 X181.803 Y182.778 E.7323
G1 X181.446 Y183.07 E.0164
G1 X166.929 Y168.553 E.72933
G1 X166.768 Y168.742 E.00882
G1 X166.647 Y168.921 E.00766
G1 X181.077 Y183.351 E.72495
G1 X180.698 Y183.622 E.01654
G1 X166.384 Y169.308 E.71912
G1 X166.124 Y169.697 E.01664
G1 X180.293 Y183.866 E.7118
G1 X179.887 Y184.11 E.01682
G1 X165.899 Y170.122 E.70273
G1 X165.674 Y170.547 E.01707
G1 X179.447 Y184.32 E.69193
G1 X179.003 Y184.525 E.01739
G1 X165.478 Y171.001 E.67945
G1 X165.293 Y171.465 E.01776
M73 P3 R11
G1 X178.534 Y184.705 E.66516
G1 X178.048 Y184.869 E.01822
G1 X165.13 Y171.952 E.64895
G1 X164.989 Y172.46 E.01875
G1 X177.542 Y185.013 E.63064
G1 X177.01 Y185.13 E.01937
G1 X164.867 Y172.987 E.61005
G1 X164.775 Y173.546 E.02009
G1 X176.457 Y185.228 E.58691
G1 X175.872 Y185.292 E.02094
G1 X164.707 Y174.127 E.56091
G1 X164.673 Y174.743 E.02192
G1 X175.256 Y185.326 E.53165
G1 X174.606 Y185.326 E.02308
G1 X164.681 Y175.4 E.49862
G1 X164.718 Y176.087 E.02444
G1 X173.897 Y185.267 E.46115
G1 X173.327 Y185.205 E.02038
G1 X173.146 Y185.165 E.00659
G1 X164.842 Y176.86 E.41719
G1 X164.901 Y177.223 E.01305
G1 X165.034 Y177.703 E.01768
G1 X172.313 Y184.981 E.36567
G1 X171.347 Y184.665 E.0361
G1 X165.344 Y178.662 E.30157
G1 X165.615 Y179.342 E.02599
G1 X165.887 Y179.854 E.02061
G1 X170.179 Y184.147 E.21563
G1 X169.197 Y183.559 E.04065
G1 X168.306 Y182.881 E.03977
G1 X167.516 Y182.133 E.03863
G1 X166.264 Y180.881 E.0629
; stop printing object Part 1 id:0 copy 0
;LAYER_CHANGE
;Z:0.4
;HEIGHT:0.2
;BEFORE_LAYER_CHANGE
;0.4
G92 E0

G1 E-.21 F1800
;WIPE_START
G1 F3000
G1 X166.971 Y181.589 E-.09
;WIPE_END
EXCLUDE_OBJECT_END NAME=Part_1_id_0_copy_0
;AFTER_LAYER_CHANGE
;0.4
;_SET_FAN_SPEED_CHANGING_LAYER
SET_VELOCITY_LIMIT ACCEL=5000 ACCEL_TO_DECEL=2500
M140 S100 ; set bed temperature
; printing object Part 1 id:0 copy 0
SET_VELOCITY_LIMIT ACCEL=7000 ACCEL_TO_DECEL=3500 SQUARE_CORNER_VELOCITY=12
EXCLUDE_OBJECT_START NAME=Part_1_id_0_copy_0
G1 Z.8 F21000
G1 X177.954 Y164.368 Z.8
G1 Z.4
G1 E.3 F1800
SET_VELOCITY_LIMIT ACCEL=5000 ACCEL_TO_DECEL=2500 SQUARE_CORNER_VELOCITY=7
;TYPE:Inner wall
;WIDTH:0.399999
G1 F3000
G1 X179.084 Y164.749 E.03292
G1 X180.169 Y165.251 E.03299
G1 X181.192 Y165.867 E.03299
G1 X182.144 Y166.59 E.03299
G1 X183.011 Y167.412 E.03299
G1 X183.785 Y168.322 E.03299
G1 X184.455 Y169.311 E.03299
G1 X185.015 Y170.367 E.03299
G1 X185.457 Y171.477 E.03299
G1 X185.777 Y172.628 E.03299
G1 X185.97 Y173.807 E.03299
G1 X186.035 Y175 E.03299
G1 X185.97 Y176.193 E.03299
G1 X185.777 Y177.372 E.03299
G1 X185.457 Y178.523 E.03299
G1 X185.015 Y179.633 E.03299
G1 X184.455 Y180.689 E.03299
G1 X183.785 Y181.678 E.03299
G1 X183.011 Y182.588 E.03299
G1 X182.144 Y183.41 E.03299
G1 X181.192 Y184.133 E.03299
G1 X180.169 Y184.749 E.03299
G1 X179.084 Y185.251 E.03299
G1 X177.952 Y185.632 E.03299
G1 X176.785 Y185.889 E.03299
G1 X175.597 Y186.018 E.03299
G1 X174.403 Y186.018 E.03299
G1 X173.215 Y185.889 E.03299
G1 X172.048 Y185.632 E.03299
G1 X170.916 Y185.251 E.03299
G1 X169.831 Y184.749 E.03299
G1 X168.808 Y184.133 E.03299
G1 X167.856 Y183.41 E.03299
G1 X166.989 Y182.588 E.03299
G1 X166.215 Y181.678 E.03299
G1 X165.545 Y180.689 E.03299
G1 X164.985 Y179.633 E.03299
G1 X164.543 Y178.523 E.03299
G1 X164.223 Y177.372 E.03299
G1 X164.03 Y176.193 E.03299
G1 X163.965 Y175 E.03299
G1 X164.03 Y173.807 E.03299
G1 X164.223 Y172.628 E.03299
G1 X164.543 Y171.477 E.03299
G1 X164.985 Y170.367 E.03299
G1 X165.545 Y169.311 E.03299
G1 X166.215 Y168.322 E.03299
G1 X166.989 Y167.412 E.03299
G1 X167.856 Y166.59 E.03299
G1 X168.808 Y165.867 E.03299
G1 X169.831 Y165.251 E.03299
G1 X170.916 Y164.749 E.03299
G1 X172.048 Y164.368 E.03299
G1 X173.215 Y164.111 E.03299
G1 X174.403 Y163.982 E.03299
G1 X175.597 Y163.982 E.03299
G1 X176.738 Y164.106 E.03168
G1 X177.915 Y164.36 E.03326
SET_VELOCITY_LIMIT ACCEL=7000 ACCEL_TO_DECEL=3500 SQUARE_CORNER_VELOCITY=12
G1 X178.057 Y164.026 F21000
SET_VELOCITY_LIMIT ACCEL=5000 ACCEL_TO_DECEL=2500 SQUARE_CORNER_VELOCITY=7
G1 F3000
G1 X179.217 Y164.417 E.03378
G1 X180.336 Y164.935 E.03406
G1 X181.393 Y165.571 E.03406
G1 X182.375 Y166.317 E.03406
G1 X183.271 Y167.166 E.03406
G1 X184.069 Y168.106 E.03406
G1 X184.761 Y169.127 E.03406
G1 X185.339 Y170.217 E.03406
M73 P4 R11
G1 X185.796 Y171.362 E.03406
G1 X186.126 Y172.551 E.03406
G1 X186.325 Y173.768 E.03406
G1 X186.392 Y175 E.03406
G1 X186.325 Y176.232 E.03406
G1 X186.126 Y177.449 E.03406
G1 X185.796 Y178.638 E.03406
G1 X185.339 Y179.783 E.03406
G1 X184.761 Y180.873 E.03406
G1 X184.069 Y181.894 E.03406
G1 X183.271 Y182.834 E.03406
G1 X182.375 Y183.683 E.03406
G1 X181.393 Y184.429 E.03406
G1 X180.336 Y185.065 E.03406
G1 X179.217 Y185.583 E.03406
G1 X178.048 Y185.977 E.03406
