; HEADER_BLOCK_START
; generated by OrcaSlicer 2.3.1-dev on 2025-08-05 at 13:46:32
; total layer number: 230
; filament_density: 1.22
; filament_diameter: 1.75
; max_z_height: 46.00
; HEADER_BLOCK_END

; THUMBNAIL_BLOCK_START

;
; THUMBNAIL_BLOCK_END

; THUMBNAIL_BLOCK_START

;
; THUMBNAIL_BLOCK_END

; external perimeters extrusion width = 0.40mm
; perimeters extrusion width = 0.40mm
; infill extrusion width = 0.45mm
; solid infill extrusion width = 0.40mm
; top infill extrusion width = 0.40mm
; first layer extrusion width = 0.50mm

; EXECUTABLE_BLOCK_START
EXCLUDE_OBJECT_DEFINE NAME=TFT70V2_Stand.stl_id_0_copy_0 CENTER=175,175 POLYGON=[[157.5,166.493],[157.514,166.127],[157.555,165.764],[157.624,165.405],[157.72,165.053],[157.843,164.71],[157.99,164.378],[158.163,164.059],[158.359,163.754],[158.578,163.467],[158.818,163.199],[172.5,150.044],[177.5,150.044],[191.182,163.199],[191.422,163.467],[191.641,163.754],[191.837,164.059],[192.01,164.378],[192.157,164.71],[192.28,165.053],[192.376,165.405],[192.445,165.764],[192.486,166.127],[192.5,166.493],[192.5,199.956],[157.5,199.956],[157.5,166.493]]
M73 P0 R23
;TYPE:Custom
M190 S45
M109 S210
PRINT_START EXTRUDER=210 BED=45
; You can use following code instead if your PRINT_START macro support Chamber and print area bedmesh
; PRINT_START EXTRUDER=210 BED=45 Chamber=0 PRINT_MIN=155.5,160.343 PRINT_MAX=194.5,201.856
G90
G21
M83 ; use relative distances for extrusion
; Filament gcode
SET_PRESSURE_ADVANCE ADVANCE=0.02; Override pressure advance value
M106 S0
;LAYER_CHANGE
;Z:0.2
;HEIGHT:0.2
;BEFORE_LAYER_CHANGE
;0.2
G92 E0

G1 E-.8 F1800
;AFTER_LAYER_CHANGE
;0.2
;_SET_FAN_SPEED_CHANGING_LAYER
SET_VELOCITY_LIMIT ACCEL=500 ACCEL_TO_DECEL=250
SET_VELOCITY_LIMIT SQUARE_CORNER_VELOCITY=9
; printing object TFT70V2 Stand.stl id:0 copy 0
EXCLUDE_OBJECT_START NAME=TFT70V2_Stand.stl_id_0_copy_0
G1 Z.6 F21000
G1 X191.336 Y198.692
G1 Z.6
G1 Z.2
G1 E.8 F1800
;TYPE:Inner wall
;WIDTH:0.499999
G1 F3000
G1 X158.664 Y198.692 E1.17964
G1 X158.664 Y167.046 E1.14261
G1 X158.709 Y166.45 E.02158
G1 X158.834 Y165.912 E.01993
G1 X159.038 Y165.403 E.01981
G1 X159.315 Y164.934 E.01964
G1 X159.658 Y164.519 E.01946
G1 X160.045 Y164.176 E.01865
G1 X160.503 Y163.883 E.01965
G1 X160.982 Y163.678 E.01879
G1 X161.485 Y163.553 E.01872
G1 X162.047 Y163.507 E.02036
G1 X188.011 Y163.511 E.93745
G1 X188.593 Y163.573 E.02114
G1 X189.093 Y163.71 E.01873
G1 X189.566 Y163.927 E.01879
G1 X190.001 Y164.218 E.01889
G1 X190.39 Y164.577 E.01909
G1 X190.721 Y164.995 E.01926
G1 X190.986 Y165.463 E.01942
G1 X191.179 Y165.97 E.0196
G1 X191.295 Y166.502 E.01966
G1 X191.336 Y167.068 E.0205
G1 X191.336 Y198.652 E1.14035
G1 X191.793 Y199.149 F21000
G1 F3000
G1 X158.207 Y199.149 E1.21265
G1 X158.207 Y167.028 E1.15974
G1 X158.256 Y166.38 E.02346
G1 X158.397 Y165.775 E.02245
G1 X158.627 Y165.2 E.02234
G1 X158.94 Y164.671 E.0222
G1 X159.328 Y164.2 E.02204
G1 X159.768 Y163.81 E.02123
G1 X160.289 Y163.478 E.02229
G1 X160.835 Y163.244 E.02148
G1 X161.411 Y163.101 E.0214
G1 X162.028 Y163.05 E.02237
G1 X187.756 Y163.051 E.92892
G1 X188.348 Y163.081 E.0214
G1 X188.828 Y163.16 E.01757
G1 X189.358 Y163.327 E.02007
G1 X189.811 Y163.541 E.0181
G1 X190.304 Y163.875 E.0215
G1 X190.742 Y164.286 E.02167
G1 X191.148 Y164.82 E.02421
G1 X191.41 Y165.293 E.01954
G1 X191.625 Y165.867 E.02211
G1 X191.75 Y166.467 E.02216
G1 X191.793 Y167.068 E.02175
G1 X191.793 Y199.109 E1.15685
G1 X192.25 Y199.606 F21000
;TYPE:Outer wall
G1 F3000
G1 X157.75 Y199.606 E1.24566
G1 X157.75 Y167.011 E1.17687
G1 X157.803 Y166.311 E.02534
G1 X157.959 Y165.637 E.02497
G1 X158.215 Y164.998 E.02488
G1 X158.565 Y164.408 E.02476
G1 X158.998 Y163.882 E.02461
G1 X159.492 Y163.444 E.02382
G1 X160.074 Y163.073 E.02494
G1 X160.689 Y162.809 E.02416
G1 X161.337 Y162.648 E.02408
G1 X162.01 Y162.593 E.02439
G1 X188.008 Y162.594 E.93868
G1 X188.663 Y162.648 E.02375
G1 X189.311 Y162.809 E.02408
G1 X189.926 Y163.073 E.02417
G1 X190.494 Y163.433 E.0243
G1 X191.002 Y163.882 E.02445
G1 X191.435 Y164.408 E.02461
G1 X191.716 Y164.881 E.01988
G1 X191.901 Y165.289 E.01616
G1 X192.07 Y165.763 E.01818
G1 X192.206 Y166.433 E.02466
G1 X192.25 Y167.068 E.023
G1 X192.25 Y199.566 E1.17335
G1 E-.56 F1800
;WIPE_START
G1 F3000
G1 X191.25 Y199.567 E-.24
;WIPE_END
G1 Z.6 F21000
G1 X190.29 Y167.6 Z.6
G1 Z.2
G1 E.8 F1800
;TYPE:Inner wall
G1 F3000
G1 X190.404 Y168.221 E.0228
G1 X190.404 Y168.519 E.01077
G1 X190.337 Y169.026 E.01846
G1 X190.09 Y169.693 E.02568
G1 X189.659 Y170.318 E.02741
G1 X189.081 Y170.811 E.02741
G1 X188.396 Y171.137 E.02741
G1 X187.649 Y171.274 E.02741
G1 X187.351 Y171.274 E.01077
G1 X186.733 Y171.181 E.02254
G1 X186.177 Y170.96 E.02163
G1 X185.919 Y170.811 E.01077
G1 X185.52 Y170.504 E.01816
G1 X185.059 Y169.951 E.02597
G1 X184.91 Y169.693 E.01077
G1 X184.702 Y169.183 E.01989
G1 X184.586 Y168.38 E.02929
G1 X184.656 Y167.762 E.02244
G1 X184.91 Y167.047 E.02741
G1 X185.341 Y166.422 E.02741
G1 X185.919 Y165.929 E.02741
G1 X186.604 Y165.603 E.02741
G1 X186.89 Y165.526 E.0107
G1 X187.489 Y165.456 E.02174
G1 X188.102 Y165.525 E.0223
G1 X188.396 Y165.603 E.01096
G1 X188.908 Y165.819 E.02006
G1 X189.395 Y166.17 E.02168
G1 X189.659 Y166.422 E.01317
G1 X190.018 Y166.903 E.02168
G1 X190.267 Y167.474 E.02249
G1 X190.283 Y167.56 E.00317
G1 X189.816 Y167.582 F21000
G1 F3000
G1 X189.845 Y167.649 E.00262
G1 X189.951 Y168.28 E.02312
G1 X189.891 Y168.918 E.02312
G1 X189.668 Y169.518 E.02312
G1 X189.297 Y170.04 E.02312
G1 X188.803 Y170.448 E.02312
G1 X188.221 Y170.715 E.02312
G1 X187.589 Y170.821 E.02312
G1 X186.952 Y170.761 E.02312
G1 X186.352 Y170.538 E.02312
G1 X185.83 Y170.167 E.02312
G1 X185.422 Y169.673 E.02312
G1 X185.155 Y169.091 E.02312
G1 X185.043 Y168.376 E.02613
G1 X185.109 Y167.822 E.02014
G1 X185.332 Y167.222 E.02312
G1 X185.703 Y166.7 E.02312
G1 X186.197 Y166.292 E.02312
G1 X186.779 Y166.025 E.02312
G1 X187.398 Y165.92 E.02267
G1 X188.045 Y165.979 E.02345
G1 X188.648 Y166.202 E.02323
G1 X189.117 Y166.533 E.02071
G1 X189.297 Y166.7 E.00886
G1 X189.625 Y167.136 E.01969
G1 X189.8 Y167.546 E.01611
G1 X189.396 Y167.762 F21000
;TYPE:Outer wall
G1 F3000
G1 X189.422 Y167.824 E.00242
G1 X189.498 Y168.34 E.01884
G1 X189.438 Y168.858 E.01884
G1 X189.245 Y169.343 E.01884
G1 X188.934 Y169.762 E.01884
G1 X188.525 Y170.085 E.01884
G1 X188.046 Y170.292 E.01884
G1 X187.53 Y170.368 E.01884
G1 X187.012 Y170.308 E.01884
G1 X186.527 Y170.115 E.01884
G1 X186.108 Y169.804 E.01884
G1 X185.785 Y169.395 E.01883
G1 X185.578 Y168.916 E.01884
G1 X185.502 Y168.34 E.02097
G1 X185.578 Y167.824 E.01884
G1 X185.785 Y167.345 E.01884
G1 X186.108 Y166.936 E.01884
G1 X186.527 Y166.625 E.01884
G1 X187.002 Y166.434 E.01849
G1 X187.517 Y166.372 E.01873
G1 X188.014 Y166.437 E.01807
G1 X188.49 Y166.632 E.0186
G1 X188.892 Y166.936 E.01818
G1 X189.215 Y167.345 E.01884
G1 X189.38 Y167.726 E.01497
G1 E-.56 F1800
;WIPE_START
G1 F3000
G1 X189.422 Y167.824 E-.02567
G1 X189.498 Y168.34 E-.1252
G1 X189.455 Y168.709 E-.08913
;WIPE_END
G1 Z.6 F21000
G1 X185.292 Y191.491 Z.6
G1 Z.2
G1 E.8 F1800
;TYPE:Inner wall
G1 F3000
G1 X185.341 Y191.422 E.00307
G1 X185.552 Y191.211 E.01077
G1 X185.98 Y190.885 E.01941
G1 X186.604 Y190.603 E.02474
G1 X186.89 Y190.526 E.0107
G1 X187.475 Y190.457 E.02126
G1 X188.102 Y190.525 E.02278
G1 X188.823 Y190.78 E.0276
G1 X189.448 Y191.211 E.02741
G1 X189.941 Y191.789 E.02741
G1 X190.267 Y192.474 E.02741
G1 X190.404 Y193.221 E.02741
G1 X190.404 Y193.519 E.01077
G1 X190.337 Y194.026 E.01846
G1 X190.09 Y194.693 E.02568
G1 X189.659 Y195.318 E.02741
G1 X189.081 Y195.811 E.02741
G1 X188.823 Y195.96 E.01077
G1 X188.156 Y196.207 E.02568
G1 X187.649 Y196.274 E.01846
G1 X187.351 Y196.274 E.01077
G1 X186.604 Y196.137 E.02741
G1 X185.919 Y195.811 E.02741
G1 X185.341 Y195.318 E.02741
G1 X184.91 Y194.693 E.02741
G1 X184.683 Y194.117 E.02236
G1 X184.596 Y193.519 E.02182
M73 P1 R23
G1 X184.596 Y193.221 E.01077
G1 X184.676 Y192.653 E.02071
G1 X184.933 Y191.996 E.02548
G1 X185.268 Y191.524 E.02091
G1 X185.668 Y191.747 F21000
G1 F3000
G1 X185.703 Y191.7 E.00212
G1 X186.197 Y191.292 E.02312
G1 X186.779 Y191.025 E.02312
G1 X187.398 Y190.92 E.02267
G1 X188.045 Y190.979 E.02345
G1 X188.648 Y191.202 E.02323
G1 X189.17 Y191.573 E.02312
G1 X189.578 Y192.067 E.02312
G1 X189.845 Y192.649 E.02312
G1 X189.951 Y193.28 E.02312
G1 X189.891 Y193.918 E.02312
G1 X189.668 Y194.518 E.02312
G1 X189.297 Y195.04 E.02312
G1 X188.803 Y195.448 E.02312
G1 X188.221 Y195.715 E.02312
G1 X187.589 Y195.821 E.02312
G1 X186.952 Y195.761 E.02312
G1 X186.352 Y195.538 E.02312
G1 X185.83 Y195.167 E.02312
G1 X185.422 Y194.673 E.02312
G1 X185.155 Y194.091 E.02312
G1 X185.049 Y193.459 E.02312
G1 X185.109 Y192.822 E.02312
G1 X185.361 Y192.162 E.02549
G1 X185.645 Y191.779 E.01721
G1 X186.036 Y192.019 F21000
;TYPE:Outer wall
G1 F3000
G1 X186.081 Y191.961 E.00268
G1 X186.481 Y191.65 E.01828
G1 X186.954 Y191.448 E.01858
G1 X187.458 Y191.373 E.01841
G1 X187.987 Y191.432 E.01922
G1 X188.473 Y191.625 E.01887
G1 X188.892 Y191.936 E.01884
G1 X189.215 Y192.345 E.01884
G1 X189.422 Y192.824 E.01884
G1 X189.498 Y193.34 E.01884
G1 X189.438 Y193.858 E.01884
G1 X189.245 Y194.343 E.01884
G1 X188.934 Y194.762 E.01884
G1 X188.525 Y195.085 E.01884
G1 X188.046 Y195.292 E.01884
G1 X187.53 Y195.368 E.01884
G1 X187.012 Y195.308 E.01884
G1 X186.527 Y195.115 E.01883
G1 X186.108 Y194.804 E.01884
G1 X185.785 Y194.395 E.01884
G1 X185.578 Y193.916 E.01884
G1 X185.502 Y193.4 E.01884
G1 X185.562 Y192.882 E.01884
G1 X185.774 Y192.36 E.02034
G1 X186.011 Y192.051 E.01405
G1 E-.56 F1800
;WIPE_START
G1 F3000
G1 X186.081 Y191.961 E-.02742
G1 X186.481 Y191.65 E-.12154
G1 X186.83 Y191.501 E-.09104
;WIPE_END
G1 Z.6 F21000
G1 X163.432 Y196.105 Z.6
G1 Z.2
G1 E.8 F1800
;TYPE:Inner wall
G1 F3000
G1 X163.156 Y196.207 E.01062
G1 X162.649 Y196.274 E.01846
G1 X162.351 Y196.274 E.01077
G1 X161.604 Y196.137 E.02741
G1 X161.006 Y195.871 E.02365
G1 X160.552 Y195.529 E.02052
G1 X160.059 Y194.951 E.02741
G1 X159.733 Y194.266 E.02741
G1 X159.656 Y193.978 E.01077
G1 X159.586 Y193.37 E.02209
G1 X159.656 Y192.762 E.02209
G1 X159.91 Y192.047 E.02741
G1 X160.341 Y191.422 E.02741
G1 X160.919 Y190.929 E.02741
G1 X161.604 Y190.603 E.02741
G1 X162.337 Y190.467 E.02693
G1 X162.632 Y190.466 E.01064
G1 X163.264 Y190.558 E.02307
G1 X163.823 Y190.78 E.02171
G1 X164.081 Y190.929 E.01077
G1 X164.48 Y191.236 E.01817
G1 X164.941 Y191.789 E.02597
G1 X165.267 Y192.474 E.02741
G1 X165.344 Y192.762 E.01077
G1 X165.414 Y193.36 E.02173
G1 X165.344 Y193.978 E.02244
G1 X165.267 Y194.266 E.01077
G1 X164.941 Y194.951 E.02741
G1 X164.448 Y195.529 E.02741
G1 X163.823 Y195.96 E.02741
G1 X163.469 Y196.091 E.01362
G1 X163.311 Y195.673 F21000
G1 F3000
G1 X163.221 Y195.715 E.00357
G1 X162.589 Y195.821 E.02312
G1 X161.952 Y195.761 E.02312
G1 X161.352 Y195.538 E.02312
G1 X160.83 Y195.167 E.02312
G1 X160.422 Y194.673 E.02312
G1 X160.155 Y194.091 E.02312
G1 X160.049 Y193.459 E.02312
G1 X160.109 Y192.822 E.02312
G1 X160.332 Y192.222 E.02312
G1 X160.703 Y191.7 E.02312
G1 X161.197 Y191.292 E.02312
G1 X161.779 Y191.025 E.02312
G1 X162.398 Y190.92 E.02267
G1 X163.045 Y190.979 E.02345
G1 X163.648 Y191.202 E.02323
G1 X164.17 Y191.573 E.02312
G1 X164.578 Y192.067 E.02312
G1 X164.845 Y192.649 E.02312
G1 X164.951 Y193.28 E.02312
G1 X164.891 Y193.918 E.02312
G1 X164.668 Y194.518 E.02312
G1 X164.297 Y195.04 E.02312
G1 X163.803 Y195.448 E.02312
G1 X163.347 Y195.657 E.01811
G1 X163.121 Y195.26 F21000
;TYPE:Outer wall
G1 F3000
G1 X163.046 Y195.292 E.00294
G1 X162.53 Y195.368 E.01884
G1 X162.012 Y195.308 E.01884
G1 X161.527 Y195.115 E.01883
G1 X161.108 Y194.804 E.01884
G1 X160.785 Y194.395 E.01884
G1 X160.578 Y193.916 E.01884
G1 X160.502 Y193.4 E.01884
G1 X160.562 Y192.882 E.01884
G1 X160.755 Y192.397 E.01884
G1 X161.066 Y191.978 E.01884
G1 X161.475 Y191.654 E.01884
G1 X161.954 Y191.448 E.01884
G1 X162.458 Y191.373 E.01841
G1 X162.987 Y191.432 E.01922
G1 X163.473 Y191.625 E.01887
G1 X163.892 Y191.936 E.01884
G1 X164.215 Y192.345 E.01883
G1 X164.422 Y192.824 E.01884
G1 X164.498 Y193.34 E.01884
G1 X164.438 Y193.858 E.01884
G1 X164.245 Y194.343 E.01884
G1 X163.934 Y194.762 E.01884
G1 X163.525 Y195.085 E.01884
G1 X163.158 Y195.244 E.01445
G1 E-.56 F1800
;WIPE_START
G1 F3000
G1 X163.046 Y195.292 E-.02916
G1 X162.53 Y195.368 E-.1252
G1 X162.175 Y195.327 E-.08564
;WIPE_END
G1 Z.6 F21000
G1 X161.677 Y165.583 Z.6
G1 Z.2
G1 E.8 F1800
;TYPE:Inner wall
G1 F3000
G1 X161.89 Y165.526 E.00796
G1 X162.489 Y165.456 E.02174
G1 X163.102 Y165.525 E.0223
G1 X163.823 Y165.78 E.0276
G1 X164.448 Y166.211 E.02741
G1 X164.941 Y166.789 E.02741
G1 X165.267 Y167.474 E.02741
G1 X165.404 Y168.221 E.02741
G1 X165.404 Y168.519 E.01077
G1 X165.324 Y169.087 E.02071
G1 X165.09 Y169.693 E.02345
G1 X164.941 Y169.951 E.01077
G1 X164.634 Y170.35 E.01817
G1 X164.081 Y170.811 E.02597
G1 X163.823 Y170.96 E.01077
G1 X163.267 Y171.181 E.02163
G1 X162.649 Y171.274 E.02254
G1 X162.351 Y171.274 E.01077
G1 X161.604 Y171.137 E.02741
G1 X161.177 Y170.96 E.0167
G1 X160.552 Y170.529 E.02741
G1 X160.059 Y169.951 E.02741
G1 X159.733 Y169.266 E.02741
G1 X159.656 Y168.978 E.01077
G1 X159.586 Y168.37 E.02209
G1 X159.656 Y167.762 E.02209
G1 X159.91 Y167.047 E.02741
G1 X160.191 Y166.617 E.01855
G1 X160.552 Y166.211 E.01961
G1 X161.086 Y165.823 E.02384
G1 X161.604 Y165.603 E.02033
G1 X161.639 Y165.594 E.00129
G1 X161.72 Y166.052 F21000
G1 F3000
G1 X161.779 Y166.025 E.00234
G1 X162.279 Y165.935 E.01833
G1 X162.575 Y165.919 E.0107
G1 X163.221 Y166.025 E.02364
G1 X163.803 Y166.292 E.02312
G1 X164.297 Y166.7 E.02312
G1 X164.668 Y167.222 E.02312
G1 X164.891 Y167.822 E.02312
G1 X164.957 Y168.376 E.02014
G1 X164.891 Y168.918 E.01972
G1 X164.668 Y169.518 E.02312
G1 X164.297 Y170.04 E.02312
M73 P1 R22
G1 X163.803 Y170.448 E.02312
G1 X163.221 Y170.715 E.02312
G1 X162.589 Y170.821 E.02312
G1 X161.952 Y170.761 E.02312
G1 X161.352 Y170.538 E.02312
G1 X160.83 Y170.167 E.02312
G1 X160.422 Y169.673 E.02312
G1 X160.155 Y169.091 E.02312
G1 X160.049 Y168.459 E.02312
G1 X160.109 Y167.822 E.02312
G1 X160.332 Y167.222 E.02312
G1 X160.703 Y166.7 E.02312
G1 X161.196 Y166.292 E.02309
G1 X161.684 Y166.069 E.01936
G1 X161.91 Y166.466 F21000
;TYPE:Outer wall
G1 F3000
G1 X161.954 Y166.448 E.00171
G1 X162.458 Y166.373 E.01841
G1 X162.987 Y166.432 E.01922
G1 X163.473 Y166.625 E.01887
G1 X163.892 Y166.936 E.01884
G1 X164.215 Y167.345 E.01884
G1 X164.422 Y167.824 E.01884
G1 X164.498 Y168.34 E.01884
G1 X164.438 Y168.858 E.01884
G1 X164.245 Y169.343 E.01884
G1 X163.934 Y169.762 E.01883
G1 X163.525 Y170.085 E.01884
G1 X163.046 Y170.292 E.01884
G1 X162.53 Y170.368 E.01884
G1 X162.012 Y170.308 E.01884
G1 X161.527 Y170.115 E.01884
G1 X161.108 Y169.804 E.01884
G1 X160.785 Y169.395 E.01884
G1 X160.578 Y168.916 E.01884
G1 X160.502 Y168.4 E.01884
G1 X160.562 Y167.882 E.01884
G1 X160.755 Y167.397 E.01884
G1 X161.066 Y166.978 E.01884
G1 X161.475 Y166.655 E.01881
G1 X161.874 Y166.482 E.0157
G1 E-.56 F1800
;WIPE_START
G1 F3000
G1 X161.954 Y166.448 E-.021
G1 X162.458 Y166.373 E-.12235
G1 X162.858 Y166.418 E-.09665
;WIPE_END
G1 Z.6 F21000
G1 X188.367 Y163.678 Z.6
G1 Z.2
G1 E.8 F1800
;TYPE:Bottom surface
;WIDTH:0.501209
G1 F6000
G1 X190.878 Y166.189 E.12856
G1 X190.951 Y166.502 E.01161
G1 X190.984 Y166.944 E.01604
G1 X187.892 Y163.851 E.15834
G1 X187.243 Y163.851 E.02346
G1 X188.792 Y165.4 E.07929
G1 X189.065 Y165.514 E.01072
G1 X189.286 Y165.654 E.00946
G1 X189.661 Y165.942 E.0171
G1 X189.845 Y166.11 E.00903
G1 X190.314 Y166.729 E.02811
G1 X190.465 Y167.072 E.01358
G1 X191.199 Y167.806 E.03757
G1 X190.476 Y167.731 F21000
G1 F6000
G1 X190.993 Y168.249 E.02649
G1 X190.993 Y168.897 E.02346
G1 X190.727 Y168.631 E.0136
G1 X190.674 Y169.088 E.01666
G1 X190.643 Y169.195 E.00402
G1 X190.993 Y169.545 E.01792
G1 X190.993 Y170.193 E.02346
G1 X190.47 Y169.67 E.02676
G1 X190.404 Y169.831 E.0063
G1 X190.25 Y170.098 E.01115
G1 X190.993 Y170.841 E.03805
G1 X190.993 Y171.489 E.02346
G1 X189.974 Y170.471 E.05215
G1 X189.657 Y170.801 E.01659
G1 X190.993 Y172.137 E.0684
G1 X190.993 Y172.785 E.02346
G1 X189.29 Y171.083 E.08718
G1 X188.871 Y171.311 E.0173
G1 X190.993 Y173.433 E.10866
