; HEADER_BLOCK_START
; generated by OrcaSlicer 2.3.1-dev on 2025-08-04 at 15:19:19
; total layer number: 100
; filament_density: 1.02
; filament_diameter: 1.75
; max_z_height: 20.00
; HEADER_BLOCK_END

; THUMBNAIL_BLOCK_START

;
; THUMBNAIL_BLOCK_END

; THUMBNAIL_BLOCK_START

;
; THUMBNAIL_BLOCK_END

; external perimeters extrusion width = 0.40mm
; perimeters extrusion width = 0.40mm
; infill extrusion width = 0.45mm
; solid infill extrusion width = 0.40mm
; top infill extrusion width = 0.40mm
; first layer extrusion width = 0.50mm

; EXECUTABLE_BLOCK_START
EXCLUDE_OBJECT_DEFINE NAME=a__wago_221_2x_mount_5_conductor_24VDC_x1_rev1.STL_id_0_copy_0 CENTER=172.335,174.532 POLYGON=[[125.1,181.657],[125.116,181.483],[125.161,181.315],[125.234,181.157],[125.334,181.014],[139.619,163.764],[139.743,163.641],[139.885,163.541],[140.043,163.467],[140.212,163.422],[140.385,163.407],[204.285,163.407],[204.459,163.422],[204.627,163.467],[204.785,163.541],[204.928,163.641],[205.051,163.764],[219.336,181.014],[219.436,181.157],[219.51,181.315],[219.555,181.483],[219.57,181.657],[219.57,184.657],[219.555,184.83],[219.51,184.999],[219.436,185.157],[219.336,185.299],[219.213,185.423],[219.07,185.523],[218.912,185.596],[218.744,185.641],[218.57,185.657],[126.1,185.657],[125.927,185.641],[125.758,185.596],[125.6,185.523],[125.458,185.423],[125.334,185.299],[125.234,185.157],[125.161,184.999],[125.116,184.83],[125.1,184.657],[125.1,181.657]]
M73 P0 R54
;TYPE:Custom
M190 S100
M109 S250
PRINT_START EXTRUDER=250 BED=100
; You can use following code instead if your PRINT_START macro support Chamber and print area bedmesh
; PRINT_START EXTRUDER=250 BED=100 Chamber=0 PRINT_MIN=119.347,157.593 PRINT_MAX=224.991,191.358
G90
G21
M83 ; use relative distances for extrusion
; Filament gcode
SET_PRESSURE_ADVANCE ADVANCE=0.045; Override pressure advance value
M106 S0
;LAYER_CHANGE
;Z:0.2
;HEIGHT:0.2
;BEFORE_LAYER_CHANGE
;0.2
G92 E0

G1 E-.3 F1800
;AFTER_LAYER_CHANGE
;0.2
;_SET_FAN_SPEED_CHANGING_LAYER
SET_VELOCITY_LIMIT ACCEL=500 ACCEL_TO_DECEL=250
SET_VELOCITY_LIMIT SQUARE_CORNER_VELOCITY=9
; printing object [a]_wago_221_2x_mount_5_conductor_24VDC_x1_rev1.STL id:0 copy 0
EXCLUDE_OBJECT_START NAME=a__wago_221_2x_mount_5_conductor_24VDC_x1_rev1.STL_id_0_copy_0
G1 Z.6 F21000
G1 X123.944 Y177.626
G1 Z.6
M73 P0 R53
G1 Z.2
G1 E.3 F1800
;TYPE:Brim
;WIDTH:0.5
G1 F3000
G1 X124.856 Y177.248 E.03491
G1 X125.835 Y177.119 E.03491
G1 X126.814 Y177.248 E.03491
G1 X127.727 Y177.626 E.03491
G1 X128.51 Y178.227 E.03491
G1 X129.111 Y179.011 E.03491
G1 X129.489 Y179.923 E.03491
G1 X129.582 Y180.628 E.02513
G1 X126.092 Y180.628 E.12338
G1 X125.702 Y180.712 E.01407
G1 X125.416 Y180.89 E.01191
G1 X125.284 Y181.035 E.00694
G1 X125.154 Y181.261 E.00921
G1 X125.072 Y181.648 E.01399
G1 X125.072 Y184.657 E.10635
G1 X125.101 Y184.885 E.00812
G1 X125.198 Y185.144 E.00982
G1 X125.405 Y185.41 E.0119
G1 X125.632 Y185.569 E.00981
G1 X125.894 Y185.661 E.00982
G1 X129.029 Y185.684 E.1108
G1 X129 Y185.901 E.00773
G1 X128.622 Y186.813 E.03491
G1 X128.021 Y187.597 E.03491
G1 X127.238 Y188.198 E.03491
G1 X126.325 Y188.576 E.03491
G1 X125.346 Y188.705 E.03491
G1 X124.367 Y188.576 E.03491
G1 X123.454 Y188.198 E.03491
G1 X122.671 Y187.597 E.03491
G1 X122.07 Y186.813 E.03491
G1 X121.692 Y185.901 E.03491
G1 X121.563 Y184.922 E.03491
G1 X121.692 Y183.943 E.03491
G1 X122.07 Y183.03 E.03491
G1 X122.371 Y182.638 E.01747
G1 X122.418 Y182.497 E.00527
G1 X122.4 Y182.412 E.00307
G1 X122.181 Y181.881 E.02028
G1 X122.052 Y180.902 E.03491
G1 X122.181 Y179.923 E.03491
G1 X122.559 Y179.011 E.03491
G1 X123.16 Y178.227 E.03491
G1 X123.912 Y177.65 E.03349
G1 X124.16 Y178.036 F21000
G1 F3000
G1 X124.993 Y177.691 E.03189
G1 X125.817 Y177.582 E.02938
G1 X126.677 Y177.691 E.03063
G1 X127.48 Y178.018 E.03063
G1 X128.195 Y178.567 E.03189
G1 X128.719 Y179.258 E.03063
G1 X129.019 Y179.981 E.02769
G1 X129.015 Y180.096 E.00404
G1 X128.892 Y180.171 E.00508
G1 X125.989 Y180.183 E.10261
G1 X125.619 Y180.262 E.01339
G1 X125.45 Y180.33 E.00642
G1 X125.187 Y180.494 E.01097
G1 X124.952 Y180.722 E.01156
G1 X124.763 Y181.025 E.01263
G1 X124.705 Y181.175 E.00568
G1 X124.615 Y181.66 E.01744
G1 X124.615 Y184.649 E.10563
G1 X124.646 Y184.929 E.00997
G1 X124.768 Y185.298 E.01374
G1 X124.843 Y185.433 E.00545
G1 X125.037 Y185.682 E.01117
G1 X125.152 Y185.791 E.0056
G1 X125.489 Y186.003 E.01409
G1 X125.732 Y186.089 E.00909
G1 X125.902 Y186.118 E.00611
G1 X128.204 Y186.135 E.08137
G1 X128.308 Y186.184 E.00404
G1 X128.33 Y186.325 E.00505
G1 X128.212 Y186.597 E.01049
G1 X127.706 Y187.257 E.02938
G1 X126.99 Y187.806 E.03189
G1 X126.188 Y188.133 E.03063
G1 X125.364 Y188.242 E.02938
G1 X124.504 Y188.133 E.03063
G1 X123.702 Y187.806 E.03063
G1 X123.011 Y187.282 E.03063
G1 X122.462 Y186.566 E.03189
G1 X122.135 Y185.764 E.03063
G1 X122.026 Y184.94 E.02938
G1 X122.135 Y184.08 E.03063
G1 X122.462 Y183.277 E.03063
G1 X122.726 Y182.925 E.01556
G1 X122.846 Y182.659 E.01033
G1 X122.862 Y182.391 E.00946
G1 X122.819 Y182.228 E.00597
G1 X122.624 Y181.744 E.01844
G1 X122.515 Y180.92 E.02938
G1 X122.624 Y180.06 E.03063
G1 X122.969 Y179.227 E.03189
G1 X123.475 Y178.567 E.02938
G1 X124.128 Y178.061 E.02922
G1 X124.377 Y178.446 F21000
G1 F3000
G1 X125.13 Y178.134 E.02883
G1 X125.836 Y178.045 E.02513
G1 X126.542 Y178.135 E.02516
G1 X127.233 Y178.411 E.0263
G1 X127.854 Y178.881 E.02752
G1 X128.319 Y179.498 E.0273
G1 X128.343 Y179.61 E.00404
G1 X128.274 Y179.701 E.00404
G1 X128.211 Y179.717 E.00231
G1 X125.882 Y179.739 E.08232
G1 X125.44 Y179.842 E.01604
G1 X125.202 Y179.946 E.00918
G1 X124.86 Y180.175 E.01455
G1 X124.64 Y180.388 E.01083
G1 X124.561 Y180.486 E.00442
G1 X124.333 Y180.87 E.01581
G1 X124.254 Y181.102 E.00864
G1 X124.168 Y181.565 E.01665
G1 X124.161 Y184.704 E.11098
G1 X124.216 Y185.085 E.01359
G1 X124.331 Y185.433 E.01294
G1 X124.442 Y185.65 E.00862
G1 X124.672 Y185.957 E.01354
G1 X124.83 Y186.115 E.00793
G1 X125.237 Y186.384 E.01725
G1 X125.574 Y186.517 E.0128
G1 X125.815 Y186.567 E.00869
G1 X127.368 Y186.586 E.0549
G1 X127.472 Y186.635 E.00404
G1 X127.502 Y186.746 E.00404
G1 X127.475 Y186.807 E.00236
G1 X127.366 Y186.942 E.00614
G1 X126.776 Y187.395 E.0263
G1 X126.086 Y187.681 E.02638
G1 X125.38 Y187.779 E.02519
G1 X124.639 Y187.69 E.02639
G1 X123.916 Y187.394 E.02761
G1 X123.325 Y186.94 E.02633
G1 X122.855 Y186.32 E.02752
G1 X122.578 Y185.628 E.02633
G1 X122.489 Y184.921 E.02519
G1 X122.578 Y184.215 E.02516
G1 X122.856 Y183.521 E.02641
G1 X123.149 Y183.1 E.01813
G1 X123.258 Y182.857 E.00942
G1 X123.303 Y182.674 E.00665
G1 X123.317 Y182.43 E.00864
G1 X123.301 Y182.267 E.00579
G1 X123.24 Y182.05 E.00796
G1 X123.067 Y181.61 E.01672
G1 X122.978 Y180.936 E.024
G1 X123.067 Y180.197 E.02633
G1 X123.379 Y179.443 E.02883
G1 X123.816 Y178.882 E.02514
G1 X124.345 Y178.471 E.02369
G1 E-.21 F1800
;WIPE_START
G1 F3000
G1 X125.13 Y178.134 E-.0769
G1 X125.275 Y178.116 E-.0131
;WIPE_END
G1 Z.6 F21000
G1 X123.556 Y183.399 Z.6
G1 Z.2
G1 E.3 F1800
G1 F3000
G1 X123.664 Y183.436 E.00404
G1 X123.707 Y183.536 E.00384
G1 X123.704 Y184.694 E.04094
G1 X123.762 Y185.14 E.01588
G1 X123.895 Y185.57 E.0159
G1 X124.03 Y185.849 E.01096
G1 X124.3 Y186.223 E.01632
G1 X124.589 Y186.504 E.01424
G1 X124.975 Y186.759 E.01635
G1 X125.399 Y186.939 E.01628
G1 X125.687 Y187.007 E.01048
G1 X125.778 Y187.077 E.00404
G1 X125.783 Y187.192 E.00404
G1 X125.675 Y187.276 E.00487
G1 X125.359 Y187.316 E.01126
G1 X124.773 Y187.245 E.02085
G1 X124.162 Y187.002 E.02323
G1 X123.641 Y186.601 E.02323
G1 X123.25 Y186.076 E.02316
G1 X123.022 Y185.495 E.02203
G1 X122.952 Y184.938 E.01984
G1 X123.022 Y184.348 E.02102
G1 X123.255 Y183.754 E.02256
G1 X123.457 Y183.458 E.01266
G1 X123.521 Y183.42 E.00263
G1 E-.21 F1800
;WIPE_START
G1 F3000
G1 X123.664 Y183.436 E-.01293
G1 X123.707 Y183.536 E-.00979
G1 X123.705 Y184.284 E-.06728
;WIPE_END
G1 Z.6 F21000
G1 X123.575 Y181.389 Z.6
G1 Z.2
G1 E.3 F1800
G1 F3000
G1 X123.484 Y181.277 E.00509
G1 X123.441 Y180.951 E.01164
G1 X123.511 Y180.332 E.02201
G1 X123.771 Y179.692 E.02442
G1 X124.131 Y179.221 E.02095
G1 X124.626 Y178.838 E.02212
G1 X125.231 Y178.587 E.02318
G1 X125.853 Y178.508 E.02214
G1 X126.443 Y178.587 E.02105
G1 X126.989 Y178.806 E.02078
G1 X127.283 Y179.023 E.01293
G1 X127.337 Y179.124 E.00404
G1 X127.296 Y179.23 E.00404
G1 X127.202 Y179.269 E.00361
G1 X125.772 Y179.295 E.05055
G1 X125.246 Y179.428 E.01916
G1 X124.941 Y179.571 E.01192
G1 X124.534 Y179.854 E.01752
G1 X124.281 Y180.105 E.0126
G1 X124.165 Y180.258 E.00677
G1 X123.897 Y180.733 E.01928
G1 X123.803 Y181.027 E.01089
G1 X123.755 Y181.285 E.00927
G1 X123.689 Y181.378 E.00404
G1 X123.615 Y181.385 E.00263
G1 E-.21 F1800
;WIPE_START
G1 F3000
G1 X123.484 Y181.277 E-.01526
G1 X123.441 Y180.951 E-.02965
G1 X123.498 Y180.453 E-.0451
;WIPE_END
G1 Z.6 F21000
G1 X137.445 Y166.327 Z.6
G1 Z.2
G1 E.3 F1800
G1 F3000
G1 X136.844 Y165.544 E.03491
G1 X136.466 Y164.631 E.03491
G1 X136.337 Y163.652 E.03491
G1 X136.466 Y162.673 E.03491
G1 X136.844 Y161.761 E.03491
G1 X137.445 Y160.977 E.03491
G1 X138.229 Y160.376 E.03491
G1 X139.141 Y159.998 E.03491
G1 X140.12 Y159.869 E.03491
G1 X141.099 Y159.998 E.03491
G1 X142.012 Y160.376 E.03491
G1 X142.795 Y160.977 E.03491
G1 X143.396 Y161.761 E.03491
G1 X143.774 Y162.673 E.03491
G1 X143.867 Y163.378 E.02513
G1 X140.385 Y163.378 E.12307
G1 X140.008 Y163.453 E.0136
G1 X139.716 Y163.627 E.012
G1 X139.606 Y163.738 E.00554
G1 X139.5 Y163.885 E.00642
G1 X139.372 Y164.237 E.01322
G1 X139.357 Y164.398 E.00572
G1 X139.357 Y167.335 E.10381
G1 X139.141 Y167.306 E.0077
G1 X138.229 Y166.929 E.03491
G1 X137.477 Y166.352 E.03349
G1 X137.785 Y166.012 F21000
G1 F3000
G1 X137.236 Y165.297 E.03189
G1 X136.909 Y164.494 E.03063
G1 X136.8 Y163.67 E.02938
G1 X136.918 Y162.776 E.03189
G1 X137.254 Y161.977 E.03063
G1 X137.76 Y161.317 E.02938
G1 X138.476 Y160.768 E.03189
G1 X139.278 Y160.441 E.03063
G1 X140.102 Y160.332 E.02938
G1 X140.962 Y160.441 E.03063
G1 X141.765 Y160.768 E.03063
G1 X142.48 Y161.317 E.03189
G1 X143.004 Y162.008 E.03063
G1 X143.304 Y162.731 E.02768
G1 X143.3 Y162.846 E.00404
G1 X143.178 Y162.921 E.00506
G1 X140.283 Y162.932 E.1023
G1 X139.93 Y163.002 E.01272
G1 X139.764 Y163.066 E.00631
G1 X139.389 Y163.308 E.01577
G1 X139.229 Y163.479 E.00827
G1 X139.134 Y163.612 E.00577
G1 X139.067 Y163.738 E.00504
G1 X138.946 Y164.072 E.01258
G1 X138.916 Y164.203 E.00474
G1 X138.9 Y164.403 E.0071
G1 X138.9 Y166.507 E.07435
G1 X138.852 Y166.611 E.00404
G1 X138.71 Y166.633 E.00508
G1 X138.445 Y166.518 E.01023
G1 X137.817 Y166.037 E.02796
G1 X138.109 Y165.679 F21000
G1 F3000
G1 X138.1 Y165.672 E.00039
G1 X137.647 Y165.082 E.0263
G1 X137.352 Y164.359 E.02761
G1 X137.264 Y163.652 E.02516
G1 X137.361 Y162.915 E.0263
G1 X137.646 Y162.225 E.02638
G1 X138.1 Y161.632 E.02639
G1 X138.722 Y161.161 E.02758
G1 X139.38 Y160.893 E.0251
G1 X140.086 Y160.796 E.02519
G1 X140.827 Y160.885 E.02639
G1 X141.518 Y161.161 E.0263
G1 X142.139 Y161.631 E.02752
G1 X142.604 Y162.248 E.02729
G1 X142.628 Y162.359 E.00404
G1 X142.559 Y162.45 E.00404
G1 X142.495 Y162.467 E.00231
G1 X140.182 Y162.487 E.08179
G1 X139.851 Y162.552 E.01192
G1 X139.61 Y162.636 E.00902
G1 X139.151 Y162.918 E.01902
G1 X138.899 Y163.163 E.01244
G1 X138.767 Y163.339 E.00778
G1 X138.635 Y163.589 E.01001
G1 X138.498 Y163.978 E.01457
G1 X138.46 Y164.174 E.00704
G1 X138.443 Y164.408 E.0083
G1 X138.443 Y165.663 E.04435
G1 X138.395 Y165.767 E.00404
G1 X138.285 Y165.798 E.00404
G1 X138.222 Y165.772 E.00242
G1 X138.14 Y165.704 E.00376
G1 E-.21 F1800
;WIPE_START
G1 F3000
G1 X138.1 Y165.672 E-.00459
G1 X137.647 Y165.082 E-.06696
G1 X137.57 Y164.892 E-.01845
;WIPE_END
G1 Z.6 F21000
G1 X137.963 Y164.068 Z.6
G1 Z.2
G1 E.3 F1800
G1 F3000
G1 X137.848 Y164.073 E.00404
G1 X137.763 Y163.963 E.00493
G1 X137.727 Y163.671 E.01039
G1 X137.813 Y163.017 E.02332
G1 X138.056 Y162.441 E.02211
G1 X138.44 Y161.948 E.02206
G1 X138.936 Y161.573 E.02199
G1 X139.483 Y161.344 E.02096
G1 X140.072 Y161.259 E.02104
G1 X140.695 Y161.329 E.02215
G1 X141.306 Y161.574 E.02325
G1 X141.567 Y161.772 E.01158
G1 X141.621 Y161.873 E.00404
G1 X141.58 Y161.979 E.00404
G1 X141.486 Y162.018 E.00358
G1 X140.081 Y162.041 E.04967
G1 X139.694 Y162.123 E.01399
G1 X139.36 Y162.253 E.01267
G1 X138.919 Y162.525 E.01831
G1 X138.528 Y162.896 E.01903
G1 X138.358 Y163.134 E.01035
G1 X138.235 Y163.368 E.00935
G1 X138.069 Y163.821 E.01704
G1 X138.033 Y163.977 E.00567
G1 X137.987 Y164.036 E.00263
G1 E-.21 F1800
;WIPE_START
G1 F3000
G1 X137.848 Y164.073 E-.01293
G1 X137.763 Y163.963 E-.01254
G1 X137.727 Y163.671 E-.02646
G1 X137.782 Y163.252 E-.03806
;WIPE_END
G1 Z.6 F21000
G1 X200.541 Y163.378 Z.6
G1 Z.2
G1 E.3 F1800
G1 F3000
G1 X200.64 Y162.628 E.02675
G1 X201.018 Y161.715 E.03491
G1 X201.619 Y160.932 E.03491
G1 X202.403 Y160.331 E.03491
G1 X203.315 Y159.953 E.03491
G1 X204.294 Y159.824 E.03491
G1 X205.273 Y159.953 E.03491
G1 X206.186 Y160.331 E.03491
G1 X206.969 Y160.932 E.03491
G1 X207.57 Y161.715 E.03491
G1 X207.948 Y162.628 E.03491
G1 X208.077 Y163.607 E.03491
G1 X207.948 Y164.586 E.03491
G1 X207.57 Y165.499 E.03491
G1 X206.969 Y166.282 E.03491
G1 X206.186 Y166.883 E.03491
G1 X205.314 Y167.244 E.03335
G1 X205.31 Y164.358 E.10202
G1 X205.265 Y164.102 E.00921
G1 X205.19 Y163.92 E.00694
G1 X205.08 Y163.755 E.00703
G1 X204.953 Y163.625 E.00642
G1 X204.663 Y163.453 E.01191
G1 X204.285 Y163.378 E.0136
G1 X200.581 Y163.378 E.13093
G1 X201.115 Y162.873 F21000
G1 F3000
G1 X201.092 Y162.731 E.00508
G1 X201.428 Y161.932 E.03067
G1 X201.934 Y161.272 E.02938
G1 X202.619 Y160.741 E.03063
G1 X203.452 Y160.396 E.03189
G1 X204.276 Y160.287 E.02938
G1 X205.136 Y160.396 E.03063
G1 X205.939 Y160.723 E.03063
G1 X206.654 Y161.272 E.03189
G1 X207.178 Y161.963 E.03063
G1 X207.505 Y162.765 E.03063
G1 X207.614 Y163.589 E.02938
G1 X207.505 Y164.449 E.03063
G1 X207.16 Y165.282 E.03189
G1 X206.629 Y165.967 E.03063
G1 X205.99 Y166.457 E.02845
G1 X205.879 Y166.482 E.00404
G1 X205.787 Y166.414 E.00404
G1 X205.77 Y166.348 E.00241
G1 X205.767 Y164.368 E.07001
G1 X205.716 Y164.032 E.01199
G1 X205.616 Y163.755 E.01044
G1 X205.463 Y163.507 E.0103
G1 X205.284 Y163.31 E.0094
G1 X205.178 Y163.227 E.00474
G1 X204.906 Y163.066 E.01118
G1 X204.742 Y163.003 E.00622
G1 X204.273 Y162.921 E.01681
G1 X201.219 Y162.921 E.10798
G1 X201.151 Y162.89 E.00263
G1 X201.802 Y162.416 F21000
G1 F3000
G1 X201.78 Y162.274 E.00508
G1 X201.82 Y162.179 E.00362
G1 X202.25 Y161.611 E.02519
G1 X202.867 Y161.133 E.02761
G1 X203.589 Y160.839 E.02755
G1 X204.295 Y160.75 E.02513
G1 X205.001 Y160.839 E.02516
G1 X205.692 Y161.116 E.0263
G1 X206.313 Y161.586 E.02752
G1 X206.767 Y162.177 E.02633
G1 X207.053 Y162.867 E.02642
G1 X207.151 Y163.573 E.02519
G1 X207.062 Y164.312 E.02633
G1 X206.75 Y165.065 E.0288
G1 X206.471 Y165.425 E.01609
G1 X206.37 Y165.478 E.00404
G1 X206.263 Y165.435 E.00404
G1 X206.226 Y165.341 E.00359
G1 X206.224 Y164.378 E.03404
G1 X206.142 Y163.865 E.01837
G1 X206.05 Y163.611 E.00955
G1 X205.856 Y163.274 E.01372
G1 X205.627 Y163.009 E.01241
G1 X205.403 Y162.83 E.01012
G1 X205.148 Y162.678 E.01051
G1 X204.915 Y162.58 E.00894
G1 X204.363 Y162.473 E.01988
G1 X201.906 Y162.464 E.08683
G1 X201.838 Y162.433 E.00263
G1 E-.21 F1800
;WIPE_START
G1 F3000
G1 X201.78 Y162.274 E-.01524
G1 X201.82 Y162.179 E-.00921
G1 X202.25 Y161.611 E-.06414
G1 X202.262 Y161.602 E-.00141
;WIPE_END
G1 Z.6 F21000
G1 X202.778 Y161.962 Z.6
G1 Z.2
G1 E.3 F1800
G1 F3000
G1 X202.746 Y161.852 E.00404
G1 X202.798 Y161.765 E.00358
G1 X203.115 Y161.525 E.01406
G1 X203.724 Y161.282 E.02316
G1 X204.312 Y161.213 E.02093
G1 X204.902 Y161.292 E.02105
G1 X205.448 Y161.511 E.02078
G1 X205.973 Y161.902 E.02316
G1 X206.375 Y162.424 E.02327
G1 X206.611 Y163.005 E.02217
G1 X206.635 Y163.182 E.0063
G1 X206.602 Y163.291 E.00404
G1 X206.498 Y163.338 E.00404
G1 X206.383 Y163.272 E.00467
G1 X206.196 Y162.968 E.01262
G1 X205.905 Y162.646 E.01535
G1 X205.629 Y162.432 E.01232
G1 X205.388 Y162.289 E.00991
G1 X205.103 Y162.164 E.01102
G1 X204.351 Y162.016 E.02709
G1 X202.881 Y162.01 E.05195
G1 X202.814 Y161.979 E.00263
G1 E-.21 F1800
;WIPE_START
G1 F3000
G1 X202.746 Y161.852 E-.01293
